( Generated by Carbide Copper )
( Material Size )
( X= 1500.000, Y= 1500.000, Z= 1.580 )
()
G17
G21
G54
G90
M05
(  )
T501 M06
( Contour )
M03 S10000
G0  X20.163 Y-21.353
G0  Z3.000
G01 F400 Z0
G01 F400 Z-0.100
G01F400X19.483 Y-21.498
X18.848 Y-21.781
X18.285 Y-22.189
X17.820 Y-22.706
X17.473 Y-23.308
X17.258 Y-23.969
X17.185 Y-24.660
X17.258 Y-25.351
X17.473 Y-26.012
X17.820 Y-26.614
X18.285 Y-27.131
X18.848 Y-27.539
X19.483 Y-27.822
X20.163 Y-27.967
X20.858 Y-27.967
X21.537 Y-27.822
X22.172 Y-27.539
X22.735 Y-27.131
X23.200 Y-26.614
X23.547 Y-26.012
X23.762 Y-25.351
X23.835 Y-24.660
X23.762 Y-23.969
X23.547 Y-23.308
X23.200 Y-22.706
X22.735 Y-22.189
X22.172 Y-21.781
X21.537 Y-21.498
X20.858 Y-21.353
X20.163 Y-21.353
G0 Z3.000
G0  X95.663 Y-21.353
G0  Z3.000
G01 F400 Z0
G01 F400 Z-0.100
G01F400X94.983 Y-21.498
X94.348 Y-21.781
X93.785 Y-22.189
X93.320 Y-22.706
X92.973 Y-23.308
X92.758 Y-23.969
X92.685 Y-24.660
X92.758 Y-25.351
X92.973 Y-26.012
X93.320 Y-26.614
X93.785 Y-27.131
X94.348 Y-27.539
X94.983 Y-27.822
X95.663 Y-27.967
X96.358 Y-27.967
X97.037 Y-27.822
X97.672 Y-27.539
X98.235 Y-27.131
X98.700 Y-26.614
X99.047 Y-26.012
X99.262 Y-25.351
X99.335 Y-24.660
X99.262 Y-23.969
X99.047 Y-23.308
X98.700 Y-22.706
X98.235 Y-22.189
X97.672 Y-21.781
X97.037 Y-21.498
X96.358 Y-21.353
X95.663 Y-21.353
G0 Z3.000
G0  X37.685 Y-21.960
G0  Z3.000
G01 F400 Z0
G01 F400 Z-0.100
G01F400X37.500 Y-22.000
X37.328 Y-22.076
X37.175 Y-22.188
X37.048 Y-22.328
X36.953 Y-22.492
X36.895 Y-22.672
X36.875 Y-22.860
X36.895 Y-23.048
X36.953 Y-23.228
X37.048 Y-23.392
X37.175 Y-23.532
X37.328 Y-23.644
X37.500 Y-23.721
X37.685 Y-23.760
X37.875 Y-23.760
X38.060 Y-23.721
X38.232 Y-23.644
X38.385 Y-23.532
X38.512 Y-23.392
X38.607 Y-23.228
X38.665 Y-23.048
X38.685 Y-22.860
X38.665 Y-22.672
X38.607 Y-22.492
X38.512 Y-22.328
X38.385 Y-22.188
X38.232 Y-22.076
X38.060 Y-22.000
X37.875 Y-21.960
X37.685 Y-21.960
G0 Z3.000
G0  X40.225 Y-21.960
G0  Z3.000
G01 F400 Z0
G01 F400 Z-0.100
G01F400X40.040 Y-22.000
X39.868 Y-22.076
X39.715 Y-22.188
X39.588 Y-22.328
X39.493 Y-22.492
X39.435 Y-22.672
X39.415 Y-22.860
X39.435 Y-23.048
X39.493 Y-23.228
X39.588 Y-23.392
X39.715 Y-23.532
X39.868 Y-23.644
X40.040 Y-23.721
X40.225 Y-23.760
X40.415 Y-23.760
X40.600 Y-23.721
X40.772 Y-23.644
X40.925 Y-23.532
X41.052 Y-23.392
X41.147 Y-23.228
X41.205 Y-23.048
X41.225 Y-22.860
X41.205 Y-22.672
X41.147 Y-22.492
X41.052 Y-22.328
X40.925 Y-22.188
X40.772 Y-22.076
X40.600 Y-22.000
X40.415 Y-21.960
X40.225 Y-21.960
G0 Z3.000
G0  X68.165 Y-21.960
G0  Z3.000
G01 F400 Z0
G01 F400 Z-0.100
G01F400X67.980 Y-22.000
X67.808 Y-22.076
X67.655 Y-22.188
X67.528 Y-22.328
X67.433 Y-22.492
X67.375 Y-22.672
X67.355 Y-22.860
X67.375 Y-23.048
X67.433 Y-23.228
X67.528 Y-23.392
X67.655 Y-23.532
X67.808 Y-23.644
X67.980 Y-23.721
X68.165 Y-23.760
X68.355 Y-23.760
X68.540 Y-23.721
X68.712 Y-23.644
X68.865 Y-23.532
X68.992 Y-23.392
X69.087 Y-23.228
X69.145 Y-23.048
X69.165 Y-22.860
X69.145 Y-22.672
X69.087 Y-22.492
X68.992 Y-22.328
X68.865 Y-22.188
X68.712 Y-22.076
X68.540 Y-22.000
X68.355 Y-21.960
X68.165 Y-21.960
G0 Z3.000
G0  X70.705 Y-21.960
G0  Z3.000
G01 F400 Z0
G01 F400 Z-0.100
G01F400X70.520 Y-22.000
X70.348 Y-22.076
X70.195 Y-22.188
X70.068 Y-22.328
X69.973 Y-22.492
X69.915 Y-22.672
X69.895 Y-22.860
X69.915 Y-23.048
X69.973 Y-23.228
X70.068 Y-23.392
X70.195 Y-23.532
X70.348 Y-23.644
X70.520 Y-23.721
X70.705 Y-23.760
X70.895 Y-23.760
X71.080 Y-23.721
X71.252 Y-23.644
X71.405 Y-23.532
X71.532 Y-23.392
X71.627 Y-23.228
X71.685 Y-23.048
X71.705 Y-22.860
X71.685 Y-22.672
X71.627 Y-22.492
X71.532 Y-22.328
X71.405 Y-22.188
X71.252 Y-22.076
X71.080 Y-22.000
X70.895 Y-21.960
X70.705 Y-21.960
G0 Z3.000
G0  X63.085 Y-21.960
G0  Z3.000
G01 F400 Z0
G01 F400 Z-0.100
G01F400X62.900 Y-22.000
X62.728 Y-22.076
X62.575 Y-22.188
X62.448 Y-22.328
X62.353 Y-22.492
X62.295 Y-22.672
X62.275 Y-22.860
X62.295 Y-23.048
X62.353 Y-23.228
X62.448 Y-23.392
X62.575 Y-23.532
X62.728 Y-23.644
X62.900 Y-23.721
X63.085 Y-23.760
X63.275 Y-23.760
X63.460 Y-23.721
X63.632 Y-23.644
X63.785 Y-23.532
X63.912 Y-23.392
X64.007 Y-23.228
X64.065 Y-23.048
X64.085 Y-22.860
X64.065 Y-22.672
X64.007 Y-22.492
X63.912 Y-22.328
X63.785 Y-22.188
X63.632 Y-22.076
X63.460 Y-22.000
X63.275 Y-21.960
X63.085 Y-21.960
G0 Z3.000
G0  X65.625 Y-21.960
G0  Z3.000
G01 F400 Z0
G01 F400 Z-0.100
G01F400X65.440 Y-22.000
X65.268 Y-22.076
X65.115 Y-22.188
X64.988 Y-22.328
X64.893 Y-22.492
X64.835 Y-22.672
X64.815 Y-22.860
X64.835 Y-23.048
X64.893 Y-23.228
X64.988 Y-23.392
X65.115 Y-23.532
X65.268 Y-23.644
X65.440 Y-23.721
X65.625 Y-23.760
X65.815 Y-23.760
X66.000 Y-23.721
X66.172 Y-23.644
X66.325 Y-23.532
X66.452 Y-23.392
X66.547 Y-23.228
X66.605 Y-23.048
X66.625 Y-22.860
X66.605 Y-22.672
X66.547 Y-22.492
X66.452 Y-22.328
X66.325 Y-22.188
X66.172 Y-22.076
X66.000 Y-22.000
X65.815 Y-21.960
X65.625 Y-21.960
G0 Z3.000
G0  X78.325 Y-21.960
G0  Z3.000
G01 F400 Z0
G01 F400 Z-0.100
G01F400X78.140 Y-22.000
X77.968 Y-22.076
X77.815 Y-22.188
X77.688 Y-22.328
X77.593 Y-22.492
X77.535 Y-22.672
X77.515 Y-22.860
X77.535 Y-23.048
X77.593 Y-23.228
X77.688 Y-23.392
X77.815 Y-23.532
X77.968 Y-23.644
X78.140 Y-23.721
X78.325 Y-23.760
X78.515 Y-23.760
X78.700 Y-23.721
X78.872 Y-23.644
X79.025 Y-23.532
X79.152 Y-23.392
X79.247 Y-23.228
X79.305 Y-23.048
X79.325 Y-22.860
X79.305 Y-22.672
X79.247 Y-22.492
X79.152 Y-22.328
X79.025 Y-22.188
X78.872 Y-22.076
X78.700 Y-22.000
X78.515 Y-21.960
X78.325 Y-21.960
G0 Z3.000
G0  X80.865 Y-21.960
G0  Z3.000
G01 F400 Z0
G01 F400 Z-0.100
G01F400X80.680 Y-22.000
X80.508 Y-22.076
X80.355 Y-22.188
X80.228 Y-22.328
X80.133 Y-22.492
X80.075 Y-22.672
X80.055 Y-22.860
X80.075 Y-23.048
X80.133 Y-23.228
X80.228 Y-23.392
X80.355 Y-23.532
X80.508 Y-23.644
X80.680 Y-23.721
X80.865 Y-23.760
X81.055 Y-23.760
X81.240 Y-23.721
X81.412 Y-23.644
X81.565 Y-23.532
X81.692 Y-23.392
X81.787 Y-23.228
X81.845 Y-23.048
X81.865 Y-22.860
X81.845 Y-22.672
X81.787 Y-22.492
X81.692 Y-22.328
X81.565 Y-22.188
X81.412 Y-22.076
X81.240 Y-22.000
X81.055 Y-21.960
X80.865 Y-21.960
G0 Z3.000
G0  X73.245 Y-21.960
G0  Z3.000
G01 F400 Z0
G01 F400 Z-0.100
G01F400X73.060 Y-22.000
X72.888 Y-22.076
X72.735 Y-22.188
X72.608 Y-22.328
X72.513 Y-22.492
X72.455 Y-22.672
X72.435 Y-22.860
X72.455 Y-23.048
X72.513 Y-23.228
X72.608 Y-23.392
X72.735 Y-23.532
X72.888 Y-23.644
X73.060 Y-23.721
X73.245 Y-23.760
X73.435 Y-23.760
X73.620 Y-23.721
X73.792 Y-23.644
X73.945 Y-23.532
X74.072 Y-23.392
X74.167 Y-23.228
X74.225 Y-23.048
X74.245 Y-22.860
X74.225 Y-22.672
X74.167 Y-22.492
X74.072 Y-22.328
X73.945 Y-22.188
X73.792 Y-22.076
X73.620 Y-22.000
X73.435 Y-21.960
X73.245 Y-21.960
G0 Z3.000
G0  X75.785 Y-21.960
G0  Z3.000
G01 F400 Z0
G01 F400 Z-0.100
G01F400X75.600 Y-22.000
X75.428 Y-22.076
X75.275 Y-22.188
X75.148 Y-22.328
X75.053 Y-22.492
X74.995 Y-22.672
X74.975 Y-22.860
X74.995 Y-23.048
X75.053 Y-23.228
X75.148 Y-23.392
X75.275 Y-23.532
X75.428 Y-23.644
X75.600 Y-23.721
X75.785 Y-23.760
X75.975 Y-23.760
X76.160 Y-23.721
X76.332 Y-23.644
X76.485 Y-23.532
X76.612 Y-23.392
X76.707 Y-23.228
X76.765 Y-23.048
X76.785 Y-22.860
X76.765 Y-22.672
X76.707 Y-22.492
X76.612 Y-22.328
X76.485 Y-22.188
X76.332 Y-22.076
X76.160 Y-22.000
X75.975 Y-21.960
X75.785 Y-21.960
G0 Z3.000
G0  X47.845 Y-21.960
G0  Z3.000
G01 F400 Z0
G01 F400 Z-0.100
G01F400X47.660 Y-22.000
X47.488 Y-22.076
X47.335 Y-22.188
X47.208 Y-22.328
X47.113 Y-22.492
X47.055 Y-22.672
X47.035 Y-22.860
X47.055 Y-23.048
X47.096 Y-23.175
X42.404 Y-27.867
X30.408 Y-27.867
X30.401 Y-27.844
X30.299 Y-27.667
X30.162 Y-27.516
X29.997 Y-27.396
X29.811 Y-27.313
X29.612 Y-27.271
X29.408 Y-27.271
X29.209 Y-27.313
X29.023 Y-27.396
X28.858 Y-27.516
X28.721 Y-27.667
X28.620 Y-27.844
X28.556 Y-28.037
X28.535 Y-28.240
X28.556 Y-28.443
X28.620 Y-28.637
X28.721 Y-28.813
X28.858 Y-28.964
X29.023 Y-29.084
X29.209 Y-29.167
X29.408 Y-29.209
X29.612 Y-29.209
X29.811 Y-29.167
X29.997 Y-29.084
X30.162 Y-28.964
X30.299 Y-28.813
X30.401 Y-28.637
X30.408 Y-28.613
X42.599 Y-28.613
X42.676 Y-28.596
X42.747 Y-28.565
X42.808 Y-28.520
X47.624 Y-23.704
X47.660 Y-23.721
X47.845 Y-23.760
X48.035 Y-23.760
X48.220 Y-23.721
X48.392 Y-23.644
X48.545 Y-23.532
X48.672 Y-23.392
X48.767 Y-23.228
X48.825 Y-23.048
X48.845 Y-22.860
X48.825 Y-22.672
X48.767 Y-22.492
X48.672 Y-22.328
X48.545 Y-22.188
X48.392 Y-22.076
X48.220 Y-22.000
X48.035 Y-21.960
X47.845 Y-21.960
G0 Z3.000
G0  X50.385 Y-21.960
G0  Z3.000
G01 F400 Z0
G01 F400 Z-0.100
G01F400X50.200 Y-22.000
X50.028 Y-22.076
X49.875 Y-22.188
X49.748 Y-22.328
X49.653 Y-22.492
X49.595 Y-22.672
X49.575 Y-22.860
X49.595 Y-23.048
X49.653 Y-23.228
X49.748 Y-23.392
X49.875 Y-23.532
X50.028 Y-23.644
X50.200 Y-23.721
X50.385 Y-23.760
X50.575 Y-23.760
X50.760 Y-23.721
X50.932 Y-23.644
X51.085 Y-23.532
X51.212 Y-23.392
X51.307 Y-23.228
X51.365 Y-23.048
X51.385 Y-22.860
X51.365 Y-22.672
X51.307 Y-22.492
X51.212 Y-22.328
X51.085 Y-22.188
X50.932 Y-22.076
X50.760 Y-22.000
X50.575 Y-21.960
X50.385 Y-21.960
G0 Z3.000
G0  X42.765 Y-21.960
G0  Z3.000
G01 F400 Z0
G01 F400 Z-0.100
G01F400X42.580 Y-22.000
X42.408 Y-22.076
X42.255 Y-22.188
X42.128 Y-22.328
X42.033 Y-22.492
X41.975 Y-22.672
X41.955 Y-22.860
X41.975 Y-23.048
X42.033 Y-23.228
X42.128 Y-23.392
X42.255 Y-23.532
X42.408 Y-23.644
X42.580 Y-23.721
X42.765 Y-23.760
X42.955 Y-23.760
X43.140 Y-23.721
X43.312 Y-23.644
X43.465 Y-23.532
X43.592 Y-23.392
X43.687 Y-23.228
X43.745 Y-23.048
X43.765 Y-22.860
X43.745 Y-22.672
X43.687 Y-22.492
X43.592 Y-22.328
X43.465 Y-22.188
X43.312 Y-22.076
X43.140 Y-22.000
X42.955 Y-21.960
X42.765 Y-21.960
G0 Z3.000
G0  X45.305 Y-21.960
G0  Z3.000
G01 F400 Z0
G01 F400 Z-0.100
G01F400X45.120 Y-22.000
X44.948 Y-22.076
X44.795 Y-22.188
X44.668 Y-22.328
X44.573 Y-22.492
X44.515 Y-22.672
X44.495 Y-22.860
X44.515 Y-23.048
X44.556 Y-23.175
X42.404 Y-25.327
X30.408 Y-25.327
X30.401 Y-25.303
X30.299 Y-25.127
X30.162 Y-24.976
X29.997 Y-24.856
X29.811 Y-24.773
X29.612 Y-24.731
X29.408 Y-24.731
X29.209 Y-24.773
X29.023 Y-24.856
X28.858 Y-24.976
X28.721 Y-25.127
X28.620 Y-25.303
X28.556 Y-25.497
X28.535 Y-25.700
X28.556 Y-25.903
X28.620 Y-26.097
X28.721 Y-26.273
X28.858 Y-26.424
X29.023 Y-26.544
X29.209 Y-26.627
X29.408 Y-26.669
X29.612 Y-26.669
X29.811 Y-26.627
X29.997 Y-26.544
X30.162 Y-26.424
X30.299 Y-26.273
X30.401 Y-26.097
X30.408 Y-26.073
X42.599 Y-26.073
X42.676 Y-26.056
X42.747 Y-26.025
X42.808 Y-25.980
X45.084 Y-23.704
X45.120 Y-23.721
X45.305 Y-23.760
X45.495 Y-23.760
X45.680 Y-23.721
X45.852 Y-23.644
X46.005 Y-23.532
X46.132 Y-23.392
X46.227 Y-23.228
X46.285 Y-23.048
X46.305 Y-22.860
X46.285 Y-22.672
X46.227 Y-22.492
X46.132 Y-22.328
X46.005 Y-22.188
X45.852 Y-22.076
X45.680 Y-22.000
X45.495 Y-21.960
X45.305 Y-21.960
G0 Z3.000
G0  X58.005 Y-21.960
G0  Z3.000
G01 F400 Z0
G01 F400 Z-0.100
G01F400X57.820 Y-22.000
X57.648 Y-22.076
X57.495 Y-22.188
X57.368 Y-22.328
X57.273 Y-22.492
X57.215 Y-22.672
X57.195 Y-22.860
X57.215 Y-23.048
X57.273 Y-23.228
X57.368 Y-23.392
X57.495 Y-23.532
X57.648 Y-23.644
X57.820 Y-23.721
X58.005 Y-23.760
X58.195 Y-23.760
X58.380 Y-23.721
X58.552 Y-23.644
X58.705 Y-23.532
X58.832 Y-23.392
X58.927 Y-23.228
X58.985 Y-23.048
X59.005 Y-22.860
X58.985 Y-22.672
X58.927 Y-22.492
X58.832 Y-22.328
X58.705 Y-22.188
X58.552 Y-22.076
X58.380 Y-22.000
X58.195 Y-21.960
X58.005 Y-21.960
G0 Z3.000
G0  X60.545 Y-21.960
G0  Z3.000
G01 F400 Z0
G01 F400 Z-0.100
G01F400X60.360 Y-22.000
X60.188 Y-22.076
X60.035 Y-22.188
X59.908 Y-22.328
X59.813 Y-22.492
X59.755 Y-22.672
X59.735 Y-22.860
X59.755 Y-23.048
X59.813 Y-23.228
X59.908 Y-23.392
X60.035 Y-23.532
X60.188 Y-23.644
X60.360 Y-23.721
X60.545 Y-23.760
X60.735 Y-23.760
X60.920 Y-23.721
X61.092 Y-23.644
X61.245 Y-23.532
X61.372 Y-23.392
X61.467 Y-23.228
X61.525 Y-23.048
X61.545 Y-22.860
X61.525 Y-22.672
X61.467 Y-22.492
X61.372 Y-22.328
X61.245 Y-22.188
X61.092 Y-22.076
X60.920 Y-22.000
X60.735 Y-21.960
X60.545 Y-21.960
G0 Z3.000
G0  X52.925 Y-21.960
G0  Z3.000
G01 F400 Z0
G01 F400 Z-0.100
G01F400X52.740 Y-22.000
X52.568 Y-22.076
X52.415 Y-22.188
X52.288 Y-22.328
X52.193 Y-22.492
X52.135 Y-22.672
X52.115 Y-22.860
X52.135 Y-23.048
X52.193 Y-23.228
X52.288 Y-23.392
X52.415 Y-23.532
X52.568 Y-23.644
X52.740 Y-23.721
X52.925 Y-23.760
X53.115 Y-23.760
X53.300 Y-23.721
X53.472 Y-23.644
X53.625 Y-23.532
X53.752 Y-23.392
X53.847 Y-23.228
X53.905 Y-23.048
X53.925 Y-22.860
X53.905 Y-22.672
X53.847 Y-22.492
X53.752 Y-22.328
X53.625 Y-22.188
X53.472 Y-22.076
X53.300 Y-22.000
X53.115 Y-21.960
X52.925 Y-21.960
G0 Z3.000
G0  X55.465 Y-21.960
G0  Z3.000
G01 F400 Z0
G01 F400 Z-0.100
G01F400X55.280 Y-22.000
X55.108 Y-22.076
X54.955 Y-22.188
X54.828 Y-22.328
X54.733 Y-22.492
X54.675 Y-22.672
X54.655 Y-22.860
X54.675 Y-23.048
X54.733 Y-23.228
X54.828 Y-23.392
X54.955 Y-23.532
X55.108 Y-23.644
X55.280 Y-23.721
X55.465 Y-23.760
X55.655 Y-23.760
X55.840 Y-23.721
X56.012 Y-23.644
X56.165 Y-23.532
X56.292 Y-23.392
X56.387 Y-23.228
X56.445 Y-23.048
X56.465 Y-22.860
X56.445 Y-22.672
X56.387 Y-22.492
X56.292 Y-22.328
X56.165 Y-22.188
X56.012 Y-22.076
X55.840 Y-22.000
X55.655 Y-21.960
X55.465 Y-21.960
G0 Z3.000
G0  X83.405 Y-21.960
G0  Z3.000
G01 F400 Z0
G01 F400 Z-0.100
G01F400X83.220 Y-22.000
X83.048 Y-22.076
X82.895 Y-22.188
X82.768 Y-22.328
X82.673 Y-22.492
X82.615 Y-22.672
X82.595 Y-22.860
X82.615 Y-23.048
X82.673 Y-23.228
X82.768 Y-23.392
X82.895 Y-23.532
X83.048 Y-23.644
X83.220 Y-23.721
X83.405 Y-23.760
X83.595 Y-23.760
X83.780 Y-23.721
X83.952 Y-23.644
X84.105 Y-23.532
X84.232 Y-23.392
X84.327 Y-23.228
X84.385 Y-23.048
X84.405 Y-22.860
X84.385 Y-22.672
X84.327 Y-22.492
X84.232 Y-22.328
X84.105 Y-22.188
X83.952 Y-22.076
X83.780 Y-22.000
X83.595 Y-21.960
X83.405 Y-21.960
G0 Z3.000
G0  X28.536 Y-22.186
G0  Z3.000
G01 F400 Z0
G01 F400 Z-0.100
G01F400X28.536 Y-23.606
X27.653 Y-24.489
X27.607 Y-24.540
X27.568 Y-24.608
X27.543 Y-24.682
X27.536 Y-24.754
X27.536 Y-38.397
X27.543 Y-38.468
X27.568 Y-38.542
X27.607 Y-38.610
X27.653 Y-38.661
X36.936 Y-47.945
X36.895 Y-48.072
X36.875 Y-48.260
X36.895 Y-48.448
X36.953 Y-48.628
X37.048 Y-48.792
X37.175 Y-48.932
X37.328 Y-49.044
X37.500 Y-49.120
X37.685 Y-49.160
X37.875 Y-49.160
X38.060 Y-49.120
X38.096 Y-49.104
X47.911 Y-58.919
X47.911 Y-73.352
X47.918 Y-73.423
X47.943 Y-73.498
X47.982 Y-73.565
X48.027 Y-73.615
X49.033 Y-74.653
X49.003 Y-74.746
X48.983 Y-74.930
X49.003 Y-75.114
X49.060 Y-75.291
X49.153 Y-75.451
X49.277 Y-75.589
X49.427 Y-75.698
X49.596 Y-75.773
X49.777 Y-75.812
X49.963 Y-75.812
X50.144 Y-75.773
X50.313 Y-75.698
X50.463 Y-75.589
X50.587 Y-75.451
X50.673 Y-75.303
X56.567 Y-75.303
X56.644 Y-75.286
X56.715 Y-75.255
X56.776 Y-75.211
X65.223 Y-66.769
X65.277 Y-66.808
X65.446 Y-66.883
X65.627 Y-66.922
X65.813 Y-66.922
X65.994 Y-66.883
X66.022 Y-66.871
X76.874 Y-77.723
X76.935 Y-77.767
X77.006 Y-77.798
X77.083 Y-77.815
X91.689 Y-77.815
X91.766 Y-77.798
X91.837 Y-77.767
X91.898 Y-77.723
X93.767 Y-75.853
X93.813 Y-75.802
X93.852 Y-75.734
X93.877 Y-75.660
X93.884 Y-75.589
X93.884 Y-70.760
X93.930 Y-70.760
X94.115 Y-70.721
X94.287 Y-70.644
X94.440 Y-70.532
X94.556 Y-70.404
X94.702 Y-70.469
X95.614 Y-70.722
X95.790 Y-70.760
X95.980 Y-70.760
X96.165 Y-70.721
X96.337 Y-70.644
X96.440 Y-70.569
X96.636 Y-70.764
X96.636 Y-72.171
X96.498 Y-72.233
X96.324 Y-72.358
X96.181 Y-72.518
X96.074 Y-72.703
X96.008 Y-72.907
X95.985 Y-73.120
X96.008 Y-73.333
X96.074 Y-73.537
X96.181 Y-73.722
X96.324 Y-73.882
X96.498 Y-74.008
X96.693 Y-74.095
X96.903 Y-74.139
X97.117 Y-74.139
X97.327 Y-74.095
X97.522 Y-74.008
X97.696 Y-73.882
X97.839 Y-73.722
X97.946 Y-73.537
X98.012 Y-73.333
X98.035 Y-73.120
X98.012 Y-72.907
X97.946 Y-72.703
X97.839 Y-72.518
X97.696 Y-72.358
X97.522 Y-72.233
X97.384 Y-72.171
X97.384 Y-70.603
X97.377 Y-70.532
X97.352 Y-70.458
X97.313 Y-70.390
X97.267 Y-70.339
X96.942 Y-70.013
X96.962 Y-69.978
X97.020 Y-69.798
X97.039 Y-69.617
X97.039 Y-68.704
X97.020 Y-68.522
X96.962 Y-68.342
X96.867 Y-68.178
X96.740 Y-68.038
X96.587 Y-67.926
X96.418 Y-67.851
X95.506 Y-67.598
X95.330 Y-67.560
X95.140 Y-67.560
X94.955 Y-67.600
X94.783 Y-67.676
X94.630 Y-67.788
X94.514 Y-67.916
X94.368 Y-67.851
X93.456 Y-67.598
X93.280 Y-67.560
X93.138 Y-67.560
X96.564 Y-64.134
X97.456 Y-64.134
X98.286 Y-64.964
X98.286 Y-73.856
X97.506 Y-74.636
X95.986 Y-74.636
X95.986 Y-76.156
X90.253 Y-81.889
X90.207 Y-81.940
X90.168 Y-82.008
X90.143 Y-82.082
X90.136 Y-82.154
X90.136 Y-91.911
X90.067 Y-91.942
X89.917 Y-92.051
X89.793 Y-92.189
X89.700 Y-92.349
X89.643 Y-92.526
X89.623 Y-92.710
X89.643 Y-92.894
X89.700 Y-93.071
X89.793 Y-93.231
X89.917 Y-93.369
X90.067 Y-93.478
X90.236 Y-93.553
X90.417 Y-93.592
X90.603 Y-93.592
X90.784 Y-93.553
X90.953 Y-93.478
X91.103 Y-93.369
X91.227 Y-93.231
X91.320 Y-93.071
X91.377 Y-92.894
X91.397 Y-92.710
X91.377 Y-92.526
X91.320 Y-92.349
X91.227 Y-92.189
X91.103 Y-92.051
X90.953 Y-91.942
X90.884 Y-91.911
X90.884 Y-82.314
X96.514 Y-76.684
X98.034 Y-76.684
X98.034 Y-75.165
X98.917 Y-74.281
X98.963 Y-74.230
X99.002 Y-74.162
X99.027 Y-74.088
X99.034 Y-74.017
X99.034 Y-64.803
X99.027 Y-64.732
X99.002 Y-64.658
X98.963 Y-64.590
X98.917 Y-64.539
X97.984 Y-63.606
X97.984 Y-62.715
X98.867 Y-61.831
X98.913 Y-61.780
X98.952 Y-61.712
X98.977 Y-61.638
X98.984 Y-61.567
X98.984 Y-59.846
X98.977 Y-59.774
X98.952 Y-59.700
X98.913 Y-59.632
X98.867 Y-59.581
X94.166 Y-54.880
X94.105 Y-54.835
X94.034 Y-54.804
X93.957 Y-54.787
X92.039 Y-54.787
X92.039 Y-54.704
X92.020 Y-54.522
X91.962 Y-54.342
X91.867 Y-54.178
X91.740 Y-54.038
X91.587 Y-53.926
X91.418 Y-53.851
X90.506 Y-53.598
X90.329 Y-53.560
X90.191 Y-53.562
X89.788 Y-53.160
X89.727 Y-53.115
X89.656 Y-53.084
X89.579 Y-53.067
X87.604 Y-53.067
X87.604 Y-49.074
X87.597 Y-49.002
X87.572 Y-48.928
X87.533 Y-48.860
X87.487 Y-48.809
X85.128 Y-46.450
X85.067 Y-46.405
X84.996 Y-46.374
X84.919 Y-46.357
X51.971 Y-46.357
X51.894 Y-46.374
X51.823 Y-46.405
X51.762 Y-46.450
X50.796 Y-47.416
X50.760 Y-47.400
X50.575 Y-47.360
X50.385 Y-47.360
X50.200 Y-47.400
X50.164 Y-47.416
X49.198 Y-46.450
X49.137 Y-46.405
X49.066 Y-46.374
X48.989 Y-46.357
X45.616 Y-46.357
X30.409 Y-31.150
X30.463 Y-30.983
X30.485 Y-30.780
X30.463 Y-30.577
X30.401 Y-30.384
X30.299 Y-30.207
X30.162 Y-30.056
X29.997 Y-29.936
X29.811 Y-29.853
X29.612 Y-29.811
X29.408 Y-29.811
X29.209 Y-29.853
X29.023 Y-29.936
X28.858 Y-30.056
X28.721 Y-30.207
X28.620 Y-30.384
X28.556 Y-30.577
X28.535 Y-30.780
X28.556 Y-30.983
X28.620 Y-31.177
X28.721 Y-31.353
X28.858 Y-31.504
X29.023 Y-31.624
X29.209 Y-31.707
X29.408 Y-31.749
X29.612 Y-31.749
X29.811 Y-31.707
X29.879 Y-31.677
X45.212 Y-47.010
X45.273 Y-47.055
X45.344 Y-47.086
X45.421 Y-47.103
X48.794 Y-47.103
X49.636 Y-47.945
X49.595 Y-48.072
X49.575 Y-48.260
X49.595 Y-48.448
X49.653 Y-48.628
X49.748 Y-48.792
X49.875 Y-48.932
X50.028 Y-49.044
X50.200 Y-49.120
X50.385 Y-49.160
X50.575 Y-49.160
X50.760 Y-49.120
X50.932 Y-49.044
X51.085 Y-48.932
X51.212 Y-48.792
X51.307 Y-48.628
X51.365 Y-48.448
X51.385 Y-48.260
X51.365 Y-48.072
X51.324 Y-47.945
X52.166 Y-47.103
X84.724 Y-47.103
X86.856 Y-49.234
X86.856 Y-53.447
X86.863 Y-53.518
X86.888 Y-53.592
X86.927 Y-53.660
X86.979 Y-53.719
X87.043 Y-53.765
X87.114 Y-53.796
X87.191 Y-53.813
X87.557 Y-53.813
X87.453 Y-53.928
X87.358 Y-54.092
X87.302 Y-54.265
X87.049 Y-55.428
X87.030 Y-55.610
X87.050 Y-55.798
X87.108 Y-55.978
X87.203 Y-56.142
X87.330 Y-56.282
X87.483 Y-56.394
X87.652 Y-56.469
X88.136 Y-56.603
X88.136 Y-59.186
X87.936 Y-59.186
X87.936 Y-59.337
X85.597 Y-59.337
X85.597 Y-59.335
X85.577 Y-59.151
X85.520 Y-58.974
X85.427 Y-58.814
X85.303 Y-58.676
X85.153 Y-58.567
X84.984 Y-58.492
X83.822 Y-58.239
X83.653 Y-58.203
X83.467 Y-58.203
X83.286 Y-58.242
X83.117 Y-58.317
X82.967 Y-58.426
X82.934 Y-58.462
X82.934 Y-58.216
X82.927 Y-58.144
X82.902 Y-58.070
X82.863 Y-58.002
X82.817 Y-57.951
X78.026 Y-53.160
X77.965 Y-53.115
X77.894 Y-53.084
X77.817 Y-53.067
X76.203 Y-53.067
X76.126 Y-53.084
X76.055 Y-53.115
X75.994 Y-53.160
X70.866 Y-58.287
X57.821 Y-58.287
X57.744 Y-58.304
X57.673 Y-58.335
X57.612 Y-58.380
X50.782 Y-65.209
X50.754 Y-65.197
X50.573 Y-65.158
X50.387 Y-65.158
X50.206 Y-65.197
X50.037 Y-65.272
X49.887 Y-65.381
X49.763 Y-65.519
X49.670 Y-65.679
X49.613 Y-65.856
X49.593 Y-66.040
X49.613 Y-66.224
X49.670 Y-66.401
X49.763 Y-66.561
X49.887 Y-66.699
X50.037 Y-66.808
X50.206 Y-66.883
X50.387 Y-66.922
X50.573 Y-66.922
X50.754 Y-66.883
X50.923 Y-66.808
X51.073 Y-66.699
X51.197 Y-66.561
X51.290 Y-66.401
X51.347 Y-66.224
X51.367 Y-66.040
X51.347 Y-65.854
X51.307 Y-65.741
X58.016 Y-59.033
X71.061 Y-59.033
X71.138 Y-59.016
X71.209 Y-58.985
X71.270 Y-58.940
X76.398 Y-53.813
X77.622 Y-53.813
X82.186 Y-58.377
X82.186 Y-60.967
X82.193 Y-61.038
X82.218 Y-61.112
X82.257 Y-61.180
X82.303 Y-61.231
X82.547 Y-61.476
X82.442 Y-61.853
X82.423 Y-62.035
X82.443 Y-62.219
X82.500 Y-62.396
X82.593 Y-62.556
X82.717 Y-62.694
X82.822 Y-62.771
X82.843 Y-62.806
X82.967 Y-62.944
X83.117 Y-63.053
X83.286 Y-63.128
X83.467 Y-63.167
X84.553 Y-63.167
X84.734 Y-63.128
X84.903 Y-63.053
X85.053 Y-62.944
X85.177 Y-62.806
X85.270 Y-62.646
X85.324 Y-62.479
X85.462 Y-61.983
X87.936 Y-61.983
X87.936 Y-62.134
X88.136 Y-62.134
X88.136 Y-72.937
X88.143 Y-73.008
X88.168 Y-73.082
X88.207 Y-73.150
X88.252 Y-73.201
X89.673 Y-74.653
X89.643 Y-74.746
X89.623 Y-74.930
X89.643 Y-75.114
X89.700 Y-75.291
X89.793 Y-75.451
X89.917 Y-75.589
X90.067 Y-75.698
X90.236 Y-75.773
X90.417 Y-75.812
X90.603 Y-75.812
X90.784 Y-75.773
X90.953 Y-75.698
X91.103 Y-75.589
X91.227 Y-75.451
X91.320 Y-75.291
X91.377 Y-75.114
X91.397 Y-74.930
X91.377 Y-74.746
X91.320 Y-74.569
X91.227 Y-74.409
X91.103 Y-74.271
X90.953 Y-74.162
X90.784 Y-74.087
X90.603 Y-74.048
X90.417 Y-74.048
X90.236 Y-74.087
X90.208 Y-74.099
X88.884 Y-72.776
X88.884 Y-62.134
X89.084 Y-62.134
X89.084 Y-61.086
X87.936 Y-61.086
X87.936 Y-61.237
X85.581 Y-61.237
X85.577 Y-61.201
X85.520 Y-61.024
X85.427 Y-60.864
X85.303 Y-60.726
X85.227 Y-60.670
X85.270 Y-60.596
X85.324 Y-60.429
X85.420 Y-60.083
X87.936 Y-60.083
X87.936 Y-60.234
X89.084 Y-60.234
X89.084 Y-59.186
X88.884 Y-59.186
X88.884 Y-56.760
X88.930 Y-56.760
X89.115 Y-56.721
X89.287 Y-56.644
X89.440 Y-56.532
X89.556 Y-56.404
X89.702 Y-56.469
X90.614 Y-56.722
X90.790 Y-56.760
X90.980 Y-56.760
X91.165 Y-56.721
X91.337 Y-56.644
X91.490 Y-56.532
X91.617 Y-56.392
X91.637 Y-56.358
X91.740 Y-56.282
X91.867 Y-56.142
X91.962 Y-55.978
X92.020 Y-55.798
X92.039 Y-55.617
X92.039 Y-55.533
X93.762 Y-55.533
X98.236 Y-60.006
X98.236 Y-61.406
X97.456 Y-62.186
X96.036 Y-62.186
X96.036 Y-63.606
X91.928 Y-67.714
X91.882 Y-67.765
X91.843 Y-67.833
X91.818 Y-67.907
X91.811 Y-67.978
X91.811 Y-75.338
X91.080 Y-76.069
X78.818 Y-76.069
X69.098 Y-66.316
X69.127 Y-66.224
X69.147 Y-66.040
X69.127 Y-65.856
X69.070 Y-65.679
X68.977 Y-65.519
X68.853 Y-65.381
X68.703 Y-65.272
X68.534 Y-65.197
X68.353 Y-65.158
X68.167 Y-65.158
X67.986 Y-65.197
X67.817 Y-65.272
X67.667 Y-65.381
X67.543 Y-65.519
X67.450 Y-65.679
X67.393 Y-65.856
X67.373 Y-66.040
X67.393 Y-66.224
X67.450 Y-66.401
X67.543 Y-66.561
X67.667 Y-66.699
X67.817 Y-66.808
X67.986 Y-66.883
X68.167 Y-66.922
X68.353 Y-66.922
X68.534 Y-66.883
X68.562 Y-66.871
X78.414 Y-76.722
X78.475 Y-76.767
X78.546 Y-76.798
X78.623 Y-76.815
X91.275 Y-76.815
X91.352 Y-76.798
X91.423 Y-76.767
X91.484 Y-76.722
X92.442 Y-75.764
X92.488 Y-75.713
X92.527 Y-75.645
X92.552 Y-75.571
X92.559 Y-75.499
X92.559 Y-70.428
X92.652 Y-70.469
X93.136 Y-70.603
X93.136 Y-75.428
X91.494 Y-77.069
X77.278 Y-77.069
X66.558 Y-66.316
X66.587 Y-66.224
X66.607 Y-66.040
X66.587 Y-65.856
X66.530 Y-65.679
X66.437 Y-65.519
X66.313 Y-65.381
X66.163 Y-65.272
X65.994 Y-65.197
X65.813 Y-65.158
X65.627 Y-65.158
X65.446 Y-65.197
X65.277 Y-65.272
X65.127 Y-65.381
X65.003 Y-65.519
X64.910 Y-65.679
X64.853 Y-65.856
X64.833 Y-66.040
X64.838 Y-66.091
X56.372 Y-74.557
X50.673 Y-74.557
X50.587 Y-74.409
X50.463 Y-74.271
X50.313 Y-74.162
X50.144 Y-74.087
X49.963 Y-74.048
X49.777 Y-74.048
X49.596 Y-74.087
X49.568 Y-74.099
X48.659 Y-73.190
X48.659 Y-58.759
X48.652 Y-58.687
X48.627 Y-58.613
X48.588 Y-58.545
X48.542 Y-58.494
X38.624 Y-48.575
X38.665 Y-48.448
X38.685 Y-48.260
X38.665 Y-48.072
X38.607 Y-47.892
X38.512 Y-47.728
X38.385 Y-47.588
X38.232 Y-47.476
X38.060 Y-47.400
X37.875 Y-47.360
X37.685 Y-47.360
X37.500 Y-47.400
X37.464 Y-47.416
X28.284 Y-38.236
X28.284 Y-24.914
X29.064 Y-24.134
X30.484 Y-24.134
X30.484 Y-22.186
X28.536 Y-22.186
G0 Z3.000
G0  X82.596 Y-47.356
G0  Z3.000
G01 F400 Z0
G01 F400 Z-0.100
G01F400X82.596 Y-49.164
X84.404 Y-49.164
X84.404 Y-47.356
X82.596 Y-47.356
G0 Z3.000
G0  X80.865 Y-47.360
G0  Z3.000
G01 F400 Z0
G01 F400 Z-0.100
G01F400X80.680 Y-47.400
X80.508 Y-47.476
X80.355 Y-47.588
X80.228 Y-47.728
X80.133 Y-47.892
X80.075 Y-48.072
X80.055 Y-48.260
X80.075 Y-48.448
X80.133 Y-48.628
X80.228 Y-48.792
X80.355 Y-48.932
X80.508 Y-49.044
X80.680 Y-49.120
X80.865 Y-49.160
X81.055 Y-49.160
X81.240 Y-49.120
X81.412 Y-49.044
X81.565 Y-48.932
X81.692 Y-48.792
X81.787 Y-48.628
X81.845 Y-48.448
X81.865 Y-48.260
X81.845 Y-48.072
X81.787 Y-47.892
X81.692 Y-47.728
X81.565 Y-47.588
X81.412 Y-47.476
X81.240 Y-47.400
X81.055 Y-47.360
X80.865 Y-47.360
G0 Z3.000
G0  X78.325 Y-47.360
G0  Z3.000
G01 F400 Z0
G01 F400 Z-0.100
G01F400X78.140 Y-47.400
X77.968 Y-47.476
X77.815 Y-47.588
X77.688 Y-47.728
X77.593 Y-47.892
X77.535 Y-48.072
X77.515 Y-48.260
X77.535 Y-48.448
X77.593 Y-48.628
X77.688 Y-48.792
X77.815 Y-48.932
X77.968 Y-49.044
X78.140 Y-49.120
X78.325 Y-49.160
X78.515 Y-49.160
X78.700 Y-49.120
X78.872 Y-49.044
X79.025 Y-48.932
X79.152 Y-48.792
X79.247 Y-48.628
X79.305 Y-48.448
X79.325 Y-48.260
X79.305 Y-48.072
X79.247 Y-47.892
X79.152 Y-47.728
X79.025 Y-47.588
X78.872 Y-47.476
X78.700 Y-47.400
X78.515 Y-47.360
X78.325 Y-47.360
G0 Z3.000
G0  X63.085 Y-47.360
G0  Z3.000
G01 F400 Z0
G01 F400 Z-0.100
G01F400X62.900 Y-47.400
X62.728 Y-47.476
X62.575 Y-47.588
X62.448 Y-47.728
X62.353 Y-47.892
X62.295 Y-48.072
X62.275 Y-48.260
X62.295 Y-48.448
X62.353 Y-48.628
X62.448 Y-48.792
X62.575 Y-48.932
X62.728 Y-49.044
X62.806 Y-49.078
X62.806 Y-52.541
X62.737 Y-52.572
X62.587 Y-52.681
X62.463 Y-52.819
X62.370 Y-52.979
X62.313 Y-53.156
X62.293 Y-53.340
X62.313 Y-53.524
X62.370 Y-53.701
X62.463 Y-53.861
X62.587 Y-53.999
X62.737 Y-54.108
X62.906 Y-54.183
X63.087 Y-54.222
X63.273 Y-54.222
X63.454 Y-54.183
X63.623 Y-54.108
X63.773 Y-53.999
X63.897 Y-53.861
X63.990 Y-53.701
X64.047 Y-53.524
X64.067 Y-53.340
X64.047 Y-53.156
X63.990 Y-52.979
X63.897 Y-52.819
X63.773 Y-52.681
X63.623 Y-52.572
X63.554 Y-52.541
X63.554 Y-49.078
X63.632 Y-49.044
X63.785 Y-48.932
X63.912 Y-48.792
X64.007 Y-48.628
X64.065 Y-48.448
X64.085 Y-48.260
X64.065 Y-48.072
X64.007 Y-47.892
X63.912 Y-47.728
X63.785 Y-47.588
X63.632 Y-47.476
X63.460 Y-47.400
X63.275 Y-47.360
X63.085 Y-47.360
G0 Z3.000
G0  X65.625 Y-47.360
G0  Z3.000
G01 F400 Z0
G01 F400 Z-0.100
G01F400X65.440 Y-47.400
X65.268 Y-47.476
X65.115 Y-47.588
X64.988 Y-47.728
X64.893 Y-47.892
X64.835 Y-48.072
X64.815 Y-48.260
X64.835 Y-48.448
X64.893 Y-48.628
X64.988 Y-48.792
X65.115 Y-48.932
X65.268 Y-49.044
X65.346 Y-49.078
X65.346 Y-52.541
X65.277 Y-52.572
X65.127 Y-52.681
X65.003 Y-52.819
X64.910 Y-52.979
X64.853 Y-53.156
X64.833 Y-53.340
X64.853 Y-53.524
X64.910 Y-53.701
X65.003 Y-53.861
X65.127 Y-53.999
X65.277 Y-54.108
X65.446 Y-54.183
X65.627 Y-54.222
X65.813 Y-54.222
X65.994 Y-54.183
X66.163 Y-54.108
X66.313 Y-53.999
X66.437 Y-53.861
X66.530 Y-53.701
X66.587 Y-53.524
X66.607 Y-53.340
X66.587 Y-53.156
X66.530 Y-52.979
X66.437 Y-52.819
X66.313 Y-52.681
X66.163 Y-52.572
X66.094 Y-52.541
X66.094 Y-49.078
X66.172 Y-49.044
X66.325 Y-48.932
X66.452 Y-48.792
X66.547 Y-48.628
X66.605 Y-48.448
X66.625 Y-48.260
X66.605 Y-48.072
X66.547 Y-47.892
X66.452 Y-47.728
X66.325 Y-47.588
X66.172 Y-47.476
X66.000 Y-47.400
X65.815 Y-47.360
X65.625 Y-47.360
G0 Z3.000
G0  X58.005 Y-47.360
G0  Z3.000
G01 F400 Z0
G01 F400 Z-0.100
G01F400X57.820 Y-47.400
X57.648 Y-47.476
X57.495 Y-47.588
X57.368 Y-47.728
X57.273 Y-47.892
X57.215 Y-48.072
X57.195 Y-48.260
X57.215 Y-48.448
X57.273 Y-48.628
X57.368 Y-48.792
X57.495 Y-48.932
X57.648 Y-49.044
X57.820 Y-49.120
X58.005 Y-49.160
X58.195 Y-49.160
X58.380 Y-49.120
X58.552 Y-49.044
X58.705 Y-48.932
X58.832 Y-48.792
X58.927 Y-48.628
X58.985 Y-48.448
X59.005 Y-48.260
X58.985 Y-48.072
X58.927 Y-47.892
X58.832 Y-47.728
X58.705 Y-47.588
X58.552 Y-47.476
X58.380 Y-47.400
X58.195 Y-47.360
X58.005 Y-47.360
G0 Z3.000
G0  X60.545 Y-47.360
G0  Z3.000
G01 F400 Z0
G01 F400 Z-0.100
G01F400X60.360 Y-47.400
X60.188 Y-47.476
X60.035 Y-47.588
X59.908 Y-47.728
X59.813 Y-47.892
X59.755 Y-48.072
X59.735 Y-48.260
X59.755 Y-48.448
X59.813 Y-48.628
X59.908 Y-48.792
X60.035 Y-48.932
X60.188 Y-49.044
X60.266 Y-49.078
X60.266 Y-52.541
X60.197 Y-52.572
X60.047 Y-52.681
X59.923 Y-52.819
X59.837 Y-52.967
X58.903 Y-52.967
X58.817 Y-52.819
X58.693 Y-52.681
X58.543 Y-52.572
X58.374 Y-52.497
X58.193 Y-52.458
X58.007 Y-52.458
X57.826 Y-52.497
X57.657 Y-52.572
X57.507 Y-52.681
X57.383 Y-52.819
X57.290 Y-52.979
X57.233 Y-53.156
X57.213 Y-53.340
X57.233 Y-53.524
X57.290 Y-53.701
X57.383 Y-53.861
X57.507 Y-53.999
X57.657 Y-54.108
X57.826 Y-54.183
X58.007 Y-54.222
X58.193 Y-54.222
X58.374 Y-54.183
X58.543 Y-54.108
X58.693 Y-53.999
X58.817 Y-53.861
X58.903 Y-53.713
X59.837 Y-53.713
X59.923 Y-53.861
X60.047 Y-53.999
X60.197 Y-54.108
X60.366 Y-54.183
X60.547 Y-54.222
X60.733 Y-54.222
X60.914 Y-54.183
X61.083 Y-54.108
X61.233 Y-53.999
X61.357 Y-53.861
X61.450 Y-53.701
X61.507 Y-53.524
X61.527 Y-53.340
X61.507 Y-53.156
X61.450 Y-52.979
X61.357 Y-52.819
X61.233 Y-52.681
X61.083 Y-52.572
X61.014 Y-52.541
X61.014 Y-49.078
X61.092 Y-49.044
X61.245 Y-48.932
X61.372 Y-48.792
X61.467 Y-48.628
X61.525 Y-48.448
X61.545 Y-48.260
X61.525 Y-48.072
X61.467 Y-47.892
X61.372 Y-47.728
X61.245 Y-47.588
X61.092 Y-47.476
X60.920 Y-47.400
X60.735 Y-47.360
X60.545 Y-47.360
G0 Z3.000
G0  X73.245 Y-47.360
G0  Z3.000
G01 F400 Z0
G01 F400 Z-0.100
G01F400X73.060 Y-47.400
X72.888 Y-47.476
X72.735 Y-47.588
X72.608 Y-47.728
X72.513 Y-47.892
X72.455 Y-48.072
X72.435 Y-48.260
X72.455 Y-48.448
X72.513 Y-48.628
X72.608 Y-48.792
X72.735 Y-48.932
X72.888 Y-49.044
X73.060 Y-49.120
X73.245 Y-49.160
X73.435 Y-49.160
X73.620 Y-49.120
X73.792 Y-49.044
X73.945 Y-48.932
X74.072 Y-48.792
X74.167 Y-48.628
X74.225 Y-48.448
X74.245 Y-48.260
X74.225 Y-48.072
X74.167 Y-47.892
X74.072 Y-47.728
X73.945 Y-47.588
X73.792 Y-47.476
X73.620 Y-47.400
X73.435 Y-47.360
X73.245 Y-47.360
G0 Z3.000
G0  X75.785 Y-47.360
G0  Z3.000
G01 F400 Z0
G01 F400 Z-0.100
G01F400X75.600 Y-47.400
X75.428 Y-47.476
X75.275 Y-47.588
X75.148 Y-47.728
X75.053 Y-47.892
X74.995 Y-48.072
X74.975 Y-48.260
X74.995 Y-48.448
X75.053 Y-48.628
X75.148 Y-48.792
X75.275 Y-48.932
X75.428 Y-49.044
X75.600 Y-49.120
X75.785 Y-49.160
X75.975 Y-49.160
X76.160 Y-49.120
X76.332 Y-49.044
X76.485 Y-48.932
X76.612 Y-48.792
X76.707 Y-48.628
X76.765 Y-48.448
X76.785 Y-48.260
X76.765 Y-48.072
X76.707 Y-47.892
X76.612 Y-47.728
X76.485 Y-47.588
X76.332 Y-47.476
X76.160 Y-47.400
X75.975 Y-47.360
X75.785 Y-47.360
G0 Z3.000
G0  X68.165 Y-47.360
G0  Z3.000
G01 F400 Z0
G01 F400 Z-0.100
G01F400X67.980 Y-47.400
X67.808 Y-47.476
X67.655 Y-47.588
X67.528 Y-47.728
X67.433 Y-47.892
X67.375 Y-48.072
X67.355 Y-48.260
X67.375 Y-48.448
X67.433 Y-48.628
X67.528 Y-48.792
X67.655 Y-48.932
X67.808 Y-49.044
X67.886 Y-49.078
X67.886 Y-52.541
X67.817 Y-52.572
X67.667 Y-52.681
X67.543 Y-52.819
X67.450 Y-52.979
X67.393 Y-53.156
X67.373 Y-53.340
X67.393 Y-53.524
X67.450 Y-53.701
X67.543 Y-53.861
X67.667 Y-53.999
X67.817 Y-54.108
X67.986 Y-54.183
X68.167 Y-54.222
X68.353 Y-54.222
X68.534 Y-54.183
X68.703 Y-54.108
X68.853 Y-53.999
X68.977 Y-53.861
X69.070 Y-53.701
X69.127 Y-53.524
X69.147 Y-53.340
X69.127 Y-53.156
X69.070 Y-52.979
X68.977 Y-52.819
X68.853 Y-52.681
X68.703 Y-52.572
X68.634 Y-52.541
X68.634 Y-49.078
X68.712 Y-49.044
X68.865 Y-48.932
X68.992 Y-48.792
X69.087 Y-48.628
X69.145 Y-48.448
X69.165 Y-48.260
X69.145 Y-48.072
X69.087 Y-47.892
X68.992 Y-47.728
X68.865 Y-47.588
X68.712 Y-47.476
X68.540 Y-47.400
X68.355 Y-47.360
X68.165 Y-47.360
G0 Z3.000
G0  X70.705 Y-47.360
G0  Z3.000
G01 F400 Z0
G01 F400 Z-0.100
G01F400X70.520 Y-47.400
X70.348 Y-47.476
X70.195 Y-47.588
X70.068 Y-47.728
X69.973 Y-47.892
X69.915 Y-48.072
X69.895 Y-48.260
X69.915 Y-48.448
X69.973 Y-48.628
X70.068 Y-48.792
X70.195 Y-48.932
X70.348 Y-49.044
X70.520 Y-49.120
X70.705 Y-49.160
X70.895 Y-49.160
X71.080 Y-49.120
X71.252 Y-49.044
X71.405 Y-48.932
X71.532 Y-48.792
X71.627 Y-48.628
X71.685 Y-48.448
X71.705 Y-48.260
X71.685 Y-48.072
X71.627 Y-47.892
X71.532 Y-47.728
X71.405 Y-47.588
X71.252 Y-47.476
X71.080 Y-47.400
X70.895 Y-47.360
X70.705 Y-47.360
G0 Z3.000
G0  X42.765 Y-47.360
G0  Z3.000
G01 F400 Z0
G01 F400 Z-0.100
G01F400X42.580 Y-47.400
X42.408 Y-47.476
X42.255 Y-47.588
X42.128 Y-47.728
X42.033 Y-47.892
X41.975 Y-48.072
X41.955 Y-48.260
X41.975 Y-48.448
X42.033 Y-48.628
X42.128 Y-48.792
X42.255 Y-48.932
X42.408 Y-49.044
X42.580 Y-49.120
X42.765 Y-49.160
X42.955 Y-49.160
X43.140 Y-49.120
X43.312 Y-49.044
X43.465 Y-48.932
X43.592 Y-48.792
X43.687 Y-48.628
X43.745 Y-48.448
X43.765 Y-48.260
X43.745 Y-48.072
X43.687 Y-47.892
X43.592 Y-47.728
X43.465 Y-47.588
X43.312 Y-47.476
X43.140 Y-47.400
X42.955 Y-47.360
X42.765 Y-47.360
G0 Z3.000
G0  X45.305 Y-47.360
G0  Z3.000
G01 F400 Z0
G01 F400 Z-0.100
G01F400X45.120 Y-47.400
X44.948 Y-47.476
X44.795 Y-47.588
X44.668 Y-47.728
X44.573 Y-47.892
X44.515 Y-48.072
X44.495 Y-48.260
X44.515 Y-48.448
X44.573 Y-48.628
X44.668 Y-48.792
X44.795 Y-48.932
X44.948 Y-49.044
X45.120 Y-49.120
X45.305 Y-49.160
X45.495 Y-49.160
X45.680 Y-49.120
X45.852 Y-49.044
X46.005 Y-48.932
X46.132 Y-48.792
X46.227 Y-48.628
X46.285 Y-48.448
X46.305 Y-48.260
X46.285 Y-48.072
X46.227 Y-47.892
X46.132 Y-47.728
X46.005 Y-47.588
X45.852 Y-47.476
X45.680 Y-47.400
X45.495 Y-47.360
X45.305 Y-47.360
G0 Z3.000
G0  X40.225 Y-47.360
G0  Z3.000
G01 F400 Z0
G01 F400 Z-0.100
G01F400X40.040 Y-47.400
X39.868 Y-47.476
X39.715 Y-47.588
X39.588 Y-47.728
X39.493 Y-47.892
X39.435 Y-48.072
X39.415 Y-48.260
X39.435 Y-48.448
X39.493 Y-48.628
X39.588 Y-48.792
X39.715 Y-48.932
X39.868 Y-49.044
X40.040 Y-49.120
X40.225 Y-49.160
X40.415 Y-49.160
X40.600 Y-49.120
X40.772 Y-49.044
X40.925 Y-48.932
X41.052 Y-48.792
X41.147 Y-48.628
X41.205 Y-48.448
X41.225 Y-48.260
X41.205 Y-48.072
X41.147 Y-47.892
X41.052 Y-47.728
X40.925 Y-47.588
X40.772 Y-47.476
X40.600 Y-47.400
X40.415 Y-47.360
X40.225 Y-47.360
G0 Z3.000
G0  X52.925 Y-47.360
G0  Z3.000
G01 F400 Z0
G01 F400 Z-0.100
G01F400X52.740 Y-47.400
X52.568 Y-47.476
X52.415 Y-47.588
X52.288 Y-47.728
X52.193 Y-47.892
X52.135 Y-48.072
X52.115 Y-48.260
X52.135 Y-48.448
X52.193 Y-48.628
X52.288 Y-48.792
X52.415 Y-48.932
X52.568 Y-49.044
X52.646 Y-49.078
X52.646 Y-52.541
X52.577 Y-52.572
X52.427 Y-52.681
X52.303 Y-52.819
X52.210 Y-52.979
X52.153 Y-53.156
X52.133 Y-53.340
X52.153 Y-53.524
X52.210 Y-53.701
X52.303 Y-53.861
X52.427 Y-53.999
X52.577 Y-54.108
X52.746 Y-54.183
X52.927 Y-54.222
X53.113 Y-54.222
X53.294 Y-54.183
X53.463 Y-54.108
X53.613 Y-53.999
X53.737 Y-53.861
X53.830 Y-53.701
X53.887 Y-53.524
X53.907 Y-53.340
X53.887 Y-53.156
X53.830 Y-52.979
X53.737 Y-52.819
X53.613 Y-52.681
X53.463 Y-52.572
X53.394 Y-52.541
X53.394 Y-49.078
X53.472 Y-49.044
X53.625 Y-48.932
X53.752 Y-48.792
X53.847 Y-48.628
X53.905 Y-48.448
X53.925 Y-48.260
X53.905 Y-48.072
X53.847 Y-47.892
X53.752 Y-47.728
X53.625 Y-47.588
X53.472 Y-47.476
X53.300 Y-47.400
X53.115 Y-47.360
X52.925 Y-47.360
G0 Z3.000
G0  X55.465 Y-47.360
G0  Z3.000
G01 F400 Z0
G01 F400 Z-0.100
G01F400X55.280 Y-47.400
X55.108 Y-47.476
X54.955 Y-47.588
X54.828 Y-47.728
X54.733 Y-47.892
X54.675 Y-48.072
X54.655 Y-48.260
X54.675 Y-48.448
X54.733 Y-48.628
X54.828 Y-48.792
X54.955 Y-48.932
X55.108 Y-49.044
X55.186 Y-49.078
X55.186 Y-52.541
X55.117 Y-52.572
X54.967 Y-52.681
X54.843 Y-52.819
X54.750 Y-52.979
X54.693 Y-53.156
X54.673 Y-53.340
X54.693 Y-53.524
X54.750 Y-53.701
X54.843 Y-53.861
X54.967 Y-53.999
X55.117 Y-54.108
X55.286 Y-54.183
X55.467 Y-54.222
X55.653 Y-54.222
X55.834 Y-54.183
X56.003 Y-54.108
X56.153 Y-53.999
X56.277 Y-53.861
X56.370 Y-53.701
X56.427 Y-53.524
X56.447 Y-53.340
X56.427 Y-53.156
X56.370 Y-52.979
X56.277 Y-52.819
X56.153 Y-52.681
X56.003 Y-52.572
X55.934 Y-52.541
X55.934 Y-49.078
X56.012 Y-49.044
X56.165 Y-48.932
X56.292 Y-48.792
X56.387 Y-48.628
X56.445 Y-48.448
X56.465 Y-48.260
X56.445 Y-48.072
X56.387 Y-47.892
X56.292 Y-47.728
X56.165 Y-47.588
X56.012 Y-47.476
X55.840 Y-47.400
X55.655 Y-47.360
X55.465 Y-47.360
G0 Z3.000
G0  X47.845 Y-47.360
G0  Z3.000
G01 F400 Z0
G01 F400 Z-0.100
G01F400X47.660 Y-47.400
X47.488 Y-47.476
X47.335 Y-47.588
X47.208 Y-47.728
X47.113 Y-47.892
X47.055 Y-48.072
X47.035 Y-48.260
X47.055 Y-48.448
X47.113 Y-48.628
X47.208 Y-48.792
X47.335 Y-48.932
X47.488 Y-49.044
X47.660 Y-49.120
X47.845 Y-49.160
X48.035 Y-49.160
X48.220 Y-49.120
X48.256 Y-49.104
X50.106 Y-50.954
X50.106 Y-52.454
X49.594 Y-52.454
X49.594 Y-54.226
X51.366 Y-54.226
X51.366 Y-52.454
X50.854 Y-52.454
X50.854 Y-50.794
X50.847 Y-50.722
X50.822 Y-50.648
X50.783 Y-50.580
X50.737 Y-50.529
X48.784 Y-48.575
X48.825 Y-48.448
X48.845 Y-48.260
X48.825 Y-48.072
X48.767 Y-47.892
X48.672 Y-47.728
X48.545 Y-47.588
X48.392 Y-47.476
X48.220 Y-47.400
X48.035 Y-47.360
X47.845 Y-47.360
G0 Z3.000
G0  X89.230 Y-53.813
G0  Z3.000
G01 F400 Z0
G01 F400 Z-0.100
G01F400X89.384 Y-53.813
X89.466 Y-53.895
X89.368 Y-53.851
X89.230 Y-53.813
G0 Z3.000
G0  X76.908 Y-54.071
G0  Z3.000
G01 F400 Z0
G01 F400 Z-0.100
G01F400X76.709 Y-54.113
X76.523 Y-54.196
X76.358 Y-54.316
X76.221 Y-54.467
X76.120 Y-54.644
X76.056 Y-54.837
X76.035 Y-55.040
X76.056 Y-55.243
X76.111 Y-55.410
X71.734 Y-59.787
X61.401 Y-59.787
X61.324 Y-59.804
X61.253 Y-59.835
X61.192 Y-59.880
X55.862 Y-65.209
X55.834 Y-65.197
X55.653 Y-65.158
X55.467 Y-65.158
X55.286 Y-65.197
X55.117 Y-65.272
X54.967 Y-65.381
X54.843 Y-65.519
X54.750 Y-65.679
X54.693 Y-65.856
X54.673 Y-66.040
X54.693 Y-66.224
X54.750 Y-66.401
X54.843 Y-66.561
X54.967 Y-66.699
X55.117 Y-66.808
X55.286 Y-66.883
X55.467 Y-66.922
X55.653 Y-66.922
X55.834 Y-66.883
X56.003 Y-66.808
X56.153 Y-66.699
X56.277 Y-66.561
X56.370 Y-66.401
X56.427 Y-66.224
X56.447 Y-66.040
X56.427 Y-65.854
X56.387 Y-65.741
X61.596 Y-60.533
X71.929 Y-60.533
X72.006 Y-60.516
X72.077 Y-60.485
X72.138 Y-60.440
X76.641 Y-55.937
X76.709 Y-55.967
X76.908 Y-56.009
X77.112 Y-56.009
X77.311 Y-55.967
X77.497 Y-55.884
X77.662 Y-55.764
X77.799 Y-55.613
X77.901 Y-55.437
X77.964 Y-55.243
X77.985 Y-55.040
X77.964 Y-54.837
X77.901 Y-54.644
X77.799 Y-54.467
X77.662 Y-54.316
X77.497 Y-54.196
X77.311 Y-54.113
X77.112 Y-54.071
X76.908 Y-54.071
G0 Z3.000
G0  X76.908 Y-56.611
G0  Z3.000
G01 F400 Z0
G01 F400 Z-0.100
G01F400X76.709 Y-56.653
X76.523 Y-56.736
X76.358 Y-56.856
X76.221 Y-57.007
X76.120 Y-57.184
X76.056 Y-57.377
X76.035 Y-57.580
X76.056 Y-57.783
X76.111 Y-57.950
X72.774 Y-61.287
X62.441 Y-61.287
X62.364 Y-61.304
X62.293 Y-61.335
X62.232 Y-61.380
X58.402 Y-65.209
X58.374 Y-65.197
X58.193 Y-65.158
X58.007 Y-65.158
X57.826 Y-65.197
X57.657 Y-65.272
X57.507 Y-65.381
X57.383 Y-65.519
X57.290 Y-65.679
X57.233 Y-65.856
X57.213 Y-66.040
X57.233 Y-66.224
X57.290 Y-66.401
X57.383 Y-66.561
X57.507 Y-66.699
X57.657 Y-66.808
X57.826 Y-66.883
X58.007 Y-66.922
X58.193 Y-66.922
X58.374 Y-66.883
X58.543 Y-66.808
X58.693 Y-66.699
X58.817 Y-66.561
X58.910 Y-66.401
X58.967 Y-66.224
X58.987 Y-66.040
X58.967 Y-65.854
X58.927 Y-65.741
X62.636 Y-62.033
X72.969 Y-62.033
X73.046 Y-62.016
X73.117 Y-61.985
X73.178 Y-61.940
X76.641 Y-58.477
X76.709 Y-58.507
X76.908 Y-58.549
X77.112 Y-58.549
X77.311 Y-58.507
X77.497 Y-58.424
X77.662 Y-58.304
X77.799 Y-58.153
X77.901 Y-57.977
X77.964 Y-57.783
X77.985 Y-57.580
X77.964 Y-57.377
X77.901 Y-57.184
X77.799 Y-57.007
X77.662 Y-56.856
X77.497 Y-56.736
X77.311 Y-56.653
X77.112 Y-56.611
X76.908 Y-56.611
G0 Z3.000
G0  X76.908 Y-59.151
G0  Z3.000
G01 F400 Z0
G01 F400 Z-0.100
G01F400X76.709 Y-59.193
X76.523 Y-59.276
X76.358 Y-59.396
X76.221 Y-59.547
X76.120 Y-59.724
X76.056 Y-59.917
X76.043 Y-60.049
X73.304 Y-62.787
X63.481 Y-62.787
X63.404 Y-62.804
X63.333 Y-62.835
X63.272 Y-62.880
X60.942 Y-65.209
X60.914 Y-65.197
X60.733 Y-65.158
X60.547 Y-65.158
X60.366 Y-65.197
X60.197 Y-65.272
X60.047 Y-65.381
X59.923 Y-65.519
X59.830 Y-65.679
X59.773 Y-65.856
X59.753 Y-66.040
X59.773 Y-66.224
X59.830 Y-66.401
X59.923 Y-66.561
X60.047 Y-66.699
X60.197 Y-66.808
X60.366 Y-66.883
X60.547 Y-66.922
X60.733 Y-66.922
X60.914 Y-66.883
X61.083 Y-66.808
X61.233 Y-66.699
X61.357 Y-66.561
X61.450 Y-66.401
X61.507 Y-66.224
X61.527 Y-66.040
X61.507 Y-65.854
X61.467 Y-65.741
X63.676 Y-63.533
X73.549 Y-63.533
X73.626 Y-63.516
X73.697 Y-63.485
X73.761 Y-63.439
X73.813 Y-63.380
X73.852 Y-63.313
X73.860 Y-63.288
X76.332 Y-60.816
X76.358 Y-60.844
X76.523 Y-60.964
X76.709 Y-61.047
X76.908 Y-61.089
X77.112 Y-61.089
X77.311 Y-61.047
X77.497 Y-60.964
X77.662 Y-60.844
X77.799 Y-60.693
X77.901 Y-60.517
X77.964 Y-60.323
X77.985 Y-60.120
X77.964 Y-59.917
X77.901 Y-59.724
X77.799 Y-59.547
X77.662 Y-59.396
X77.497 Y-59.276
X77.311 Y-59.193
X77.112 Y-59.151
X76.908 Y-59.151
G0 Z3.000
G0  X96.908 Y-59.651
G0  Z3.000
G01 F400 Z0
G01 F400 Z-0.100
G01F400X96.709 Y-59.693
X96.523 Y-59.776
X96.358 Y-59.896
X96.221 Y-60.047
X96.120 Y-60.224
X96.099 Y-60.287
X91.084 Y-60.287
X91.084 Y-60.136
X89.936 Y-60.136
X89.936 Y-61.184
X91.084 Y-61.184
X91.084 Y-61.033
X96.129 Y-61.033
X96.221 Y-61.193
X96.358 Y-61.344
X96.523 Y-61.464
X96.709 Y-61.547
X96.908 Y-61.589
X97.112 Y-61.589
X97.311 Y-61.547
X97.497 Y-61.464
X97.662 Y-61.344
X97.799 Y-61.193
X97.901 Y-61.017
X97.964 Y-60.823
X97.985 Y-60.620
X97.964 Y-60.417
X97.901 Y-60.224
X97.799 Y-60.047
X97.662 Y-59.896
X97.497 Y-59.776
X97.311 Y-59.693
X97.112 Y-59.651
X96.908 Y-59.651
G0 Z3.000
G0  X76.036 Y-61.686
G0  Z3.000
G01 F400 Z0
G01 F400 Z-0.100
G01F400X76.036 Y-62.287
X75.471 Y-62.287
X75.394 Y-62.304
X75.323 Y-62.335
X75.262 Y-62.380
X73.486 Y-64.155
X64.653 Y-64.155
X64.576 Y-64.172
X64.505 Y-64.203
X64.444 Y-64.248
X63.482 Y-65.209
X63.454 Y-65.197
X63.273 Y-65.158
X63.087 Y-65.158
X62.906 Y-65.197
X62.737 Y-65.272
X62.587 Y-65.381
X62.463 Y-65.519
X62.370 Y-65.679
X62.313 Y-65.856
X62.293 Y-66.040
X62.313 Y-66.224
X62.370 Y-66.401
X62.463 Y-66.561
X62.587 Y-66.699
X62.737 Y-66.808
X62.906 Y-66.883
X63.087 Y-66.922
X63.273 Y-66.922
X63.454 Y-66.883
X63.623 Y-66.808
X63.773 Y-66.699
X63.897 Y-66.561
X63.990 Y-66.401
X64.047 Y-66.224
X64.067 Y-66.040
X64.047 Y-65.854
X64.007 Y-65.741
X64.848 Y-64.901
X73.681 Y-64.901
X73.758 Y-64.884
X73.829 Y-64.853
X73.890 Y-64.808
X75.666 Y-63.033
X76.036 Y-63.033
X76.036 Y-63.634
X77.984 Y-63.634
X77.984 Y-61.686
X76.036 Y-61.686
G0 Z3.000
G0  X52.927 Y-65.158
G0  Z3.000
G01 F400 Z0
G01 F400 Z-0.100
G01F400X52.746 Y-65.197
X52.577 Y-65.272
X52.427 Y-65.381
X52.303 Y-65.519
X52.210 Y-65.679
X52.153 Y-65.856
X52.133 Y-66.040
X52.153 Y-66.224
X52.210 Y-66.401
X52.303 Y-66.561
X52.427 Y-66.699
X52.577 Y-66.808
X52.746 Y-66.883
X52.927 Y-66.922
X53.113 Y-66.922
X53.294 Y-66.883
X53.463 Y-66.808
X53.613 Y-66.699
X53.737 Y-66.561
X53.830 Y-66.401
X53.887 Y-66.224
X53.907 Y-66.040
X53.887 Y-65.856
X53.830 Y-65.679
X53.737 Y-65.519
X53.613 Y-65.381
X53.463 Y-65.272
X53.294 Y-65.197
X53.113 Y-65.158
X52.927 Y-65.158
G0 Z3.000
G0  X95.663 Y-88.853
G0  Z3.000
G01 F400 Z0
G01 F400 Z-0.100
G01F400X94.983 Y-88.998
X94.348 Y-89.281
X93.785 Y-89.689
X93.320 Y-90.206
X92.973 Y-90.808
X92.758 Y-91.469
X92.685 Y-92.160
X92.758 Y-92.851
X92.973 Y-93.512
X93.320 Y-94.114
X93.785 Y-94.631
X94.348 Y-95.039
X94.983 Y-95.322
X95.663 Y-95.467
X96.358 Y-95.467
X97.037 Y-95.322
X97.672 Y-95.039
X98.235 Y-94.631
X98.700 Y-94.114
X99.047 Y-93.512
X99.262 Y-92.851
X99.335 Y-92.160
X99.262 Y-91.469
X99.047 Y-90.808
X98.700 Y-90.206
X98.235 Y-89.689
X97.672 Y-89.281
X97.037 Y-88.998
X96.358 Y-88.853
X95.663 Y-88.853
G0 Z3.000
G0  X20.163 Y-88.853
G0  Z3.000
G01 F400 Z0
G01 F400 Z-0.100
G01F400X19.483 Y-88.998
X18.848 Y-89.281
X18.285 Y-89.689
X17.820 Y-90.206
X17.473 Y-90.808
X17.258 Y-91.469
X17.185 Y-92.160
X17.258 Y-92.851
X17.473 Y-93.512
X17.820 Y-94.114
X18.285 Y-94.631
X18.848 Y-95.039
X19.483 Y-95.322
X20.163 Y-95.467
X20.858 Y-95.467
X21.537 Y-95.322
X22.172 Y-95.039
X22.735 Y-94.631
X23.200 Y-94.114
X23.547 Y-93.512
X23.762 Y-92.851
X23.835 Y-92.160
X23.762 Y-91.469
X23.547 Y-90.808
X23.200 Y-90.206
X22.735 Y-89.689
X22.172 Y-89.281
X21.537 Y-88.998
X20.858 Y-88.853
X20.163 Y-88.853
G0 Z3.000
G0  X49.777 Y-91.828
G0  Z3.000
G01 F400 Z0
G01 F400 Z-0.100
G01F400X49.596 Y-91.867
X49.427 Y-91.942
X49.277 Y-92.051
X49.153 Y-92.189
X49.060 Y-92.349
X49.003 Y-92.526
X48.983 Y-92.710
X49.003 Y-92.894
X49.060 Y-93.071
X49.153 Y-93.231
X49.277 Y-93.369
X49.427 Y-93.478
X49.596 Y-93.553
X49.777 Y-93.592
X49.963 Y-93.592
X50.144 Y-93.553
X50.313 Y-93.478
X50.463 Y-93.369
X50.587 Y-93.231
X50.680 Y-93.071
X50.737 Y-92.894
X50.757 Y-92.710
X50.737 Y-92.526
X50.680 Y-92.349
X50.587 Y-92.189
X50.463 Y-92.051
X50.313 Y-91.942
X50.144 Y-91.867
X49.963 Y-91.828
X49.777 Y-91.828
G0 Z3.000
G0  X95.639 Y-21.130
G0  Z3.000
G01 F400 Z0
G01 F400 Z-0.100
G01F400X94.913 Y-21.284
X94.235 Y-21.586
X93.635 Y-22.022
X93.139 Y-22.574
X92.767 Y-23.216
X92.538 Y-23.922
X92.461 Y-24.660
X92.538 Y-25.398
X92.767 Y-26.104
X93.139 Y-26.746
X93.635 Y-27.298
X94.235 Y-27.734
X94.913 Y-28.036
X95.639 Y-28.190
X96.381 Y-28.190
X97.107 Y-28.036
X97.785 Y-27.734
X98.385 Y-27.298
X98.882 Y-26.746
X99.252 Y-26.104
X99.482 Y-25.398
X99.559 Y-24.660
X99.482 Y-23.922
X99.252 Y-23.216
X98.882 Y-22.574
X98.385 Y-22.022
X97.785 Y-21.586
X97.107 Y-21.284
X96.381 Y-21.130
X95.639 Y-21.130
G0 Z3.000
G0  X20.139 Y-21.130
G0  Z3.000
G01 F400 Z0
G01 F400 Z-0.100
G01F400X19.413 Y-21.284
X18.735 Y-21.586
X18.135 Y-22.022
X17.639 Y-22.574
X17.268 Y-23.216
X17.038 Y-23.922
X16.961 Y-24.660
X17.038 Y-25.398
X17.268 Y-26.104
X17.639 Y-26.746
X18.135 Y-27.298
X18.735 Y-27.734
X19.413 Y-28.036
X20.139 Y-28.190
X20.881 Y-28.190
X21.607 Y-28.036
X22.285 Y-27.734
X22.885 Y-27.298
X23.382 Y-26.746
X23.753 Y-26.104
X23.982 Y-25.398
X24.059 Y-24.660
X23.982 Y-23.922
X23.753 Y-23.216
X23.382 Y-22.574
X22.885 Y-22.022
X22.285 Y-21.586
X21.607 Y-21.284
X20.881 Y-21.130
X20.139 Y-21.130
G0 Z3.000
G0  X83.382 Y-21.737
G0  Z3.000
G01 F400 Z0
G01 F400 Z-0.100
G01F400X83.151 Y-21.786
X82.935 Y-21.882
X82.744 Y-22.021
X82.586 Y-22.196
X82.468 Y-22.401
X82.395 Y-22.625
X82.371 Y-22.860
X82.395 Y-23.095
X82.468 Y-23.319
X82.586 Y-23.524
X82.744 Y-23.699
X82.935 Y-23.838
X83.151 Y-23.934
X83.382 Y-23.983
X83.618 Y-23.983
X83.849 Y-23.934
X84.065 Y-23.838
X84.256 Y-23.699
X84.414 Y-23.524
X84.532 Y-23.319
X84.605 Y-23.095
X84.629 Y-22.860
X84.605 Y-22.625
X84.532 Y-22.401
X84.414 Y-22.196
X84.256 Y-22.021
X84.065 Y-21.882
X83.849 Y-21.786
X83.618 Y-21.737
X83.382 Y-21.737
G0 Z3.000
G0  X55.442 Y-21.737
G0  Z3.000
G01 F400 Z0
G01 F400 Z-0.100
G01F400X55.211 Y-21.786
X54.995 Y-21.882
X54.804 Y-22.021
X54.646 Y-22.196
X54.528 Y-22.401
X54.455 Y-22.625
X54.431 Y-22.860
X54.455 Y-23.095
X54.528 Y-23.319
X54.646 Y-23.524
X54.804 Y-23.699
X54.995 Y-23.838
X55.211 Y-23.934
X55.442 Y-23.983
X55.678 Y-23.983
X55.909 Y-23.934
X56.125 Y-23.838
X56.316 Y-23.699
X56.474 Y-23.524
X56.592 Y-23.319
X56.665 Y-23.095
X56.689 Y-22.860
X56.665 Y-22.625
X56.592 Y-22.401
X56.474 Y-22.196
X56.316 Y-22.021
X56.125 Y-21.882
X55.909 Y-21.786
X55.678 Y-21.737
X55.442 Y-21.737
G0 Z3.000
G0  X52.902 Y-21.737
G0  Z3.000
G01 F400 Z0
G01 F400 Z-0.100
G01F400X52.671 Y-21.786
X52.455 Y-21.882
X52.264 Y-22.021
X52.106 Y-22.196
X51.988 Y-22.401
X51.915 Y-22.625
X51.891 Y-22.860
X51.915 Y-23.095
X51.988 Y-23.319
X52.106 Y-23.524
X52.264 Y-23.699
X52.455 Y-23.838
X52.671 Y-23.934
X52.902 Y-23.983
X53.138 Y-23.983
X53.369 Y-23.934
X53.585 Y-23.838
X53.776 Y-23.699
X53.934 Y-23.524
X54.052 Y-23.319
X54.125 Y-23.095
X54.149 Y-22.860
X54.125 Y-22.625
X54.052 Y-22.401
X53.934 Y-22.196
X53.776 Y-22.021
X53.585 Y-21.882
X53.369 Y-21.786
X53.138 Y-21.737
X52.902 Y-21.737
G0 Z3.000
G0  X60.522 Y-21.737
G0  Z3.000
G01 F400 Z0
G01 F400 Z-0.100
G01F400X60.291 Y-21.786
X60.075 Y-21.882
X59.884 Y-22.021
X59.726 Y-22.196
X59.608 Y-22.401
X59.535 Y-22.625
X59.511 Y-22.860
X59.535 Y-23.095
X59.608 Y-23.319
X59.726 Y-23.524
X59.884 Y-23.699
X60.075 Y-23.838
X60.291 Y-23.934
X60.522 Y-23.983
X60.758 Y-23.983
X60.989 Y-23.934
X61.205 Y-23.838
X61.396 Y-23.699
X61.554 Y-23.524
X61.672 Y-23.319
X61.745 Y-23.095
X61.769 Y-22.860
X61.745 Y-22.625
X61.672 Y-22.401
X61.554 Y-22.196
X61.396 Y-22.021
X61.205 Y-21.882
X60.989 Y-21.786
X60.758 Y-21.737
X60.522 Y-21.737
G0 Z3.000
G0  X57.982 Y-21.737
G0  Z3.000
G01 F400 Z0
G01 F400 Z-0.100
G01F400X57.751 Y-21.786
X57.535 Y-21.882
X57.344 Y-22.021
X57.186 Y-22.196
X57.068 Y-22.401
X56.995 Y-22.625
X56.971 Y-22.860
X56.995 Y-23.095
X57.068 Y-23.319
X57.186 Y-23.524
X57.344 Y-23.699
X57.535 Y-23.838
X57.751 Y-23.934
X57.982 Y-23.983
X58.218 Y-23.983
X58.449 Y-23.934
X58.665 Y-23.838
X58.856 Y-23.699
X59.014 Y-23.524
X59.132 Y-23.319
X59.205 Y-23.095
X59.229 Y-22.860
X59.205 Y-22.625
X59.132 Y-22.401
X59.014 Y-22.196
X58.856 Y-22.021
X58.665 Y-21.882
X58.449 Y-21.786
X58.218 Y-21.737
X57.982 Y-21.737
G0 Z3.000
G0  X45.282 Y-21.737
G0  Z3.000
G01 F400 Z0
G01 F400 Z-0.100
G01F400X45.051 Y-21.786
X44.835 Y-21.882
X44.644 Y-22.021
X44.486 Y-22.196
X44.368 Y-22.401
X44.295 Y-22.625
X44.271 Y-22.860
X44.295 Y-23.095
X44.302 Y-23.114
X42.312 Y-25.104
X30.543 Y-25.104
X30.480 Y-24.995
X30.313 Y-24.809
X30.110 Y-24.661
X29.881 Y-24.559
X29.635 Y-24.507
X29.385 Y-24.507
X29.139 Y-24.559
X28.910 Y-24.661
X28.707 Y-24.809
X28.540 Y-24.995
X28.508 Y-25.051
X28.508 Y-25.007
X29.157 Y-24.358
X30.708 Y-24.358
X30.708 Y-21.963
X28.313 Y-21.963
X28.313 Y-23.513
X27.491 Y-24.335
X27.425 Y-24.408
X27.362 Y-24.516
X27.324 Y-24.635
X27.313 Y-24.742
X27.313 Y-38.408
X27.324 Y-38.515
X27.362 Y-38.634
X27.425 Y-38.742
X27.491 Y-38.815
X36.682 Y-48.006
X36.675 Y-48.025
X36.651 Y-48.260
X36.675 Y-48.495
X36.748 Y-48.719
X36.866 Y-48.924
X37.024 Y-49.099
X37.215 Y-49.238
X37.431 Y-49.334
X37.662 Y-49.383
X37.898 Y-49.383
X38.031 Y-49.355
X47.688 Y-59.012
X47.688 Y-73.363
X47.699 Y-73.469
X47.737 Y-73.589
X47.800 Y-73.697
X47.864 Y-73.768
X48.781 Y-74.714
X48.759 Y-74.930
X48.783 Y-75.161
X48.855 Y-75.382
X48.971 Y-75.583
X49.126 Y-75.756
X49.314 Y-75.892
X49.527 Y-75.987
X49.754 Y-76.035
X49.986 Y-76.035
X50.213 Y-75.987
X50.426 Y-75.892
X50.614 Y-75.756
X50.769 Y-75.583
X50.802 Y-75.526
X56.590 Y-75.526
X56.713 Y-75.500
X56.827 Y-75.449
X56.921 Y-75.381
X65.262 Y-67.046
X65.377 Y-67.097
X65.604 Y-67.145
X65.836 Y-67.145
X65.955 Y-67.120
X76.728 Y-77.893
X76.822 Y-77.961
X76.937 Y-78.012
X77.059 Y-78.038
X91.713 Y-78.038
X91.835 Y-78.012
X91.950 Y-77.961
X92.044 Y-77.893
X93.929 Y-76.007
X93.995 Y-75.934
X94.058 Y-75.826
X94.096 Y-75.707
X94.108 Y-75.600
X94.108 Y-70.950
X94.184 Y-70.934
X94.400 Y-70.838
X94.591 Y-70.699
X94.614 Y-70.674
X94.626 Y-70.680
X95.561 Y-70.940
X95.767 Y-70.983
X96.003 Y-70.983
X96.234 Y-70.934
X96.411 Y-70.855
X96.413 Y-70.857
X96.413 Y-72.026
X96.385 Y-72.038
X96.174 Y-72.192
X95.999 Y-72.386
X95.869 Y-72.612
X95.788 Y-72.860
X95.761 Y-73.120
X95.788 Y-73.380
X95.869 Y-73.628
X95.999 Y-73.854
X96.174 Y-74.049
X96.385 Y-74.202
X96.624 Y-74.308
X96.879 Y-74.363
X97.141 Y-74.363
X97.396 Y-74.308
X97.615 Y-74.211
X97.413 Y-74.413
X95.763 Y-74.413
X95.763 Y-76.063
X90.091 Y-81.735
X90.025 Y-81.808
X89.962 Y-81.916
X89.924 Y-82.035
X89.913 Y-82.142
X89.913 Y-91.778
X89.766 Y-91.884
X89.611 Y-92.057
X89.495 Y-92.258
X89.423 Y-92.479
X89.399 Y-92.710
X89.423 Y-92.941
X89.495 Y-93.162
X89.611 Y-93.363
X89.766 Y-93.536
X89.954 Y-93.672
X90.167 Y-93.767
X90.394 Y-93.815
X90.626 Y-93.815
X90.853 Y-93.767
X91.066 Y-93.672
X91.254 Y-93.536
X91.409 Y-93.363
X91.525 Y-93.162
X91.597 Y-92.941
X91.621 Y-92.710
X91.597 Y-92.479
X91.525 Y-92.258
X91.409 Y-92.057
X91.254 Y-91.884
X91.108 Y-91.778
X91.108 Y-82.407
X96.607 Y-76.907
X98.258 Y-76.907
X98.258 Y-75.257
X99.079 Y-74.435
X99.145 Y-74.362
X99.208 Y-74.254
X99.246 Y-74.135
X99.258 Y-74.028
X99.258 Y-64.792
X99.246 Y-64.685
X99.208 Y-64.566
X99.145 Y-64.458
X99.079 Y-64.385
X98.208 Y-63.513
X98.208 Y-62.807
X99.029 Y-61.985
X99.095 Y-61.912
X99.158 Y-61.804
X99.196 Y-61.685
X99.208 Y-61.578
X99.208 Y-59.834
X99.196 Y-59.727
X99.158 Y-59.608
X99.095 Y-59.500
X99.029 Y-59.427
X94.312 Y-54.709
X94.218 Y-54.641
X94.103 Y-54.590
X93.981 Y-54.564
X92.249 Y-54.564
X92.240 Y-54.475
X92.167 Y-54.251
X92.049 Y-54.046
X91.891 Y-53.871
X91.700 Y-53.732
X91.494 Y-53.640
X90.559 Y-53.381
X90.350 Y-53.336
X90.282 Y-53.337
X89.934 Y-52.989
X89.840 Y-52.921
X89.725 Y-52.870
X89.603 Y-52.844
X87.828 Y-52.844
X87.828 Y-49.062
X87.816 Y-48.955
X87.778 Y-48.836
X87.715 Y-48.728
X87.650 Y-48.655
X85.274 Y-46.279
X85.180 Y-46.211
X85.065 Y-46.160
X84.943 Y-46.134
X51.947 Y-46.134
X51.825 Y-46.160
X51.710 Y-46.211
X51.616 Y-46.279
X50.730 Y-47.165
X50.598 Y-47.137
X50.362 Y-47.137
X50.230 Y-47.165
X49.344 Y-46.279
X49.250 Y-46.211
X49.135 Y-46.160
X49.013 Y-46.134
X45.708 Y-46.134
X30.664 Y-31.089
X30.683 Y-31.030
X30.709 Y-30.780
X30.683 Y-30.531
X30.606 Y-30.292
X30.480 Y-30.075
X30.313 Y-29.889
X30.110 Y-29.741
X29.881 Y-29.639
X29.635 Y-29.587
X29.385 Y-29.587
X29.139 Y-29.639
X28.910 Y-29.741
X28.707 Y-29.889
X28.540 Y-30.075
X28.508 Y-30.131
X28.508 Y-28.889
X28.540 Y-28.945
X28.707 Y-29.131
X28.910 Y-29.279
X29.139 Y-29.381
X29.385 Y-29.433
X29.635 Y-29.433
X29.881 Y-29.381
X30.110 Y-29.279
X30.313 Y-29.131
X30.480 Y-28.945
X30.543 Y-28.836
X42.623 Y-28.836
X42.745 Y-28.810
X42.860 Y-28.759
X42.954 Y-28.691
X47.689 Y-23.955
X47.822 Y-23.983
X48.058 Y-23.983
X48.289 Y-23.934
X48.505 Y-23.838
X48.696 Y-23.699
X48.854 Y-23.524
X48.972 Y-23.319
X49.045 Y-23.095
X49.069 Y-22.860
X49.045 Y-22.625
X48.972 Y-22.401
X48.854 Y-22.196
X48.696 Y-22.021
X48.505 Y-21.882
X48.289 Y-21.786
X48.058 Y-21.737
X47.822 Y-21.737
X47.591 Y-21.786
X47.375 Y-21.882
X47.184 Y-22.021
X47.026 Y-22.196
X46.908 Y-22.401
X46.835 Y-22.625
X46.811 Y-22.860
X46.835 Y-23.095
X46.842 Y-23.114
X42.312 Y-27.644
X30.543 Y-27.644
X30.480 Y-27.535
X30.313 Y-27.349
X30.110 Y-27.201
X29.881 Y-27.099
X29.635 Y-27.047
X29.385 Y-27.047
X29.139 Y-27.099
X28.910 Y-27.201
X28.707 Y-27.349
X28.540 Y-27.535
X28.508 Y-27.591
X28.508 Y-26.349
X28.540 Y-26.405
X28.707 Y-26.591
X28.910 Y-26.739
X29.139 Y-26.841
X29.385 Y-26.893
X29.635 Y-26.893
X29.881 Y-26.841
X30.110 Y-26.739
X30.313 Y-26.591
X30.480 Y-26.405
X30.543 Y-26.296
X42.623 Y-26.296
X42.745 Y-26.270
X42.860 Y-26.219
X42.954 Y-26.151
X45.150 Y-23.955
X45.282 Y-23.983
X45.518 Y-23.983
X45.749 Y-23.934
X45.965 Y-23.838
X46.156 Y-23.699
X46.314 Y-23.524
X46.432 Y-23.319
X46.505 Y-23.095
X46.529 Y-22.860
X46.505 Y-22.625
X46.432 Y-22.401
X46.314 Y-22.196
X46.156 Y-22.021
X45.965 Y-21.882
X45.749 Y-21.786
X45.518 Y-21.737
X45.282 Y-21.737
G0 Z3.000
G0  X42.742 Y-21.737
G0  Z3.000
G01 F400 Z0
G01 F400 Z-0.100
G01F400X42.511 Y-21.786
X42.295 Y-21.882
X42.104 Y-22.021
X41.946 Y-22.196
X41.828 Y-22.401
X41.755 Y-22.625
X41.731 Y-22.860
X41.755 Y-23.095
X41.828 Y-23.319
X41.946 Y-23.524
X42.104 Y-23.699
X42.295 Y-23.838
X42.511 Y-23.934
X42.742 Y-23.983
X42.978 Y-23.983
X43.209 Y-23.934
X43.425 Y-23.838
X43.616 Y-23.699
X43.774 Y-23.524
X43.892 Y-23.319
X43.965 Y-23.095
X43.989 Y-22.860
X43.965 Y-22.625
X43.892 Y-22.401
X43.774 Y-22.196
X43.616 Y-22.021
X43.425 Y-21.882
X43.209 Y-21.786
X42.978 Y-21.737
X42.742 Y-21.737
G0 Z3.000
G0  X50.362 Y-21.737
G0  Z3.000
G01 F400 Z0
G01 F400 Z-0.100
G01F400X50.131 Y-21.786
X49.915 Y-21.882
X49.724 Y-22.021
X49.566 Y-22.196
X49.448 Y-22.401
X49.375 Y-22.625
X49.351 Y-22.860
X49.375 Y-23.095
X49.448 Y-23.319
X49.566 Y-23.524
X49.724 Y-23.699
X49.915 Y-23.838
X50.131 Y-23.934
X50.362 Y-23.983
X50.598 Y-23.983
X50.829 Y-23.934
X51.045 Y-23.838
X51.236 Y-23.699
X51.394 Y-23.524
X51.512 Y-23.319
X51.585 Y-23.095
X51.609 Y-22.860
X51.585 Y-22.625
X51.512 Y-22.401
X51.394 Y-22.196
X51.236 Y-22.021
X51.045 Y-21.882
X50.829 Y-21.786
X50.598 Y-21.737
X50.362 Y-21.737
G0 Z3.000
G0  X75.762 Y-21.737
G0  Z3.000
G01 F400 Z0
G01 F400 Z-0.100
G01F400X75.531 Y-21.786
X75.315 Y-21.882
X75.124 Y-22.021
X74.966 Y-22.196
X74.848 Y-22.401
X74.775 Y-22.625
X74.751 Y-22.860
X74.775 Y-23.095
X74.848 Y-23.319
X74.966 Y-23.524
X75.124 Y-23.699
X75.315 Y-23.838
X75.531 Y-23.934
X75.762 Y-23.983
X75.998 Y-23.983
X76.229 Y-23.934
X76.445 Y-23.838
X76.636 Y-23.699
X76.794 Y-23.524
X76.912 Y-23.319
X76.985 Y-23.095
X77.009 Y-22.860
X76.985 Y-22.625
X76.912 Y-22.401
X76.794 Y-22.196
X76.636 Y-22.021
X76.445 Y-21.882
X76.229 Y-21.786
X75.998 Y-21.737
X75.762 Y-21.737
G0 Z3.000
G0  X73.222 Y-21.737
G0  Z3.000
G01 F400 Z0
G01 F400 Z-0.100
G01F400X72.991 Y-21.786
X72.775 Y-21.882
X72.584 Y-22.021
X72.426 Y-22.196
X72.308 Y-22.401
X72.235 Y-22.625
X72.211 Y-22.860
X72.235 Y-23.095
X72.308 Y-23.319
X72.426 Y-23.524
X72.584 Y-23.699
X72.775 Y-23.838
X72.991 Y-23.934
X73.222 Y-23.983
X73.458 Y-23.983
X73.689 Y-23.934
X73.905 Y-23.838
X74.096 Y-23.699
X74.254 Y-23.524
X74.372 Y-23.319
X74.445 Y-23.095
X74.469 Y-22.860
X74.445 Y-22.625
X74.372 Y-22.401
X74.254 Y-22.196
X74.096 Y-22.021
X73.905 Y-21.882
X73.689 Y-21.786
X73.458 Y-21.737
X73.222 Y-21.737
G0 Z3.000
G0  X80.842 Y-21.737
G0  Z3.000
G01 F400 Z0
G01 F400 Z-0.100
G01F400X80.611 Y-21.786
X80.395 Y-21.882
X80.204 Y-22.021
X80.046 Y-22.196
X79.928 Y-22.401
X79.855 Y-22.625
X79.831 Y-22.860
X79.855 Y-23.095
X79.928 Y-23.319
X80.046 Y-23.524
X80.204 Y-23.699
X80.395 Y-23.838
X80.611 Y-23.934
X80.842 Y-23.983
X81.078 Y-23.983
X81.309 Y-23.934
X81.525 Y-23.838
X81.716 Y-23.699
X81.874 Y-23.524
X81.992 Y-23.319
X82.065 Y-23.095
X82.089 Y-22.860
X82.065 Y-22.625
X81.992 Y-22.401
X81.874 Y-22.196
X81.716 Y-22.021
X81.525 Y-21.882
X81.309 Y-21.786
X81.078 Y-21.737
X80.842 Y-21.737
G0 Z3.000
G0  X78.302 Y-21.737
G0  Z3.000
G01 F400 Z0
G01 F400 Z-0.100
G01F400X78.071 Y-21.786
X77.855 Y-21.882
X77.664 Y-22.021
X77.506 Y-22.196
X77.388 Y-22.401
X77.315 Y-22.625
X77.291 Y-22.860
X77.315 Y-23.095
X77.388 Y-23.319
X77.506 Y-23.524
X77.664 Y-23.699
X77.855 Y-23.838
X78.071 Y-23.934
X78.302 Y-23.983
X78.538 Y-23.983
X78.769 Y-23.934
X78.985 Y-23.838
X79.176 Y-23.699
X79.334 Y-23.524
X79.452 Y-23.319
X79.525 Y-23.095
X79.549 Y-22.860
X79.525 Y-22.625
X79.452 Y-22.401
X79.334 Y-22.196
X79.176 Y-22.021
X78.985 Y-21.882
X78.769 Y-21.786
X78.538 Y-21.737
X78.302 Y-21.737
G0 Z3.000
G0  X65.602 Y-21.737
G0  Z3.000
G01 F400 Z0
G01 F400 Z-0.100
G01F400X65.371 Y-21.786
X65.155 Y-21.882
X64.964 Y-22.021
X64.806 Y-22.196
X64.688 Y-22.401
X64.615 Y-22.625
X64.591 Y-22.860
X64.615 Y-23.095
X64.688 Y-23.319
X64.806 Y-23.524
X64.964 Y-23.699
X65.155 Y-23.838
X65.371 Y-23.934
X65.602 Y-23.983
X65.838 Y-23.983
X66.069 Y-23.934
X66.285 Y-23.838
X66.476 Y-23.699
X66.634 Y-23.524
X66.752 Y-23.319
X66.825 Y-23.095
X66.849 Y-22.860
X66.825 Y-22.625
X66.752 Y-22.401
X66.634 Y-22.196
X66.476 Y-22.021
X66.285 Y-21.882
X66.069 Y-21.786
X65.838 Y-21.737
X65.602 Y-21.737
G0 Z3.000
G0  X63.062 Y-21.737
G0  Z3.000
G01 F400 Z0
G01 F400 Z-0.100
G01F400X62.831 Y-21.786
X62.615 Y-21.882
X62.424 Y-22.021
X62.266 Y-22.196
X62.148 Y-22.401
X62.075 Y-22.625
X62.051 Y-22.860
X62.075 Y-23.095
X62.148 Y-23.319
X62.266 Y-23.524
X62.424 Y-23.699
X62.615 Y-23.838
X62.831 Y-23.934
X63.062 Y-23.983
X63.298 Y-23.983
X63.529 Y-23.934
X63.745 Y-23.838
X63.936 Y-23.699
X64.094 Y-23.524
X64.212 Y-23.319
X64.285 Y-23.095
X64.309 Y-22.860
X64.285 Y-22.625
X64.212 Y-22.401
X64.094 Y-22.196
X63.936 Y-22.021
X63.745 Y-21.882
X63.529 Y-21.786
X63.298 Y-21.737
X63.062 Y-21.737
G0 Z3.000
G0  X70.682 Y-21.737
G0  Z3.000
G01 F400 Z0
G01 F400 Z-0.100
G01F400X70.451 Y-21.786
X70.235 Y-21.882
X70.044 Y-22.021
X69.886 Y-22.196
X69.768 Y-22.401
X69.695 Y-22.625
X69.671 Y-22.860
X69.695 Y-23.095
X69.768 Y-23.319
X69.886 Y-23.524
X70.044 Y-23.699
X70.235 Y-23.838
X70.451 Y-23.934
X70.682 Y-23.983
X70.918 Y-23.983
X71.149 Y-23.934
X71.365 Y-23.838
X71.556 Y-23.699
X71.714 Y-23.524
X71.832 Y-23.319
X71.905 Y-23.095
X71.929 Y-22.860
X71.905 Y-22.625
X71.832 Y-22.401
X71.714 Y-22.196
X71.556 Y-22.021
X71.365 Y-21.882
X71.149 Y-21.786
X70.918 Y-21.737
X70.682 Y-21.737
G0 Z3.000
G0  X68.142 Y-21.737
G0  Z3.000
G01 F400 Z0
G01 F400 Z-0.100
G01F400X67.911 Y-21.786
X67.695 Y-21.882
X67.504 Y-22.021
X67.346 Y-22.196
X67.228 Y-22.401
X67.155 Y-22.625
X67.131 Y-22.860
X67.155 Y-23.095
X67.228 Y-23.319
X67.346 Y-23.524
X67.504 Y-23.699
X67.695 Y-23.838
X67.911 Y-23.934
X68.142 Y-23.983
X68.378 Y-23.983
X68.609 Y-23.934
X68.825 Y-23.838
X69.016 Y-23.699
X69.174 Y-23.524
X69.292 Y-23.319
X69.365 Y-23.095
X69.389 Y-22.860
X69.365 Y-22.625
X69.292 Y-22.401
X69.174 Y-22.196
X69.016 Y-22.021
X68.825 Y-21.882
X68.609 Y-21.786
X68.378 Y-21.737
X68.142 Y-21.737
G0 Z3.000
G0  X40.202 Y-21.737
G0  Z3.000
G01 F400 Z0
G01 F400 Z-0.100
G01F400X39.971 Y-21.786
X39.755 Y-21.882
X39.564 Y-22.021
X39.406 Y-22.196
X39.288 Y-22.401
X39.215 Y-22.625
X39.191 Y-22.860
X39.215 Y-23.095
X39.288 Y-23.319
X39.406 Y-23.524
X39.564 Y-23.699
X39.755 Y-23.838
X39.971 Y-23.934
X40.202 Y-23.983
X40.438 Y-23.983
X40.669 Y-23.934
X40.885 Y-23.838
X41.076 Y-23.699
X41.234 Y-23.524
X41.352 Y-23.319
X41.425 Y-23.095
X41.449 Y-22.860
X41.425 Y-22.625
X41.352 Y-22.401
X41.234 Y-22.196
X41.076 Y-22.021
X40.885 Y-21.882
X40.669 Y-21.786
X40.438 Y-21.737
X40.202 Y-21.737
G0 Z3.000
G0  X37.662 Y-21.737
G0  Z3.000
G01 F400 Z0
G01 F400 Z-0.100
G01F400X37.431 Y-21.786
X37.215 Y-21.882
X37.024 Y-22.021
X36.866 Y-22.196
X36.748 Y-22.401
X36.675 Y-22.625
X36.651 Y-22.860
X36.675 Y-23.095
X36.748 Y-23.319
X36.866 Y-23.524
X37.024 Y-23.699
X37.215 Y-23.838
X37.431 Y-23.934
X37.662 Y-23.983
X37.898 Y-23.983
X38.129 Y-23.934
X38.345 Y-23.838
X38.536 Y-23.699
X38.694 Y-23.524
X38.812 Y-23.319
X38.885 Y-23.095
X38.909 Y-22.860
X38.885 Y-22.625
X38.812 Y-22.401
X38.694 Y-22.196
X38.536 Y-22.021
X38.345 Y-21.882
X38.129 Y-21.786
X37.898 Y-21.737
X37.662 Y-21.737
G0 Z3.000
G0  X28.508 Y-31.429
G0  Z3.000
G01 F400 Z0
G01 F400 Z-0.100
G01F400X28.540 Y-31.485
X28.707 Y-31.671
X28.910 Y-31.819
X29.139 Y-31.921
X29.385 Y-31.973
X29.635 Y-31.973
X29.819 Y-31.934
X45.066 Y-47.181
X45.068 Y-47.182
X45.051 Y-47.186
X44.835 Y-47.282
X44.644 Y-47.421
X44.486 Y-47.596
X44.368 Y-47.801
X44.295 Y-48.025
X44.271 Y-48.260
X44.295 Y-48.495
X44.368 Y-48.719
X44.486 Y-48.924
X44.644 Y-49.099
X44.835 Y-49.238
X45.051 Y-49.334
X45.282 Y-49.383
X45.518 Y-49.383
X45.749 Y-49.334
X45.965 Y-49.238
X46.156 Y-49.099
X46.314 Y-48.924
X46.432 Y-48.719
X46.505 Y-48.495
X46.529 Y-48.260
X46.505 Y-48.025
X46.432 Y-47.801
X46.314 Y-47.596
X46.156 Y-47.421
X46.026 Y-47.326
X47.315 Y-47.326
X47.184 Y-47.421
X47.026 Y-47.596
X46.908 Y-47.801
X46.835 Y-48.025
X46.811 Y-48.260
X46.835 Y-48.495
X46.908 Y-48.719
X47.026 Y-48.924
X47.184 Y-49.099
X47.375 Y-49.238
X47.591 Y-49.334
X47.822 Y-49.383
X48.058 Y-49.383
X48.191 Y-49.355
X49.883 Y-51.047
X49.883 Y-52.230
X49.370 Y-52.230
X49.370 Y-54.450
X51.590 Y-54.450
X51.590 Y-52.230
X51.078 Y-52.230
X51.078 Y-50.782
X51.066 Y-50.675
X51.028 Y-50.556
X50.965 Y-50.448
X50.899 Y-50.375
X49.038 Y-48.514
X49.045 Y-48.495
X49.069 Y-48.260
X49.045 Y-48.025
X48.972 Y-47.801
X48.854 Y-47.596
X48.696 Y-47.421
X48.566 Y-47.326
X48.702 Y-47.326
X49.382 Y-48.006
X49.375 Y-48.025
X49.351 Y-48.260
X49.375 Y-48.495
X49.448 Y-48.719
X49.566 Y-48.924
X49.724 Y-49.099
X49.915 Y-49.238
X50.131 Y-49.334
X50.362 Y-49.383
X50.598 Y-49.383
X50.829 Y-49.334
X51.045 Y-49.238
X51.236 Y-49.099
X51.394 Y-48.924
X51.512 Y-48.719
X51.585 Y-48.495
X51.609 Y-48.260
X51.585 Y-48.025
X51.578 Y-48.006
X52.258 Y-47.326
X52.395 Y-47.326
X52.264 Y-47.421
X52.106 Y-47.596
X51.988 Y-47.801
X51.915 Y-48.025
X51.891 Y-48.260
X51.915 Y-48.495
X51.988 Y-48.719
X52.106 Y-48.924
X52.264 Y-49.099
X52.422 Y-49.214
X52.422 Y-52.408
X52.276 Y-52.514
X52.121 Y-52.687
X52.005 Y-52.888
X51.933 Y-53.109
X51.909 Y-53.340
X51.933 Y-53.571
X52.005 Y-53.792
X52.121 Y-53.993
X52.276 Y-54.166
X52.464 Y-54.303
X52.677 Y-54.397
X52.904 Y-54.445
X53.136 Y-54.445
X53.363 Y-54.397
X53.576 Y-54.303
X53.764 Y-54.166
X53.919 Y-53.993
X54.035 Y-53.792
X54.107 Y-53.571
X54.131 Y-53.340
X54.107 Y-53.109
X54.035 Y-52.888
X53.919 Y-52.687
X53.764 Y-52.514
X53.617 Y-52.408
X53.617 Y-49.214
X53.776 Y-49.099
X53.934 Y-48.924
X54.052 Y-48.719
X54.125 Y-48.495
X54.149 Y-48.260
X54.125 Y-48.025
X54.052 Y-47.801
X53.934 Y-47.596
X53.776 Y-47.421
X53.646 Y-47.326
X54.934 Y-47.326
X54.804 Y-47.421
X54.646 Y-47.596
X54.528 Y-47.801
X54.455 Y-48.025
X54.431 Y-48.260
X54.455 Y-48.495
X54.528 Y-48.719
X54.646 Y-48.924
X54.804 Y-49.099
X54.963 Y-49.214
X54.963 Y-52.408
X54.816 Y-52.514
X54.661 Y-52.687
X54.545 Y-52.888
X54.473 Y-53.109
X54.449 Y-53.340
X54.473 Y-53.571
X54.545 Y-53.792
X54.661 Y-53.993
X54.816 Y-54.166
X55.004 Y-54.303
X55.217 Y-54.397
X55.444 Y-54.445
X55.676 Y-54.445
X55.903 Y-54.397
X56.116 Y-54.303
X56.304 Y-54.166
X56.459 Y-53.993
X56.575 Y-53.792
X56.647 Y-53.571
X56.671 Y-53.340
X56.647 Y-53.109
X56.575 Y-52.888
X56.459 Y-52.687
X56.304 Y-52.514
X56.158 Y-52.408
X56.158 Y-49.214
X56.316 Y-49.099
X56.474 Y-48.924
X56.592 Y-48.719
X56.665 Y-48.495
X56.689 Y-48.260
X56.665 Y-48.025
X56.592 Y-47.801
X56.474 Y-47.596
X56.316 Y-47.421
X56.186 Y-47.326
X57.475 Y-47.326
X57.344 Y-47.421
X57.186 Y-47.596
X57.068 Y-47.801
X56.995 Y-48.025
X56.971 Y-48.260
X56.995 Y-48.495
X57.068 Y-48.719
X57.186 Y-48.924
X57.344 Y-49.099
X57.535 Y-49.238
X57.751 Y-49.334
X57.982 Y-49.383
X58.218 Y-49.383
X58.449 Y-49.334
X58.665 Y-49.238
X58.856 Y-49.099
X59.014 Y-48.924
X59.132 Y-48.719
X59.205 Y-48.495
X59.229 Y-48.260
X59.205 Y-48.025
X59.132 Y-47.801
X59.014 Y-47.596
X58.856 Y-47.421
X58.726 Y-47.326
X60.015 Y-47.326
X59.884 Y-47.421
X59.726 Y-47.596
X59.608 Y-47.801
X59.535 Y-48.025
X59.511 Y-48.260
X59.535 Y-48.495
X59.608 Y-48.719
X59.726 Y-48.924
X59.884 Y-49.099
X60.043 Y-49.214
X60.043 Y-52.408
X59.896 Y-52.514
X59.741 Y-52.687
X59.708 Y-52.744
X59.032 Y-52.744
X58.999 Y-52.687
X58.844 Y-52.514
X58.656 Y-52.378
X58.443 Y-52.283
X58.216 Y-52.235
X57.984 Y-52.235
X57.757 Y-52.283
X57.544 Y-52.378
X57.356 Y-52.514
X57.201 Y-52.687
X57.085 Y-52.888
X57.013 Y-53.109
X56.989 Y-53.340
X57.013 Y-53.571
X57.085 Y-53.792
X57.201 Y-53.993
X57.356 Y-54.166
X57.544 Y-54.303
X57.757 Y-54.397
X57.984 Y-54.445
X58.216 Y-54.445
X58.443 Y-54.397
X58.656 Y-54.303
X58.844 Y-54.166
X58.999 Y-53.993
X59.032 Y-53.936
X59.708 Y-53.936
X59.741 Y-53.993
X59.896 Y-54.166
X60.084 Y-54.303
X60.297 Y-54.397
X60.524 Y-54.445
X60.756 Y-54.445
X60.983 Y-54.397
X61.196 Y-54.303
X61.384 Y-54.166
X61.539 Y-53.993
X61.655 Y-53.792
X61.727 Y-53.571
X61.751 Y-53.340
X61.727 Y-53.109
X61.655 Y-52.888
X61.539 Y-52.687
X61.384 Y-52.514
X61.238 Y-52.408
X61.238 Y-49.214
X61.396 Y-49.099
X61.554 Y-48.924
X61.672 Y-48.719
X61.745 Y-48.495
X61.769 Y-48.260
X61.745 Y-48.025
X61.672 Y-47.801
X61.554 Y-47.596
X61.396 Y-47.421
X61.266 Y-47.326
X62.555 Y-47.326
X62.424 Y-47.421
X62.266 Y-47.596
X62.148 Y-47.801
X62.075 Y-48.025
X62.051 Y-48.260
X62.075 Y-48.495
X62.148 Y-48.719
X62.266 Y-48.924
X62.424 Y-49.099
X62.583 Y-49.214
X62.583 Y-52.408
X62.436 Y-52.514
X62.281 Y-52.687
X62.165 Y-52.888
X62.093 Y-53.109
X62.069 Y-53.340
X62.093 Y-53.571
X62.165 Y-53.792
X62.281 Y-53.993
X62.436 Y-54.166
X62.624 Y-54.303
X62.837 Y-54.397
X63.064 Y-54.445
X63.296 Y-54.445
X63.523 Y-54.397
X63.736 Y-54.303
X63.924 Y-54.166
X64.079 Y-53.993
X64.195 Y-53.792
X64.267 Y-53.571
X64.291 Y-53.340
X64.267 Y-53.109
X64.195 Y-52.888
X64.079 Y-52.687
X63.924 Y-52.514
X63.778 Y-52.408
X63.778 Y-49.214
X63.936 Y-49.099
X64.094 Y-48.924
X64.212 Y-48.719
X64.285 Y-48.495
X64.309 Y-48.260
X64.285 Y-48.025
X64.212 Y-47.801
X64.094 Y-47.596
X63.936 Y-47.421
X63.806 Y-47.326
X65.094 Y-47.326
X64.964 Y-47.421
X64.806 Y-47.596
X64.688 Y-47.801
X64.615 Y-48.025
X64.591 Y-48.260
X64.615 Y-48.495
X64.688 Y-48.719
X64.806 Y-48.924
X64.964 Y-49.099
X65.123 Y-49.214
X65.123 Y-52.408
X64.976 Y-52.514
X64.821 Y-52.687
X64.705 Y-52.888
X64.633 Y-53.109
X64.609 Y-53.340
X64.633 Y-53.571
X64.705 Y-53.792
X64.821 Y-53.993
X64.976 Y-54.166
X65.164 Y-54.303
X65.377 Y-54.397
X65.604 Y-54.445
X65.836 Y-54.445
X66.063 Y-54.397
X66.276 Y-54.303
X66.464 Y-54.166
X66.619 Y-53.993
X66.735 Y-53.792
X66.807 Y-53.571
X66.831 Y-53.340
X66.807 Y-53.109
X66.735 Y-52.888
X66.619 Y-52.687
X66.464 Y-52.514
X66.318 Y-52.408
X66.318 Y-49.214
X66.476 Y-49.099
X66.634 Y-48.924
X66.752 Y-48.719
X66.825 Y-48.495
X66.849 Y-48.260
X66.825 Y-48.025
X66.752 Y-47.801
X66.634 Y-47.596
X66.476 Y-47.421
X66.346 Y-47.326
X67.635 Y-47.326
X67.504 Y-47.421
X67.346 Y-47.596
X67.228 Y-47.801
X67.155 Y-48.025
X67.131 Y-48.260
X67.155 Y-48.495
X67.228 Y-48.719
X67.346 Y-48.924
X67.504 Y-49.099
X67.663 Y-49.214
X67.663 Y-52.408
X67.516 Y-52.514
X67.361 Y-52.687
X67.245 Y-52.888
X67.173 Y-53.109
X67.149 Y-53.340
X67.173 Y-53.571
X67.245 Y-53.792
X67.361 Y-53.993
X67.516 Y-54.166
X67.704 Y-54.303
X67.917 Y-54.397
X68.144 Y-54.445
X68.376 Y-54.445
X68.603 Y-54.397
X68.816 Y-54.303
X69.004 Y-54.166
X69.159 Y-53.993
X69.275 Y-53.792
X69.347 Y-53.571
X69.371 Y-53.340
X69.347 Y-53.109
X69.275 Y-52.888
X69.159 Y-52.687
X69.004 Y-52.514
X68.858 Y-52.408
X68.858 Y-49.214
X69.016 Y-49.099
X69.174 Y-48.924
X69.292 Y-48.719
X69.365 Y-48.495
X69.389 Y-48.260
X69.365 Y-48.025
X69.292 Y-47.801
X69.174 Y-47.596
X69.016 Y-47.421
X68.886 Y-47.326
X70.175 Y-47.326
X70.044 Y-47.421
X69.886 Y-47.596
X69.768 Y-47.801
X69.695 Y-48.025
X69.671 Y-48.260
X69.695 Y-48.495
X69.768 Y-48.719
X69.886 Y-48.924
X70.044 Y-49.099
X70.235 Y-49.238
X70.451 Y-49.334
X70.682 Y-49.383
X70.918 Y-49.383
X71.149 Y-49.334
X71.365 Y-49.238
X71.556 Y-49.099
X71.714 Y-48.924
X71.832 Y-48.719
X71.905 Y-48.495
X71.929 Y-48.260
X71.905 Y-48.025
X71.832 Y-47.801
X71.714 Y-47.596
X71.556 Y-47.421
X71.425 Y-47.326
X72.715 Y-47.326
X72.584 Y-47.421
X72.426 Y-47.596
X72.308 Y-47.801
X72.235 Y-48.025
X72.211 Y-48.260
X72.235 Y-48.495
X72.308 Y-48.719
X72.426 Y-48.924
X72.584 Y-49.099
X72.775 Y-49.238
X72.991 Y-49.334
X73.222 Y-49.383
X73.458 Y-49.383
X73.689 Y-49.334
X73.905 Y-49.238
X74.096 Y-49.099
X74.254 Y-48.924
X74.372 Y-48.719
X74.445 Y-48.495
X74.469 Y-48.260
X74.445 Y-48.025
X74.372 Y-47.801
X74.254 Y-47.596
X74.096 Y-47.421
X73.966 Y-47.326
X75.255 Y-47.326
X75.124 Y-47.421
X74.966 Y-47.596
X74.848 Y-47.801
X74.775 Y-48.025
X74.751 Y-48.260
X74.775 Y-48.495
X74.848 Y-48.719
X74.966 Y-48.924
X75.124 Y-49.099
X75.315 Y-49.238
X75.531 Y-49.334
X75.762 Y-49.383
X75.998 Y-49.383
X76.229 Y-49.334
X76.445 Y-49.238
X76.636 Y-49.099
X76.794 Y-48.924
X76.912 Y-48.719
X76.985 Y-48.495
X77.009 Y-48.260
X76.985 Y-48.025
X76.912 Y-47.801
X76.794 Y-47.596
X76.636 Y-47.421
X76.505 Y-47.326
X77.794 Y-47.326
X77.664 Y-47.421
X77.506 Y-47.596
X77.388 Y-47.801
X77.315 Y-48.025
X77.291 Y-48.260
X77.315 Y-48.495
X77.388 Y-48.719
X77.506 Y-48.924
X77.664 Y-49.099
X77.855 Y-49.238
X78.071 Y-49.334
X78.302 Y-49.383
X78.538 Y-49.383
X78.769 Y-49.334
X78.985 Y-49.238
X79.176 Y-49.099
X79.334 Y-48.924
X79.452 Y-48.719
X79.525 Y-48.495
X79.549 Y-48.260
X79.525 Y-48.025
X79.452 Y-47.801
X79.334 Y-47.596
X79.176 Y-47.421
X79.046 Y-47.326
X80.335 Y-47.326
X80.204 Y-47.421
X80.046 Y-47.596
X79.928 Y-47.801
X79.855 Y-48.025
X79.831 Y-48.260
X79.855 Y-48.495
X79.928 Y-48.719
X80.046 Y-48.924
X80.204 Y-49.099
X80.395 Y-49.238
X80.611 Y-49.334
X80.842 Y-49.383
X81.078 Y-49.383
X81.309 Y-49.334
X81.525 Y-49.238
X81.716 Y-49.099
X81.874 Y-48.924
X81.992 Y-48.719
X82.065 Y-48.495
X82.089 Y-48.260
X82.065 Y-48.025
X81.992 Y-47.801
X81.874 Y-47.596
X81.716 Y-47.421
X81.586 Y-47.326
X82.373 Y-47.326
X82.373 Y-49.388
X84.627 Y-49.388
X84.627 Y-47.326
X84.632 Y-47.326
X86.633 Y-49.327
X86.633 Y-53.458
X86.644 Y-53.565
X86.682 Y-53.684
X86.745 Y-53.792
X86.829 Y-53.885
X86.930 Y-53.959
X87.045 Y-54.010
X87.143 Y-54.031
X87.086 Y-54.207
X86.828 Y-55.393
X86.806 Y-55.610
X86.830 Y-55.845
X86.903 Y-56.069
X87.021 Y-56.274
X87.179 Y-56.449
X87.370 Y-56.588
X87.576 Y-56.680
X87.913 Y-56.773
X87.913 Y-58.963
X87.713 Y-58.963
X87.713 Y-59.114
X85.798 Y-59.114
X85.797 Y-59.104
X85.725 Y-58.883
X85.609 Y-58.682
X85.454 Y-58.509
X85.266 Y-58.373
X85.054 Y-58.278
X83.868 Y-58.021
X83.676 Y-57.980
X83.444 Y-57.980
X83.217 Y-58.028
X83.136 Y-58.064
X83.108 Y-57.978
X83.045 Y-57.870
X82.980 Y-57.797
X78.172 Y-52.989
X78.078 Y-52.921
X77.963 Y-52.870
X77.841 Y-52.844
X76.179 Y-52.844
X76.057 Y-52.870
X75.942 Y-52.921
X75.848 Y-52.989
X70.774 Y-58.064
X57.797 Y-58.064
X57.675 Y-58.090
X57.560 Y-58.141
X57.466 Y-58.209
X50.716 Y-64.960
X50.596 Y-64.935
X50.364 Y-64.935
X50.137 Y-64.983
X49.924 Y-65.078
X49.736 Y-65.214
X49.581 Y-65.387
X49.465 Y-65.588
X49.393 Y-65.809
X49.369 Y-66.040
X49.393 Y-66.271
X49.465 Y-66.492
X49.581 Y-66.693
X49.736 Y-66.866
X49.924 Y-67.002
X50.137 Y-67.097
X50.364 Y-67.145
X50.596 Y-67.145
X50.823 Y-67.097
X51.036 Y-67.002
X51.224 Y-66.866
X51.379 Y-66.693
X51.495 Y-66.492
X51.567 Y-66.271
X51.591 Y-66.040
X51.567 Y-65.804
X51.565 Y-65.800
X58.108 Y-59.256
X71.085 Y-59.256
X71.207 Y-59.230
X71.322 Y-59.179
X71.416 Y-59.111
X75.885 Y-54.641
X75.837 Y-54.791
X75.811 Y-55.040
X75.837 Y-55.290
X75.856 Y-55.349
X71.642 Y-59.564
X61.377 Y-59.564
X61.255 Y-59.590
X61.140 Y-59.641
X61.046 Y-59.709
X55.796 Y-64.960
X55.676 Y-64.935
X55.444 Y-64.935
X55.217 Y-64.983
X55.004 Y-65.078
X54.816 Y-65.214
X54.661 Y-65.387
X54.545 Y-65.588
X54.473 Y-65.809
X54.449 Y-66.040
X54.473 Y-66.271
X54.545 Y-66.492
X54.661 Y-66.693
X54.816 Y-66.866
X55.004 Y-67.002
X55.217 Y-67.097
X55.444 Y-67.145
X55.676 Y-67.145
X55.903 Y-67.097
X56.116 Y-67.002
X56.304 Y-66.866
X56.459 Y-66.693
X56.575 Y-66.492
X56.647 Y-66.271
X56.671 Y-66.040
X56.647 Y-65.804
X56.645 Y-65.800
X61.688 Y-60.756
X71.953 Y-60.756
X72.075 Y-60.730
X72.190 Y-60.679
X72.284 Y-60.611
X76.701 Y-56.194
X76.885 Y-56.233
X77.135 Y-56.233
X77.381 Y-56.181
X77.610 Y-56.079
X77.813 Y-55.931
X77.980 Y-55.745
X78.106 Y-55.528
X78.183 Y-55.289
X78.209 Y-55.040
X78.183 Y-54.791
X78.135 Y-54.641
X81.963 Y-58.469
X81.963 Y-60.978
X81.974 Y-61.085
X82.012 Y-61.204
X82.075 Y-61.312
X82.141 Y-61.385
X82.297 Y-61.542
X82.222 Y-61.811
X82.199 Y-62.035
X82.223 Y-62.266
X82.295 Y-62.487
X82.411 Y-62.688
X82.566 Y-62.861
X82.653 Y-62.924
X82.661 Y-62.938
X82.816 Y-63.111
X83.004 Y-63.248
X83.217 Y-63.342
X83.444 Y-63.390
X84.576 Y-63.390
X84.803 Y-63.342
X85.016 Y-63.248
X85.204 Y-63.111
X85.359 Y-62.938
X85.475 Y-62.737
X85.538 Y-62.544
X85.632 Y-62.206
X87.713 Y-62.206
X87.713 Y-62.358
X87.913 Y-62.358
X87.913 Y-72.948
X87.924 Y-73.055
X87.962 Y-73.174
X88.025 Y-73.282
X88.089 Y-73.354
X89.421 Y-74.715
X89.399 Y-74.930
X89.423 Y-75.161
X89.495 Y-75.382
X89.611 Y-75.583
X89.766 Y-75.756
X89.890 Y-75.846
X78.911 Y-75.846
X69.349 Y-66.252
X69.371 Y-66.040
X69.347 Y-65.809
X69.275 Y-65.588
X69.159 Y-65.387
X69.004 Y-65.214
X68.880 Y-65.124
X73.705 Y-65.124
X73.827 Y-65.098
X73.942 Y-65.047
X74.036 Y-64.979
X75.758 Y-63.256
X75.813 Y-63.256
X75.813 Y-63.858
X78.208 Y-63.858
X78.208 Y-61.463
X76.002 Y-61.463
X76.350 Y-61.115
X76.410 Y-61.159
X76.639 Y-61.261
X76.885 Y-61.313
X77.135 Y-61.313
X77.381 Y-61.261
X77.610 Y-61.159
X77.813 Y-61.011
X77.980 Y-60.825
X78.106 Y-60.608
X78.183 Y-60.369
X78.209 Y-60.120
X78.183 Y-59.871
X78.106 Y-59.632
X77.980 Y-59.415
X77.813 Y-59.229
X77.610 Y-59.081
X77.381 Y-58.979
X77.135 Y-58.927
X76.885 Y-58.927
X76.639 Y-58.979
X76.410 Y-59.081
X76.207 Y-59.229
X76.040 Y-59.415
X75.914 Y-59.632
X75.837 Y-59.871
X75.829 Y-59.947
X73.212 Y-62.564
X63.457 Y-62.564
X63.335 Y-62.590
X63.220 Y-62.641
X63.126 Y-62.709
X60.876 Y-64.960
X60.756 Y-64.935
X60.524 Y-64.935
X60.297 Y-64.983
X60.084 Y-65.078
X59.896 Y-65.214
X59.741 Y-65.387
X59.625 Y-65.588
X59.553 Y-65.809
X59.529 Y-66.040
X59.553 Y-66.271
X59.625 Y-66.492
X59.741 Y-66.693
X59.896 Y-66.866
X60.084 Y-67.002
X60.297 Y-67.097
X60.524 Y-67.145
X60.756 Y-67.145
X60.983 Y-67.097
X61.196 Y-67.002
X61.384 Y-66.866
X61.539 Y-66.693
X61.655 Y-66.492
X61.727 Y-66.271
X61.751 Y-66.040
X61.727 Y-65.804
X61.725 Y-65.800
X63.768 Y-63.756
X73.569 Y-63.756
X73.394 Y-63.932
X64.629 Y-63.932
X64.507 Y-63.958
X64.392 Y-64.009
X64.298 Y-64.077
X63.416 Y-64.960
X63.296 Y-64.935
X63.064 Y-64.935
X62.837 Y-64.983
X62.624 Y-65.078
X62.436 Y-65.214
X62.281 Y-65.387
X62.165 Y-65.588
X62.093 Y-65.809
X62.069 Y-66.040
X62.093 Y-66.271
X62.165 Y-66.492
X62.281 Y-66.693
X62.436 Y-66.866
X62.624 Y-67.002
X62.837 Y-67.097
X63.064 Y-67.145
X63.296 Y-67.145
X63.514 Y-67.099
X56.279 Y-74.334
X50.802 Y-74.334
X50.769 Y-74.277
X50.614 Y-74.104
X50.426 Y-73.968
X50.213 Y-73.873
X49.986 Y-73.825
X49.754 Y-73.825
X49.635 Y-73.850
X48.883 Y-73.098
X48.883 Y-58.747
X48.871 Y-58.640
X48.833 Y-58.521
X48.770 Y-58.413
X48.704 Y-58.340
X38.878 Y-48.514
X38.885 Y-48.495
X38.909 Y-48.260
X38.885 Y-48.025
X38.812 Y-47.801
X38.694 Y-47.596
X38.536 Y-47.421
X38.345 Y-47.282
X38.129 Y-47.186
X37.898 Y-47.137
X37.662 Y-47.137
X37.529 Y-47.165
X28.508 Y-38.143
X28.508 Y-31.429
G0 Z3.000
G0  X40.202 Y-47.137
G0  Z3.000
G01 F400 Z0
G01 F400 Z-0.100
G01F400X39.971 Y-47.186
X39.755 Y-47.282
X39.564 Y-47.421
X39.406 Y-47.596
X39.288 Y-47.801
X39.215 Y-48.025
X39.191 Y-48.260
X39.215 Y-48.495
X39.288 Y-48.719
X39.406 Y-48.924
X39.564 Y-49.099
X39.755 Y-49.238
X39.971 Y-49.334
X40.202 Y-49.383
X40.438 Y-49.383
X40.669 Y-49.334
X40.885 Y-49.238
X41.076 Y-49.099
X41.234 Y-48.924
X41.352 Y-48.719
X41.425 Y-48.495
X41.449 Y-48.260
X41.425 Y-48.025
X41.352 Y-47.801
X41.234 Y-47.596
X41.076 Y-47.421
X40.885 Y-47.282
X40.669 Y-47.186
X40.438 Y-47.137
X40.202 Y-47.137
G0 Z3.000
G0  X42.742 Y-47.137
G0  Z3.000
G01 F400 Z0
G01 F400 Z-0.100
G01F400X42.511 Y-47.186
X42.295 Y-47.282
X42.104 Y-47.421
X41.946 Y-47.596
X41.828 Y-47.801
X41.755 Y-48.025
X41.731 Y-48.260
X41.755 Y-48.495
X41.828 Y-48.719
X41.946 Y-48.924
X42.104 Y-49.099
X42.295 Y-49.238
X42.511 Y-49.334
X42.742 Y-49.383
X42.978 Y-49.383
X43.209 Y-49.334
X43.425 Y-49.238
X43.616 Y-49.099
X43.774 Y-48.924
X43.892 Y-48.719
X43.965 Y-48.495
X43.989 Y-48.260
X43.965 Y-48.025
X43.892 Y-47.801
X43.774 Y-47.596
X43.616 Y-47.421
X43.425 Y-47.282
X43.209 Y-47.186
X42.978 Y-47.137
X42.742 Y-47.137
G0 Z3.000
G0  X92.249 Y-55.756
G0  Z3.000
G01 F400 Z0
G01 F400 Z-0.100
G01F400X93.670 Y-55.756
X97.403 Y-59.489
X97.381 Y-59.479
X97.135 Y-59.427
X96.885 Y-59.427
X96.639 Y-59.479
X96.410 Y-59.581
X96.207 Y-59.729
X96.040 Y-59.915
X95.954 Y-60.064
X91.308 Y-60.064
X91.308 Y-59.913
X89.713 Y-59.913
X89.713 Y-61.408
X91.308 Y-61.408
X91.308 Y-61.256
X96.000 Y-61.256
X96.040 Y-61.325
X96.207 Y-61.511
X96.410 Y-61.659
X96.639 Y-61.761
X96.885 Y-61.813
X97.135 Y-61.813
X97.381 Y-61.761
X97.610 Y-61.659
X97.813 Y-61.511
X97.980 Y-61.325
X98.013 Y-61.269
X98.013 Y-61.313
X97.363 Y-61.963
X95.813 Y-61.963
X95.813 Y-63.513
X91.766 Y-67.560
X91.700 Y-67.633
X91.637 Y-67.741
X91.599 Y-67.860
X91.588 Y-67.967
X91.588 Y-74.669
X91.525 Y-74.478
X91.409 Y-74.277
X91.254 Y-74.104
X91.066 Y-73.968
X90.853 Y-73.873
X90.626 Y-73.825
X90.394 Y-73.825
X90.274 Y-73.850
X89.108 Y-72.683
X89.108 Y-62.358
X89.308 Y-62.358
X89.308 Y-60.863
X87.713 Y-60.863
X87.713 Y-61.014
X85.752 Y-61.014
X85.725 Y-60.933
X85.609 Y-60.732
X85.500 Y-60.611
X85.538 Y-60.494
X85.590 Y-60.306
X87.713 Y-60.306
X87.713 Y-60.458
X89.308 Y-60.458
X89.308 Y-58.963
X89.108 Y-58.963
X89.108 Y-56.950
X89.184 Y-56.934
X89.400 Y-56.838
X89.591 Y-56.699
X89.614 Y-56.674
X89.626 Y-56.680
X90.561 Y-56.940
X90.767 Y-56.983
X91.003 Y-56.983
X91.234 Y-56.934
X91.450 Y-56.838
X91.641 Y-56.699
X91.799 Y-56.524
X91.806 Y-56.510
X91.891 Y-56.449
X92.049 Y-56.274
X92.167 Y-56.069
X92.240 Y-55.845
X92.249 Y-55.756
G0 Z3.000
G0  X76.885 Y-56.387
G0  Z3.000
G01 F400 Z0
G01 F400 Z-0.100
G01F400X76.639 Y-56.439
X76.410 Y-56.541
X76.207 Y-56.689
X76.040 Y-56.875
X75.914 Y-57.092
X75.837 Y-57.331
X75.811 Y-57.580
X75.837 Y-57.830
X75.856 Y-57.889
X72.682 Y-61.064
X62.417 Y-61.064
X62.295 Y-61.090
X62.180 Y-61.141
X62.086 Y-61.209
X58.336 Y-64.960
X58.216 Y-64.935
X57.984 Y-64.935
X57.757 Y-64.983
X57.544 Y-65.078
X57.356 Y-65.214
X57.201 Y-65.387
X57.085 Y-65.588
X57.013 Y-65.809
X56.989 Y-66.040
X57.013 Y-66.271
X57.085 Y-66.492
X57.201 Y-66.693
X57.356 Y-66.866
X57.544 Y-67.002
X57.757 Y-67.097
X57.984 Y-67.145
X58.216 Y-67.145
X58.443 Y-67.097
X58.656 Y-67.002
X58.844 Y-66.866
X58.999 Y-66.693
X59.115 Y-66.492
X59.187 Y-66.271
X59.211 Y-66.040
X59.187 Y-65.804
X59.185 Y-65.800
X62.728 Y-62.256
X72.993 Y-62.256
X73.115 Y-62.230
X73.230 Y-62.179
X73.324 Y-62.111
X76.701 Y-58.734
X76.885 Y-58.773
X77.135 Y-58.773
X77.381 Y-58.721
X77.610 Y-58.619
X77.813 Y-58.471
X77.980 Y-58.285
X78.106 Y-58.068
X78.183 Y-57.829
X78.209 Y-57.580
X78.183 Y-57.331
X78.106 Y-57.092
X77.980 Y-56.875
X77.813 Y-56.689
X77.610 Y-56.541
X77.381 Y-56.439
X77.135 Y-56.387
X76.885 Y-56.387
G0 Z3.000
G0  X75.813 Y-61.652
G0  Z3.000
G01 F400 Z0
G01 F400 Z-0.100
G01F400X75.813 Y-62.064
X75.447 Y-62.064
X75.388 Y-62.077
X75.813 Y-61.652
G0 Z3.000
G0  X96.657 Y-64.358
G0  Z3.000
G01 F400 Z0
G01 F400 Z-0.100
G01F400X97.363 Y-64.358
X98.063 Y-65.057
X98.063 Y-72.458
X98.021 Y-72.386
X97.846 Y-72.192
X97.635 Y-72.038
X97.608 Y-72.026
X97.608 Y-70.592
X97.596 Y-70.485
X97.558 Y-70.366
X97.495 Y-70.258
X97.429 Y-70.185
X97.203 Y-69.958
X97.240 Y-69.845
X97.263 Y-69.628
X97.263 Y-68.692
X97.240 Y-68.475
X97.167 Y-68.251
X97.049 Y-68.046
X96.891 Y-67.871
X96.700 Y-67.732
X96.494 Y-67.640
X95.559 Y-67.380
X95.353 Y-67.337
X95.117 Y-67.337
X94.886 Y-67.386
X94.670 Y-67.482
X94.479 Y-67.621
X94.457 Y-67.646
X94.444 Y-67.640
X93.607 Y-67.408
X96.657 Y-64.358
G0 Z3.000
G0  X52.904 Y-64.935
G0  Z3.000
G01 F400 Z0
G01 F400 Z-0.100
G01F400X52.677 Y-64.983
X52.464 Y-65.078
X52.276 Y-65.214
X52.121 Y-65.387
X52.005 Y-65.588
X51.933 Y-65.809
X51.909 Y-66.040
X51.933 Y-66.271
X52.005 Y-66.492
X52.121 Y-66.693
X52.276 Y-66.866
X52.464 Y-67.002
X52.677 Y-67.097
X52.904 Y-67.145
X53.136 Y-67.145
X53.363 Y-67.097
X53.576 Y-67.002
X53.764 Y-66.866
X53.919 Y-66.693
X54.035 Y-66.492
X54.107 Y-66.271
X54.131 Y-66.040
X54.107 Y-65.809
X54.035 Y-65.588
X53.919 Y-65.387
X53.764 Y-65.214
X53.576 Y-65.078
X53.363 Y-64.983
X53.136 Y-64.935
X52.904 Y-64.935
G0 Z3.000
G0  X64.940 Y-65.124
G0  Z3.000
G01 F400 Z0
G01 F400 Z-0.100
G01F400X65.100 Y-65.124
X64.976 Y-65.214
X64.821 Y-65.387
X64.705 Y-65.588
X64.633 Y-65.809
X64.613 Y-66.001
X64.231 Y-66.382
X64.267 Y-66.271
X64.291 Y-66.040
X64.267 Y-65.804
X64.265 Y-65.800
X64.940 Y-65.124
G0 Z3.000
G0  X66.340 Y-65.124
G0  Z3.000
G01 F400 Z0
G01 F400 Z-0.100
G01F400X67.640 Y-65.124
X67.516 Y-65.214
X67.361 Y-65.387
X67.245 Y-65.588
X67.173 Y-65.809
X67.149 Y-66.040
X67.173 Y-66.271
X67.245 Y-66.492
X67.361 Y-66.693
X67.516 Y-66.866
X67.704 Y-67.002
X67.917 Y-67.097
X68.144 Y-67.145
X68.376 Y-67.145
X68.496 Y-67.120
X78.222 Y-76.846
X77.371 Y-76.846
X66.809 Y-66.252
X66.831 Y-66.040
X66.807 Y-65.809
X66.735 Y-65.588
X66.619 Y-65.387
X66.464 Y-65.214
X66.340 Y-65.124
G0 Z3.000
G0  X92.782 Y-70.737
G0  Z3.000
G01 F400 Z0
G01 F400 Z-0.100
G01F400X92.913 Y-70.773
X92.913 Y-75.335
X92.782 Y-75.465
X92.782 Y-70.737
G0 Z3.000
G0  X91.588 Y-75.191
G0  Z3.000
G01 F400 Z0
G01 F400 Z-0.100
G01F400X91.588 Y-75.246
X91.561 Y-75.272
X91.588 Y-75.191
G0 Z3.000
G0  X20.139 Y-88.630
G0  Z3.000
G01 F400 Z0
G01 F400 Z-0.100
G01F400X19.413 Y-88.784
X18.735 Y-89.086
X18.135 Y-89.522
X17.639 Y-90.074
X17.268 Y-90.716
X17.038 Y-91.422
X16.961 Y-92.160
X17.038 Y-92.898
X17.268 Y-93.604
X17.639 Y-94.246
X18.135 Y-94.798
X18.735 Y-95.234
X19.413 Y-95.536
X20.139 Y-95.690
X20.881 Y-95.690
X21.607 Y-95.536
X22.285 Y-95.234
X22.885 Y-94.798
X23.382 Y-94.246
X23.753 Y-93.604
X23.982 Y-92.898
X24.059 Y-92.160
X23.982 Y-91.422
X23.753 Y-90.716
X23.382 Y-90.074
X22.885 Y-89.522
X22.285 Y-89.086
X21.607 Y-88.784
X20.881 Y-88.630
X20.139 Y-88.630
G0 Z3.000
G0  X95.639 Y-88.630
G0  Z3.000
G01 F400 Z0
G01 F400 Z-0.100
G01F400X94.913 Y-88.784
X94.235 Y-89.086
X93.635 Y-89.522
X93.139 Y-90.074
X92.767 Y-90.716
X92.538 Y-91.422
X92.461 Y-92.160
X92.538 Y-92.898
X92.767 Y-93.604
X93.139 Y-94.246
X93.635 Y-94.798
X94.235 Y-95.234
X94.913 Y-95.536
X95.639 Y-95.690
X96.381 Y-95.690
X97.107 Y-95.536
X97.785 Y-95.234
X98.385 Y-94.798
X98.882 Y-94.246
X99.252 Y-93.604
X99.482 Y-92.898
X99.559 Y-92.160
X99.482 Y-91.422
X99.252 Y-90.716
X98.882 Y-90.074
X98.385 Y-89.522
X97.785 Y-89.086
X97.107 Y-88.784
X96.381 Y-88.630
X95.639 Y-88.630
G0 Z3.000
G0  X49.754 Y-91.605
G0  Z3.000
G01 F400 Z0
G01 F400 Z-0.100
G01F400X49.527 Y-91.653
X49.314 Y-91.748
X49.126 Y-91.884
X48.971 Y-92.057
X48.855 Y-92.258
X48.783 Y-92.479
X48.759 Y-92.710
X48.783 Y-92.941
X48.855 Y-93.162
X48.971 Y-93.363
X49.126 Y-93.536
X49.314 Y-93.672
X49.527 Y-93.767
X49.754 Y-93.815
X49.986 Y-93.815
X50.213 Y-93.767
X50.426 Y-93.672
X50.614 Y-93.536
X50.769 Y-93.363
X50.885 Y-93.162
X50.957 Y-92.941
X50.981 Y-92.710
X50.957 Y-92.479
X50.885 Y-92.258
X50.769 Y-92.057
X50.614 Y-91.884
X50.426 Y-91.748
X50.213 Y-91.653
X49.986 Y-91.605
X49.754 Y-91.605
G0 Z3.000
G0  X20.116 Y-20.907
G0  Z3.000
G01 F400 Z0
G01 F400 Z-0.100
G01F400X19.344 Y-21.071
X18.623 Y-21.392
X17.985 Y-21.855
X17.457 Y-22.442
X17.062 Y-23.125
X16.819 Y-23.875
X16.736 Y-24.660
X16.819 Y-25.445
X17.062 Y-26.195
X17.457 Y-26.878
X17.985 Y-27.465
X18.623 Y-27.928
X19.344 Y-28.249
X20.116 Y-28.413
X20.905 Y-28.413
X21.676 Y-28.249
X22.397 Y-27.928
X23.035 Y-27.465
X23.563 Y-26.878
X23.958 Y-26.195
X24.202 Y-25.445
X24.284 Y-24.660
X24.202 Y-23.875
X23.958 Y-23.125
X23.563 Y-22.442
X23.035 Y-21.855
X22.397 Y-21.392
X21.676 Y-21.071
X20.905 Y-20.907
X20.116 Y-20.907
G0 Z3.000
G0  X95.616 Y-20.907
G0  Z3.000
G01 F400 Z0
G01 F400 Z-0.100
G01F400X94.844 Y-21.071
X94.123 Y-21.392
X93.485 Y-21.855
X92.957 Y-22.442
X92.562 Y-23.125
X92.319 Y-23.875
X92.236 Y-24.660
X92.319 Y-25.445
X92.562 Y-26.195
X92.957 Y-26.878
X93.485 Y-27.465
X94.123 Y-27.928
X94.844 Y-28.249
X95.616 Y-28.413
X96.404 Y-28.413
X97.176 Y-28.249
X97.897 Y-27.928
X98.535 Y-27.465
X99.063 Y-26.878
X99.458 Y-26.195
X99.702 Y-25.445
X99.784 Y-24.660
X99.702 Y-23.875
X99.458 Y-23.125
X99.063 Y-22.442
X98.535 Y-21.855
X97.897 Y-21.392
X97.176 Y-21.071
X96.404 Y-20.907
X95.616 Y-20.907
G0 Z3.000
G0  X37.638 Y-21.513
G0  Z3.000
G01 F400 Z0
G01 F400 Z-0.100
G01F400X37.362 Y-21.572
X37.103 Y-21.687
X36.874 Y-21.854
X36.685 Y-22.064
X36.543 Y-22.309
X36.456 Y-22.579
X36.426 Y-22.860
X36.456 Y-23.142
X36.543 Y-23.411
X36.685 Y-23.656
X36.874 Y-23.866
X37.103 Y-24.033
X37.362 Y-24.148
X37.638 Y-24.207
X37.922 Y-24.207
X38.198 Y-24.148
X38.457 Y-24.033
X38.686 Y-23.866
X38.875 Y-23.656
X39.017 Y-23.411
X39.050 Y-23.309
X39.083 Y-23.411
X39.225 Y-23.656
X39.414 Y-23.866
X39.643 Y-24.033
X39.902 Y-24.148
X40.178 Y-24.207
X40.462 Y-24.207
X40.738 Y-24.148
X40.997 Y-24.033
X41.226 Y-23.866
X41.415 Y-23.656
X41.557 Y-23.411
X41.590 Y-23.309
X41.623 Y-23.411
X41.765 Y-23.656
X41.954 Y-23.866
X42.183 Y-24.033
X42.442 Y-24.148
X42.718 Y-24.207
X42.893 Y-24.207
X42.219 Y-24.881
X30.672 Y-24.881
X30.662 Y-24.863
X30.463 Y-24.642
X30.379 Y-24.581
X30.931 Y-24.581
X30.931 Y-21.739
X28.089 Y-21.739
X28.089 Y-23.421
X27.329 Y-24.181
X27.243 Y-24.276
X27.157 Y-24.425
X27.104 Y-24.589
X27.089 Y-24.730
X27.089 Y-38.420
X27.104 Y-38.561
X27.157 Y-38.725
X27.243 Y-38.874
X27.328 Y-38.969
X36.444 Y-48.085
X36.426 Y-48.260
X36.456 Y-48.541
X36.543 Y-48.811
X36.685 Y-49.056
X36.874 Y-49.266
X37.103 Y-49.433
X37.362 Y-49.548
X37.638 Y-49.607
X37.922 Y-49.607
X37.959 Y-49.599
X47.464 Y-59.104
X47.464 Y-73.375
X47.479 Y-73.516
X47.532 Y-73.680
X47.619 Y-73.830
X47.701 Y-73.921
X48.548 Y-74.795
X48.534 Y-74.930
X48.563 Y-75.208
X48.650 Y-75.474
X48.789 Y-75.715
X48.976 Y-75.923
X49.202 Y-76.087
X49.457 Y-76.201
X49.730 Y-76.259
X50.010 Y-76.259
X50.283 Y-76.201
X50.538 Y-76.087
X50.764 Y-75.923
X50.920 Y-75.749
X56.614 Y-75.749
X56.782 Y-75.714
X56.940 Y-75.644
X57.067 Y-75.551
X65.312 Y-67.312
X65.580 Y-67.369
X65.860 Y-67.369
X65.883 Y-67.364
X76.583 Y-78.063
X76.710 Y-78.156
X76.868 Y-78.226
X77.036 Y-78.261
X91.736 Y-78.261
X91.904 Y-78.226
X92.062 Y-78.156
X92.189 Y-78.063
X94.091 Y-76.161
X94.177 Y-76.067
X94.263 Y-75.917
X94.316 Y-75.753
X94.331 Y-75.612
X94.331 Y-71.113
X94.512 Y-71.033
X94.664 Y-70.922
X95.508 Y-71.157
X95.743 Y-71.207
X96.027 Y-71.207
X96.189 Y-71.172
X96.189 Y-71.904
X96.024 Y-72.025
X95.818 Y-72.254
X95.663 Y-72.521
X95.568 Y-72.814
X95.536 Y-73.120
X95.568 Y-73.427
X95.663 Y-73.719
X95.818 Y-73.986
X96.000 Y-74.189
X95.539 Y-74.189
X95.539 Y-75.971
X89.929 Y-81.581
X89.843 Y-81.675
X89.757 Y-81.825
X89.704 Y-81.989
X89.689 Y-82.130
X89.689 Y-91.664
X89.616 Y-91.717
X89.429 Y-91.925
X89.290 Y-92.166
X89.203 Y-92.432
X89.174 Y-92.710
X89.203 Y-92.988
X89.290 Y-93.254
X89.429 Y-93.495
X89.616 Y-93.703
X89.842 Y-93.867
X90.097 Y-93.981
X90.370 Y-94.039
X90.650 Y-94.039
X90.923 Y-93.981
X91.178 Y-93.867
X91.404 Y-93.703
X91.591 Y-93.495
X91.731 Y-93.254
X91.817 Y-92.988
X91.846 Y-92.710
X91.817 Y-92.432
X91.731 Y-92.166
X91.591 Y-91.925
X91.404 Y-91.717
X91.331 Y-91.664
X91.331 Y-82.499
X96.699 Y-77.131
X98.481 Y-77.131
X98.481 Y-75.350
X99.241 Y-74.589
X99.327 Y-74.495
X99.413 Y-74.345
X99.466 Y-74.181
X99.481 Y-74.040
X99.481 Y-64.780
X99.466 Y-64.639
X99.413 Y-64.475
X99.327 Y-64.326
X99.241 Y-64.231
X98.431 Y-63.421
X98.431 Y-62.900
X99.191 Y-62.139
X99.277 Y-62.045
X99.363 Y-61.895
X99.416 Y-61.731
X99.431 Y-61.590
X99.431 Y-59.822
X99.416 Y-59.681
X99.363 Y-59.517
X99.277 Y-59.367
X99.191 Y-59.273
X94.457 Y-54.539
X94.330 Y-54.446
X94.172 Y-54.376
X94.004 Y-54.341
X92.431 Y-54.341
X92.372 Y-54.159
X92.230 Y-53.914
X92.041 Y-53.704
X91.812 Y-53.537
X91.570 Y-53.430
X90.612 Y-53.163
X90.373 Y-53.113
X90.079 Y-52.819
X89.952 Y-52.726
X89.794 Y-52.656
X89.626 Y-52.620
X88.051 Y-52.620
X88.051 Y-49.050
X88.036 Y-48.909
X87.983 Y-48.745
X87.897 Y-48.596
X87.812 Y-48.501
X85.419 Y-46.109
X85.292 Y-46.016
X85.135 Y-45.946
X84.966 Y-45.910
X51.924 Y-45.910
X51.756 Y-45.946
X51.598 Y-46.016
X51.471 Y-46.109
X50.658 Y-46.921
X50.622 Y-46.913
X50.338 Y-46.913
X50.302 Y-46.921
X49.489 Y-46.109
X49.362 Y-46.016
X49.205 Y-45.946
X49.036 Y-45.910
X45.801 Y-45.910
X30.909 Y-31.019
X30.934 Y-30.780
X30.903 Y-30.484
X30.811 Y-30.201
X30.662 Y-29.943
X30.463 Y-29.722
X30.222 Y-29.547
X30.139 Y-29.510
X30.222 Y-29.473
X30.463 Y-29.298
X30.662 Y-29.077
X30.672 Y-29.059
X42.646 Y-29.059
X42.815 Y-29.024
X42.972 Y-28.954
X43.099 Y-28.861
X47.762 Y-24.199
X47.798 Y-24.207
X48.082 Y-24.207
X48.358 Y-24.148
X48.617 Y-24.033
X48.846 Y-23.866
X49.035 Y-23.656
X49.177 Y-23.411
X49.210 Y-23.309
X49.243 Y-23.411
X49.385 Y-23.656
X49.574 Y-23.866
X49.803 Y-24.033
X50.062 Y-24.148
X50.338 Y-24.207
X50.622 Y-24.207
X50.898 Y-24.148
X51.157 Y-24.033
X51.386 Y-23.866
X51.575 Y-23.656
X51.717 Y-23.411
X51.750 Y-23.309
X51.783 Y-23.411
X51.925 Y-23.656
X52.114 Y-23.866
X52.343 Y-24.033
X52.602 Y-24.148
X52.878 Y-24.207
X53.162 Y-24.207
X53.438 Y-24.148
X53.697 Y-24.033
X53.926 Y-23.866
X54.115 Y-23.656
X54.257 Y-23.411
X54.290 Y-23.309
X54.323 Y-23.411
X54.465 Y-23.656
X54.654 Y-23.866
X54.883 Y-24.033
X55.142 Y-24.148
X55.418 Y-24.207
X55.702 Y-24.207
X55.978 Y-24.148
X56.237 Y-24.033
X56.466 Y-23.866
X56.655 Y-23.656
X56.797 Y-23.411
X56.830 Y-23.309
X56.863 Y-23.411
X57.005 Y-23.656
X57.194 Y-23.866
X57.423 Y-24.033
X57.682 Y-24.148
X57.958 Y-24.207
X58.242 Y-24.207
X58.518 Y-24.148
X58.777 Y-24.033
X59.006 Y-23.866
X59.195 Y-23.656
X59.337 Y-23.411
X59.370 Y-23.309
X59.403 Y-23.411
X59.545 Y-23.656
X59.734 Y-23.866
X59.963 Y-24.033
X60.222 Y-24.148
X60.498 Y-24.207
X60.782 Y-24.207
X61.058 Y-24.148
X61.317 Y-24.033
X61.546 Y-23.866
X61.735 Y-23.656
X61.877 Y-23.411
X61.910 Y-23.309
X61.943 Y-23.411
X62.085 Y-23.656
X62.274 Y-23.866
X62.503 Y-24.033
X62.762 Y-24.148
X63.038 Y-24.207
X63.322 Y-24.207
X63.598 Y-24.148
X63.857 Y-24.033
X64.086 Y-23.866
X64.275 Y-23.656
X64.417 Y-23.411
X64.450 Y-23.309
X64.483 Y-23.411
X64.625 Y-23.656
X64.814 Y-23.866
X65.043 Y-24.033
X65.302 Y-24.148
X65.578 Y-24.207
X65.862 Y-24.207
X66.138 Y-24.148
X66.397 Y-24.033
X66.626 Y-23.866
X66.815 Y-23.656
X66.957 Y-23.411
X66.990 Y-23.309
X67.023 Y-23.411
X67.165 Y-23.656
X67.354 Y-23.866
X67.583 Y-24.033
X67.842 Y-24.148
X68.118 Y-24.207
X68.402 Y-24.207
X68.678 Y-24.148
X68.937 Y-24.033
X69.166 Y-23.866
X69.355 Y-23.656
X69.497 Y-23.411
X69.530 Y-23.309
X69.563 Y-23.411
X69.705 Y-23.656
X69.894 Y-23.866
X70.123 Y-24.033
X70.382 Y-24.148
X70.658 Y-24.207
X70.942 Y-24.207
X71.218 Y-24.148
X71.477 Y-24.033
X71.706 Y-23.866
X71.895 Y-23.656
X72.037 Y-23.411
X72.070 Y-23.309
X72.103 Y-23.411
X72.245 Y-23.656
X72.434 Y-23.866
X72.663 Y-24.033
X72.922 Y-24.148
X73.198 Y-24.207
X73.482 Y-24.207
X73.758 Y-24.148
X74.017 Y-24.033
X74.246 Y-23.866
X74.435 Y-23.656
X74.577 Y-23.411
X74.610 Y-23.309
X74.643 Y-23.411
X74.785 Y-23.656
X74.974 Y-23.866
X75.203 Y-24.033
X75.462 Y-24.148
X75.738 Y-24.207
X76.022 Y-24.207
X76.298 Y-24.148
X76.557 Y-24.033
X76.786 Y-23.866
X76.975 Y-23.656
X77.117 Y-23.411
X77.150 Y-23.309
X77.183 Y-23.411
X77.325 Y-23.656
X77.514 Y-23.866
X77.743 Y-24.033
X78.002 Y-24.148
X78.278 Y-24.207
X78.562 Y-24.207
X78.838 Y-24.148
X79.097 Y-24.033
X79.326 Y-23.866
X79.515 Y-23.656
X79.657 Y-23.411
X79.690 Y-23.309
X79.723 Y-23.411
X79.865 Y-23.656
X80.054 Y-23.866
X80.283 Y-24.033
X80.542 Y-24.148
X80.818 Y-24.207
X81.102 Y-24.207
X81.378 Y-24.148
X81.637 Y-24.033
X81.866 Y-23.866
X82.055 Y-23.656
X82.197 Y-23.411
X82.230 Y-23.309
X82.263 Y-23.411
X82.405 Y-23.656
X82.594 Y-23.866
X82.823 Y-24.033
X83.082 Y-24.148
X83.358 Y-24.207
X83.642 Y-24.207
X83.918 Y-24.148
X84.177 Y-24.033
X84.406 Y-23.866
X84.595 Y-23.656
X84.737 Y-23.411
X84.824 Y-23.142
X84.854 Y-22.860
X84.824 Y-22.579
X84.737 Y-22.309
X84.595 Y-22.064
X84.406 Y-21.854
X84.177 Y-21.687
X83.918 Y-21.572
X83.642 Y-21.513
X83.358 Y-21.513
X83.082 Y-21.572
X82.823 Y-21.687
X82.594 Y-21.854
X82.405 Y-22.064
X82.263 Y-22.309
X82.230 Y-22.411
X82.197 Y-22.309
X82.055 Y-22.064
X81.866 Y-21.854
X81.637 Y-21.687
X81.378 Y-21.572
X81.102 Y-21.513
X80.818 Y-21.513
X80.542 Y-21.572
X80.283 Y-21.687
X80.054 Y-21.854
X79.865 Y-22.064
X79.723 Y-22.309
X79.690 Y-22.411
X79.657 Y-22.309
X79.515 Y-22.064
X79.326 Y-21.854
X79.097 Y-21.687
X78.838 Y-21.572
X78.562 Y-21.513
X78.278 Y-21.513
X78.002 Y-21.572
X77.743 Y-21.687
X77.514 Y-21.854
X77.325 Y-22.064
X77.183 Y-22.309
X77.150 Y-22.411
X77.117 Y-22.309
X76.975 Y-22.064
X76.786 Y-21.854
X76.557 Y-21.687
X76.298 Y-21.572
X76.022 Y-21.513
X75.738 Y-21.513
X75.462 Y-21.572
X75.203 Y-21.687
X74.974 Y-21.854
X74.785 Y-22.064
X74.643 Y-22.309
X74.610 Y-22.411
X74.577 Y-22.309
X74.435 Y-22.064
X74.246 Y-21.854
X74.017 Y-21.687
X73.758 Y-21.572
X73.482 Y-21.513
X73.198 Y-21.513
X72.922 Y-21.572
X72.663 Y-21.687
X72.434 Y-21.854
X72.245 Y-22.064
X72.103 Y-22.309
X72.070 Y-22.411
X72.037 Y-22.309
X71.895 Y-22.064
X71.706 Y-21.854
X71.477 Y-21.687
X71.218 Y-21.572
X70.942 Y-21.513
X70.658 Y-21.513
X70.382 Y-21.572
X70.123 Y-21.687
X69.894 Y-21.854
X69.705 Y-22.064
X69.563 Y-22.309
X69.530 Y-22.411
