(G-CODE GENERATED BY FLATCAM v8.993 - www.flatcam.org - Version Date: 2020/06/05)

(Name: ESP32Focuser-B_Cu.gbr_0.1000_iso_cnc)
(Type: G-code from Geometry)
(Units: MM)

(Created on Samstag, 19 September 2020 at 21:34)

(This preprocessor is the default preprocessor used by FlatCAM.)
(It is made to work with MACH3 compatible motion controllers.)

(TOOL DIAMETER: 0.1 mm)
(Feedrate_XY: 120.0 mm/min)
(Feedrate_Z: 60.0 mm/min)
(Feedrate rapids 1500.0 mm/min)

(Z_Cut: -0.05 mm)
(Z_Move: 2.0 mm)
(Z Start: None mm)
(Z End: 15.0 mm)
(Steps per circle: 64)
(Preprocessor Geometry: default)

(X range:   18.5300 ...  100.5300  mm)
(Y range: -101.7600 ...  -27.7600  mm)

(Spindle Speed: None RPM)
G21
G90
G94



G01 F120.00
G00 Z2.0000

M03
G00 X25.0299 Y-31.0075
G01 F60.00
G01 Z-0.0500
G01 F120.00
G01 X25.0144 Y-30.6914
G01 X24.9676 Y-30.3760
G01 X24.8901 Y-30.0666
G01 X24.7826 Y-29.7663
G01 X24.6462 Y-29.4780
G01 X24.4823 Y-29.2044
G01 X24.2923 Y-28.9482
G01 X24.0781 Y-28.7119
G01 X23.8418 Y-28.4977
G01 X23.5856 Y-28.3077
G01 X23.3120 Y-28.1438
G01 X23.0237 Y-28.0074
G01 X22.7234 Y-27.8999
G01 X22.4140 Y-27.8224
G01 X22.0986 Y-27.7756
G01 X21.7800 Y-27.7600
G01 X21.4614 Y-27.7756
G01 X21.1460 Y-27.8224
G01 X20.8366 Y-27.8999
G01 X20.5363 Y-28.0074
G01 X20.2480 Y-28.1438
G01 X19.9744 Y-28.3077
G01 X19.7182 Y-28.4977
G01 X19.4819 Y-28.7119
G01 X19.2677 Y-28.9482
G01 X19.0777 Y-29.2044
G01 X18.9138 Y-29.4780
G01 X18.7774 Y-29.7663
G01 X18.6699 Y-30.0666
G01 X18.5924 Y-30.3760
G01 X18.5456 Y-30.6914
G01 X18.5300 Y-31.0100
G01 X18.5456 Y-31.3286
G01 X18.5924 Y-31.6440
G01 X18.6699 Y-31.9534
G01 X18.7774 Y-32.2537
G01 X18.9138 Y-32.5420
G01 X19.0777 Y-32.8156
G01 X19.2677 Y-33.0718
G01 X19.4819 Y-33.3081
G01 X19.7182 Y-33.5223
G01 X19.9744 Y-33.7123
G01 X20.2480 Y-33.8762
G01 X20.5363 Y-34.0126
G01 X20.8366 Y-34.1201
G01 X21.1460 Y-34.1976
G01 X21.4614 Y-34.2444
G01 X21.7800 Y-34.2600
G01 X22.0986 Y-34.2444
G01 X22.4140 Y-34.1976
G01 X22.7234 Y-34.1201
G01 X23.0237 Y-34.0126
G01 X23.3120 Y-33.8762
G01 X23.5856 Y-33.7123
G01 X23.8418 Y-33.5223
G01 X24.0781 Y-33.3081
G01 X24.2923 Y-33.0718
G01 X24.4823 Y-32.8156
G01 X24.6462 Y-32.5420
G01 X24.7826 Y-32.2537
G01 X24.8901 Y-31.9534
G01 X24.9676 Y-31.6440
G01 X25.0144 Y-31.3286
G01 X25.0299 Y-31.0075
G00 Z2.0000
G00 X35.1199 Y-29.2075
G01 F60.00
G01 Z-0.0500
G01 F120.00
G01 X35.1160 Y-29.1286
G01 X35.1041 Y-29.0481
G01 X35.0843 Y-28.9691
G01 X35.0568 Y-28.8924
G01 X35.0220 Y-28.8187
G01 X34.9801 Y-28.7489
G01 X34.9316 Y-28.6835
G01 X34.8769 Y-28.6231
G01 X34.8165 Y-28.5684
G01 X34.7511 Y-28.5199
G01 X34.6813 Y-28.4780
G01 X34.6076 Y-28.4432
G01 X34.5309 Y-28.4157
G01 X34.4519 Y-28.3959
G01 X34.3714 Y-28.3840
G01 X34.2900 Y-28.3800
G01 X34.2086 Y-28.3840
G01 X34.1281 Y-28.3959
G01 X34.0491 Y-28.4157
G01 X33.9724 Y-28.4432
G01 X33.8987 Y-28.4780
G01 X33.8289 Y-28.5199
G01 X33.7635 Y-28.5684
G01 X33.7031 Y-28.6231
G01 X33.6484 Y-28.6835
G01 X33.5999 Y-28.7489
G01 X33.5580 Y-28.8187
G01 X33.5232 Y-28.8924
G01 X33.4957 Y-28.9691
G01 X33.4759 Y-29.0481
G01 X33.4640 Y-29.1286
G01 X33.4600 Y-29.2100
G01 X33.4640 Y-29.2914
G01 X33.4759 Y-29.3719
G01 X33.4957 Y-29.4509
G01 X33.5232 Y-29.5276
G01 X33.5580 Y-29.6013
G01 X33.5999 Y-29.6711
G01 X33.6484 Y-29.7365
G01 X33.7031 Y-29.7969
G01 X33.7635 Y-29.8516
G01 X33.8289 Y-29.9001
G01 X33.8987 Y-29.9420
G01 X33.9724 Y-29.9768
G01 X34.0491 Y-30.0043
G01 X34.1281 Y-30.0241
G01 X34.2086 Y-30.0360
G01 X34.2900 Y-30.0400
G01 X34.3714 Y-30.0360
G01 X34.4519 Y-30.0241
G01 X34.5309 Y-30.0043
G01 X34.6076 Y-29.9768
G01 X34.6813 Y-29.9420
G01 X34.7511 Y-29.9001
G01 X34.8165 Y-29.8516
G01 X34.8769 Y-29.7969
G01 X34.9316 Y-29.7365
G01 X34.9801 Y-29.6711
G01 X35.0220 Y-29.6013
G01 X35.0568 Y-29.5276
G01 X35.0843 Y-29.4509
G01 X35.1041 Y-29.3719
G01 X35.1160 Y-29.2914
G01 X35.1199 Y-29.2075
G00 Z2.0000
G00 X37.6599 Y-29.2075
G01 F60.00
G01 Z-0.0500
G01 F120.00
G01 X37.6560 Y-29.1286
G01 X37.6441 Y-29.0481
G01 X37.6243 Y-28.9691
G01 X37.5968 Y-28.8924
G01 X37.5620 Y-28.8187
G01 X37.5201 Y-28.7489
G01 X37.4716 Y-28.6835
G01 X37.4169 Y-28.6231
G01 X37.3565 Y-28.5684
G01 X37.2911 Y-28.5199
G01 X37.2213 Y-28.4780
G01 X37.1476 Y-28.4432
G01 X37.0709 Y-28.4157
G01 X36.9919 Y-28.3959
G01 X36.9114 Y-28.3840
G01 X36.8300 Y-28.3800
G01 X36.7486 Y-28.3840
G01 X36.6681 Y-28.3959
G01 X36.5891 Y-28.4157
G01 X36.5124 Y-28.4432
G01 X36.4387 Y-28.4780
G01 X36.3689 Y-28.5199
G01 X36.3035 Y-28.5684
G01 X36.2431 Y-28.6231
G01 X36.1884 Y-28.6835
G01 X36.1399 Y-28.7489
G01 X36.0980 Y-28.8187
G01 X36.0632 Y-28.8924
G01 X36.0357 Y-28.9691
G01 X36.0159 Y-29.0481
G01 X36.0040 Y-29.1286
G01 X36.0000 Y-29.2100
G01 X36.0040 Y-29.2914
G01 X36.0159 Y-29.3719
G01 X36.0357 Y-29.4509
G01 X36.0632 Y-29.5276
G01 X36.0980 Y-29.6013
G01 X36.1399 Y-29.6711
G01 X36.1884 Y-29.7365
G01 X36.2431 Y-29.7969
G01 X36.3035 Y-29.8516
G01 X36.3689 Y-29.9001
G01 X36.4387 Y-29.9420
G01 X36.5124 Y-29.9768
G01 X36.5891 Y-30.0043
G01 X36.6681 Y-30.0241
G01 X36.7486 Y-30.0360
G01 X36.8300 Y-30.0400
G01 X36.9114 Y-30.0360
G01 X36.9919 Y-30.0241
G01 X37.0709 Y-30.0043
G01 X37.1476 Y-29.9768
G01 X37.2213 Y-29.9420
G01 X37.2911 Y-29.9001
G01 X37.3565 Y-29.8516
G01 X37.4169 Y-29.7969
G01 X37.4716 Y-29.7365
G01 X37.5201 Y-29.6711
G01 X37.5620 Y-29.6013
G01 X37.5968 Y-29.5276
G01 X37.6243 Y-29.4509
G01 X37.6441 Y-29.3719
G01 X37.6560 Y-29.2914
G01 X37.6599 Y-29.2075
G00 Z2.0000
G00 X40.1999 Y-29.2075
G01 F60.00
G01 Z-0.0500
G01 F120.00
G01 X40.1960 Y-29.1286
G01 X40.1841 Y-29.0481
G01 X40.1643 Y-28.9691
G01 X40.1368 Y-28.8924
G01 X40.1020 Y-28.8187
G01 X40.0601 Y-28.7489
G01 X40.0116 Y-28.6835
G01 X39.9569 Y-28.6231
G01 X39.8965 Y-28.5684
G01 X39.8311 Y-28.5199
G01 X39.7613 Y-28.4780
G01 X39.6876 Y-28.4432
G01 X39.6109 Y-28.4157
G01 X39.5319 Y-28.3959
G01 X39.4514 Y-28.3840
G01 X39.3700 Y-28.3800
G01 X39.2886 Y-28.3840
G01 X39.2081 Y-28.3959
G01 X39.1291 Y-28.4157
G01 X39.0524 Y-28.4432
G01 X38.9787 Y-28.4780
G01 X38.9089 Y-28.5199
G01 X38.8435 Y-28.5684
G01 X38.7831 Y-28.6231
G01 X38.7284 Y-28.6835
G01 X38.6799 Y-28.7489
G01 X38.6380 Y-28.8187
G01 X38.6032 Y-28.8924
G01 X38.5757 Y-28.9691
G01 X38.5559 Y-29.0481
G01 X38.5440 Y-29.1286
G01 X38.5400 Y-29.2100
G01 X38.5440 Y-29.2914
G01 X38.5559 Y-29.3719
G01 X38.5757 Y-29.4509
G01 X38.6032 Y-29.5276
G01 X38.6380 Y-29.6013
G01 X38.6799 Y-29.6711
G01 X38.7284 Y-29.7365
G01 X38.7831 Y-29.7969
G01 X38.8435 Y-29.8516
G01 X38.9089 Y-29.9001
G01 X38.9787 Y-29.9420
G01 X39.0524 Y-29.9768
G01 X39.1291 Y-30.0043
G01 X39.2081 Y-30.0241
G01 X39.2886 Y-30.0360
G01 X39.3700 Y-30.0400
G01 X39.4514 Y-30.0360
G01 X39.5319 Y-30.0241
G01 X39.6109 Y-30.0043
G01 X39.6876 Y-29.9768
G01 X39.7613 Y-29.9420
G01 X39.8311 Y-29.9001
G01 X39.8965 Y-29.8516
G01 X39.9569 Y-29.7969
G01 X40.0116 Y-29.7365
G01 X40.0601 Y-29.6711
G01 X40.1020 Y-29.6013
G01 X40.1368 Y-29.5276
G01 X40.1643 Y-29.4509
G01 X40.1841 Y-29.3719
G01 X40.1960 Y-29.2914
G01 X40.1999 Y-29.2075
G00 Z2.0000
G00 X42.7399 Y-29.2075
G01 F60.00
G01 Z-0.0500
G01 F120.00
G01 X42.7360 Y-29.1286
G01 X42.7241 Y-29.0481
G01 X42.7043 Y-28.9691
G01 X42.6768 Y-28.8924
G01 X42.6420 Y-28.8187
G01 X42.6001 Y-28.7489
G01 X42.5516 Y-28.6835
G01 X42.4969 Y-28.6231
G01 X42.4365 Y-28.5684
G01 X42.3711 Y-28.5199
G01 X42.3013 Y-28.4780
G01 X42.2276 Y-28.4432
G01 X42.1509 Y-28.4157
G01 X42.0719 Y-28.3959
G01 X41.9914 Y-28.3840
G01 X41.9100 Y-28.3800
G01 X41.8286 Y-28.3840
G01 X41.7481 Y-28.3959
G01 X41.6691 Y-28.4157
G01 X41.5924 Y-28.4432
G01 X41.5187 Y-28.4780
G01 X41.4489 Y-28.5199
G01 X41.3835 Y-28.5684
G01 X41.3231 Y-28.6231
G01 X41.2684 Y-28.6835
G01 X41.2199 Y-28.7489
G01 X41.1780 Y-28.8187
G01 X41.1432 Y-28.8924
G01 X41.1157 Y-28.9691
G01 X41.0959 Y-29.0481
G01 X41.0840 Y-29.1286
G01 X41.0800 Y-29.2100
G01 X41.0840 Y-29.2914
G01 X41.0959 Y-29.3719
G01 X41.1157 Y-29.4509
G01 X41.1432 Y-29.5276
G01 X41.1780 Y-29.6013
G01 X41.2199 Y-29.6711
G01 X41.2684 Y-29.7365
G01 X41.3231 Y-29.7969
G01 X41.3835 Y-29.8516
G01 X41.4489 Y-29.9001
G01 X41.5187 Y-29.9420
G01 X41.5924 Y-29.9768
G01 X41.6691 Y-30.0043
G01 X41.7481 Y-30.0241
G01 X41.8286 Y-30.0360
G01 X41.9100 Y-30.0400
G01 X41.9914 Y-30.0360
G01 X42.0719 Y-30.0241
G01 X42.1509 Y-30.0043
G01 X42.2276 Y-29.9768
G01 X42.3013 Y-29.9420
G01 X42.3711 Y-29.9001
G01 X42.4365 Y-29.8516
G01 X42.4969 Y-29.7969
G01 X42.5516 Y-29.7365
G01 X42.6001 Y-29.6711
G01 X42.6420 Y-29.6013
G01 X42.6768 Y-29.5276
G01 X42.7043 Y-29.4509
G01 X42.7241 Y-29.3719
G01 X42.7360 Y-29.2914
G01 X42.7399 Y-29.2075
G00 Z2.0000
G00 X45.2799 Y-29.2075
G01 F60.00
G01 Z-0.0500
G01 F120.00
G01 X45.2760 Y-29.1286
G01 X45.2641 Y-29.0481
G01 X45.2443 Y-28.9691
G01 X45.2168 Y-28.8924
G01 X45.1820 Y-28.8187
G01 X45.1401 Y-28.7489
G01 X45.0916 Y-28.6835
G01 X45.0369 Y-28.6231
G01 X44.9765 Y-28.5684
G01 X44.9111 Y-28.5199
G01 X44.8413 Y-28.4780
G01 X44.7676 Y-28.4432
G01 X44.6909 Y-28.4157
G01 X44.6119 Y-28.3959
G01 X44.5314 Y-28.3840
G01 X44.4500 Y-28.3800
G01 X44.3686 Y-28.3840
G01 X44.2881 Y-28.3959
G01 X44.2091 Y-28.4157
G01 X44.1324 Y-28.4432
G01 X44.0587 Y-28.4780
G01 X43.9889 Y-28.5199
G01 X43.9235 Y-28.5684
G01 X43.8631 Y-28.6231
G01 X43.8084 Y-28.6835
G01 X43.7599 Y-28.7489
G01 X43.7180 Y-28.8187
G01 X43.6832 Y-28.8924
G01 X43.6557 Y-28.9691
G01 X43.6359 Y-29.0481
G01 X43.6240 Y-29.1286
G01 X43.6200 Y-29.2100
G01 X43.6240 Y-29.2914
G01 X43.6359 Y-29.3719
G01 X43.6557 Y-29.4509
G01 X43.6832 Y-29.5276
G01 X43.7180 Y-29.6013
G01 X43.7599 Y-29.6711
G01 X43.8084 Y-29.7365
G01 X43.8631 Y-29.7969
G01 X43.9235 Y-29.8516
G01 X43.9889 Y-29.9001
G01 X44.0587 Y-29.9420
G01 X44.1324 Y-29.9768
G01 X44.2091 Y-30.0043
G01 X44.2881 Y-30.0241
G01 X44.3686 Y-30.0360
G01 X44.4500 Y-30.0400
G01 X44.5314 Y-30.0360
G01 X44.6119 Y-30.0241
G01 X44.6909 Y-30.0043
G01 X44.7676 Y-29.9768
G01 X44.8413 Y-29.9420
G01 X44.9111 Y-29.9001
G01 X44.9765 Y-29.8516
G01 X45.0369 Y-29.7969
G01 X45.0916 Y-29.7365
G01 X45.1401 Y-29.6711
G01 X45.1820 Y-29.6013
G01 X45.2168 Y-29.5276
G01 X45.2443 Y-29.4509
G01 X45.2641 Y-29.3719
G01 X45.2760 Y-29.2914
G01 X45.2799 Y-29.2075
G00 Z2.0000
G00 X47.8199 Y-29.2075
G01 F60.00
G01 Z-0.0500
G01 F120.00
G01 X47.8160 Y-29.1286
G01 X47.8041 Y-29.0481
G01 X47.7843 Y-28.9691
G01 X47.7568 Y-28.8924
G01 X47.7220 Y-28.8187
G01 X47.6801 Y-28.7489
G01 X47.6316 Y-28.6835
G01 X47.5769 Y-28.6231
G01 X47.5165 Y-28.5684
G01 X47.4511 Y-28.5199
G01 X47.3813 Y-28.4780
G01 X47.3076 Y-28.4432
G01 X47.2309 Y-28.4157
G01 X47.1519 Y-28.3959
G01 X47.0714 Y-28.3840
G01 X46.9900 Y-28.3800
G01 X46.9086 Y-28.3840
G01 X46.8281 Y-28.3959
G01 X46.7491 Y-28.4157
G01 X46.6724 Y-28.4432
G01 X46.5987 Y-28.4780
G01 X46.5289 Y-28.5199
G01 X46.4635 Y-28.5684
G01 X46.4031 Y-28.6231
G01 X46.3484 Y-28.6835
G01 X46.2999 Y-28.7489
G01 X46.2580 Y-28.8187
G01 X46.2232 Y-28.8924
G01 X46.1957 Y-28.9691
G01 X46.1759 Y-29.0481
G01 X46.1640 Y-29.1286
G01 X46.1600 Y-29.2100
G01 X46.1640 Y-29.2914
G01 X46.1759 Y-29.3719
G01 X46.1957 Y-29.4509
G01 X46.2232 Y-29.5276
G01 X46.2580 Y-29.6013
G01 X46.2999 Y-29.6711
G01 X46.3484 Y-29.7365
G01 X46.4031 Y-29.7969
G01 X46.4635 Y-29.8516
G01 X46.5289 Y-29.9001
G01 X46.5987 Y-29.9420
G01 X46.6724 Y-29.9768
G01 X46.7491 Y-30.0043
G01 X46.8281 Y-30.0241
G01 X46.9086 Y-30.0360
G01 X46.9900 Y-30.0400
G01 X47.0714 Y-30.0360
G01 X47.1519 Y-30.0241
G01 X47.2309 Y-30.0043
G01 X47.3076 Y-29.9768
G01 X47.3813 Y-29.9420
G01 X47.4511 Y-29.9001
G01 X47.5165 Y-29.8516
G01 X47.5769 Y-29.7969
G01 X47.6316 Y-29.7365
G01 X47.6801 Y-29.6711
G01 X47.7220 Y-29.6013
G01 X47.7568 Y-29.5276
G01 X47.7843 Y-29.4509
G01 X47.8041 Y-29.3719
G01 X47.8160 Y-29.2914
G01 X47.8199 Y-29.2075
G00 Z2.0000
G00 X50.3599 Y-29.2075
G01 F60.00
G01 Z-0.0500
G01 F120.00
G01 X50.3560 Y-29.1286
G01 X50.3441 Y-29.0481
G01 X50.3243 Y-28.9691
G01 X50.2968 Y-28.8924
G01 X50.2620 Y-28.8187
G01 X50.2201 Y-28.7489
G01 X50.1716 Y-28.6835
G01 X50.1169 Y-28.6231
G01 X50.0565 Y-28.5684
G01 X49.9911 Y-28.5199
G01 X49.9213 Y-28.4780
G01 X49.8476 Y-28.4432
G01 X49.7709 Y-28.4157
G01 X49.6919 Y-28.3959
G01 X49.6114 Y-28.3840
G01 X49.5300 Y-28.3800
G01 X49.4486 Y-28.3840
G01 X49.3681 Y-28.3959
G01 X49.2891 Y-28.4157
G01 X49.2124 Y-28.4432
G01 X49.1387 Y-28.4780
G01 X49.0689 Y-28.5199
G01 X49.0035 Y-28.5684
G01 X48.9431 Y-28.6231
G01 X48.8884 Y-28.6835
G01 X48.8399 Y-28.7489
G01 X48.7980 Y-28.8187
G01 X48.7632 Y-28.8924
G01 X48.7357 Y-28.9691
G01 X48.7159 Y-29.0481
G01 X48.7040 Y-29.1286
G01 X48.7000 Y-29.2100
G01 X48.7040 Y-29.2914
G01 X48.7159 Y-29.3719
G01 X48.7357 Y-29.4509
G01 X48.7632 Y-29.5276
G01 X48.7980 Y-29.6013
G01 X48.8399 Y-29.6711
G01 X48.8884 Y-29.7365
G01 X48.9431 Y-29.7969
G01 X49.0035 Y-29.8516
G01 X49.0689 Y-29.9001
G01 X49.1387 Y-29.9420
G01 X49.2124 Y-29.9768
G01 X49.2891 Y-30.0043
G01 X49.3681 Y-30.0241
G01 X49.4486 Y-30.0360
G01 X49.5300 Y-30.0400
G01 X49.6114 Y-30.0360
G01 X49.6919 Y-30.0241
G01 X49.7709 Y-30.0043
G01 X49.8476 Y-29.9768
G01 X49.9213 Y-29.9420
G01 X49.9911 Y-29.9001
G01 X50.0565 Y-29.8516
G01 X50.1169 Y-29.7969
G01 X50.1716 Y-29.7365
G01 X50.2201 Y-29.6711
G01 X50.2620 Y-29.6013
G01 X50.2968 Y-29.5276
G01 X50.3243 Y-29.4509
G01 X50.3441 Y-29.3719
G01 X50.3560 Y-29.2914
G01 X50.3599 Y-29.2075
G00 Z2.0000
G00 X52.8999 Y-29.2075
G01 F60.00
G01 Z-0.0500
G01 F120.00
G01 X52.8960 Y-29.1286
G01 X52.8841 Y-29.0481
G01 X52.8643 Y-28.9691
G01 X52.8368 Y-28.8924
G01 X52.8020 Y-28.8187
G01 X52.7601 Y-28.7489
G01 X52.7116 Y-28.6835
G01 X52.6569 Y-28.6231
G01 X52.5965 Y-28.5684
G01 X52.5311 Y-28.5199
G01 X52.4613 Y-28.4780
G01 X52.3876 Y-28.4432
G01 X52.3109 Y-28.4157
G01 X52.2319 Y-28.3959
G01 X52.1514 Y-28.3840
G01 X52.0700 Y-28.3800
G01 X51.9886 Y-28.3840
G01 X51.9081 Y-28.3959
G01 X51.8291 Y-28.4157
G01 X51.7524 Y-28.4432
G01 X51.6787 Y-28.4780
G01 X51.6089 Y-28.5199
G01 X51.5435 Y-28.5684
G01 X51.4831 Y-28.6231
G01 X51.4284 Y-28.6835
G01 X51.3799 Y-28.7489
G01 X51.3380 Y-28.8187
G01 X51.3032 Y-28.8924
G01 X51.2757 Y-28.9691
G01 X51.2559 Y-29.0481
G01 X51.2440 Y-29.1286
G01 X51.2400 Y-29.2100
G01 X51.2440 Y-29.2914
G01 X51.2559 Y-29.3719
G01 X51.2757 Y-29.4509
G01 X51.3032 Y-29.5276
G01 X51.3380 Y-29.6013
G01 X51.3799 Y-29.6711
G01 X51.4284 Y-29.7365
G01 X51.4831 Y-29.7969
G01 X51.5435 Y-29.8516
G01 X51.6089 Y-29.9001
G01 X51.6787 Y-29.9420
G01 X51.7524 Y-29.9768
G01 X51.8291 Y-30.0043
G01 X51.9081 Y-30.0241
G01 X51.9886 Y-30.0360
G01 X52.0700 Y-30.0400
G01 X52.1514 Y-30.0360
G01 X52.2319 Y-30.0241
G01 X52.3109 Y-30.0043
G01 X52.3876 Y-29.9768
G01 X52.4613 Y-29.9420
G01 X52.5311 Y-29.9001
G01 X52.5965 Y-29.8516
G01 X52.6569 Y-29.7969
G01 X52.7116 Y-29.7365
G01 X52.7601 Y-29.6711
G01 X52.8020 Y-29.6013
G01 X52.8368 Y-29.5276
G01 X52.8643 Y-29.4509
G01 X52.8841 Y-29.3719
G01 X52.8960 Y-29.2914
G01 X52.8999 Y-29.2075
G00 Z2.0000
G00 X55.4399 Y-29.2075
G01 F60.00
G01 Z-0.0500
G01 F120.00
G01 X55.4360 Y-29.1286
G01 X55.4241 Y-29.0481
G01 X55.4043 Y-28.9691
G01 X55.3768 Y-28.8924
G01 X55.3420 Y-28.8187
G01 X55.3001 Y-28.7489
G01 X55.2516 Y-28.6835
G01 X55.1969 Y-28.6231
G01 X55.1365 Y-28.5684
G01 X55.0711 Y-28.5199
G01 X55.0013 Y-28.4780
G01 X54.9276 Y-28.4432
G01 X54.8509 Y-28.4157
G01 X54.7719 Y-28.3959
G01 X54.6914 Y-28.3840
G01 X54.6100 Y-28.3800
G01 X54.5286 Y-28.3840
G01 X54.4481 Y-28.3959
G01 X54.3691 Y-28.4157
G01 X54.2924 Y-28.4432
G01 X54.2187 Y-28.4780
G01 X54.1489 Y-28.5199
G01 X54.0835 Y-28.5684
G01 X54.0231 Y-28.6231
G01 X53.9684 Y-28.6835
G01 X53.9199 Y-28.7489
G01 X53.8780 Y-28.8187
G01 X53.8432 Y-28.8924
G01 X53.8157 Y-28.9691
G01 X53.7959 Y-29.0481
G01 X53.7840 Y-29.1286
G01 X53.7800 Y-29.2100
G01 X53.7840 Y-29.2914
G01 X53.7959 Y-29.3719
G01 X53.8157 Y-29.4509
G01 X53.8432 Y-29.5276
G01 X53.8780 Y-29.6013
G01 X53.9199 Y-29.6711
G01 X53.9684 Y-29.7365
G01 X54.0231 Y-29.7969
G01 X54.0835 Y-29.8516
G01 X54.1489 Y-29.9001
G01 X54.2187 Y-29.9420
G01 X54.2924 Y-29.9768
G01 X54.3691 Y-30.0043
G01 X54.4481 Y-30.0241
G01 X54.5286 Y-30.0360
G01 X54.6100 Y-30.0400
G01 X54.6914 Y-30.0360
G01 X54.7719 Y-30.0241
G01 X54.8509 Y-30.0043
G01 X54.9276 Y-29.9768
G01 X55.0013 Y-29.9420
G01 X55.0711 Y-29.9001
G01 X55.1365 Y-29.8516
G01 X55.1969 Y-29.7969
G01 X55.2516 Y-29.7365
G01 X55.3001 Y-29.6711
G01 X55.3420 Y-29.6013
G01 X55.3768 Y-29.5276
G01 X55.4043 Y-29.4509
G01 X55.4241 Y-29.3719
G01 X55.4360 Y-29.2914
G01 X55.4399 Y-29.2075
G00 Z2.0000
G00 X57.9799 Y-29.2075
G01 F60.00
G01 Z-0.0500
G01 F120.00
G01 X57.9760 Y-29.1286
G01 X57.9641 Y-29.0481
G01 X57.9443 Y-28.9691
G01 X57.9168 Y-28.8924
G01 X57.8820 Y-28.8187
G01 X57.8401 Y-28.7489
G01 X57.7916 Y-28.6835
G01 X57.7369 Y-28.6231
G01 X57.6765 Y-28.5684
G01 X57.6111 Y-28.5199
G01 X57.5413 Y-28.4780
G01 X57.4676 Y-28.4432
G01 X57.3909 Y-28.4157
G01 X57.3119 Y-28.3959
G01 X57.2314 Y-28.3840
G01 X57.1500 Y-28.3800
G01 X57.0686 Y-28.3840
G01 X56.9881 Y-28.3959
G01 X56.9091 Y-28.4157
G01 X56.8324 Y-28.4432
G01 X56.7587 Y-28.4780
G01 X56.6889 Y-28.5199
G01 X56.6235 Y-28.5684
G01 X56.5631 Y-28.6231
G01 X56.5084 Y-28.6835
G01 X56.4599 Y-28.7489
G01 X56.4180 Y-28.8187
G01 X56.3832 Y-28.8924
G01 X56.3557 Y-28.9691
G01 X56.3359 Y-29.0481
G01 X56.3240 Y-29.1286
G01 X56.3200 Y-29.2100
G01 X56.3240 Y-29.2914
G01 X56.3359 Y-29.3719
G01 X56.3557 Y-29.4509
G01 X56.3832 Y-29.5276
G01 X56.4180 Y-29.6013
G01 X56.4599 Y-29.6711
G01 X56.5084 Y-29.7365
G01 X56.5631 Y-29.7969
G01 X56.6235 Y-29.8516
G01 X56.6889 Y-29.9001
G01 X56.7587 Y-29.9420
G01 X56.8324 Y-29.9768
G01 X56.9091 Y-30.0043
G01 X56.9881 Y-30.0241
G01 X57.0686 Y-30.0360
G01 X57.1500 Y-30.0400
G01 X57.2314 Y-30.0360
G01 X57.3119 Y-30.0241
G01 X57.3909 Y-30.0043
G01 X57.4676 Y-29.9768
G01 X57.5413 Y-29.9420
G01 X57.6111 Y-29.9001
G01 X57.6765 Y-29.8516
G01 X57.7369 Y-29.7969
G01 X57.7916 Y-29.7365
G01 X57.8401 Y-29.6711
G01 X57.8820 Y-29.6013
G01 X57.9168 Y-29.5276
G01 X57.9443 Y-29.4509
G01 X57.9641 Y-29.3719
G01 X57.9760 Y-29.2914
G01 X57.9799 Y-29.2075
G00 Z2.0000
G00 X60.5199 Y-29.2075
G01 F60.00
G01 Z-0.0500
G01 F120.00
G01 X60.5160 Y-29.1286
G01 X60.5041 Y-29.0481
G01 X60.4843 Y-28.9691
G01 X60.4568 Y-28.8924
G01 X60.4220 Y-28.8187
G01 X60.3801 Y-28.7489
G01 X60.3316 Y-28.6835
G01 X60.2769 Y-28.6231
G01 X60.2165 Y-28.5684
G01 X60.1511 Y-28.5199
G01 X60.0813 Y-28.4780
G01 X60.0076 Y-28.4432
G01 X59.9309 Y-28.4157
G01 X59.8519 Y-28.3959
G01 X59.7714 Y-28.3840
G01 X59.6900 Y-28.3800
G01 X59.6086 Y-28.3840
G01 X59.5281 Y-28.3959
G01 X59.4491 Y-28.4157
G01 X59.3724 Y-28.4432
G01 X59.2987 Y-28.4780
G01 X59.2289 Y-28.5199
G01 X59.1635 Y-28.5684
G01 X59.1031 Y-28.6231
G01 X59.0484 Y-28.6835
G01 X58.9999 Y-28.7489
G01 X58.9580 Y-28.8187
G01 X58.9232 Y-28.8924
G01 X58.8957 Y-28.9691
G01 X58.8759 Y-29.0481
G01 X58.8640 Y-29.1286
G01 X58.8600 Y-29.2100
G01 X58.8640 Y-29.2914
G01 X58.8759 Y-29.3719
G01 X58.8957 Y-29.4509
G01 X58.9232 Y-29.5276
G01 X58.9580 Y-29.6013
G01 X58.9999 Y-29.6711
G01 X59.0484 Y-29.7365
G01 X59.1031 Y-29.7969
G01 X59.1635 Y-29.8516
G01 X59.2289 Y-29.9001
G01 X59.2987 Y-29.9420
G01 X59.3724 Y-29.9768
G01 X59.4491 Y-30.0043
G01 X59.5281 Y-30.0241
G01 X59.6086 Y-30.0360
G01 X59.6900 Y-30.0400
G01 X59.7714 Y-30.0360
G01 X59.8519 Y-30.0241
G01 X59.9309 Y-30.0043
G01 X60.0076 Y-29.9768
G01 X60.0813 Y-29.9420
G01 X60.1511 Y-29.9001
G01 X60.2165 Y-29.8516
G01 X60.2769 Y-29.7969
G01 X60.3316 Y-29.7365
G01 X60.3801 Y-29.6711
G01 X60.4220 Y-29.6013
G01 X60.4568 Y-29.5276
G01 X60.4843 Y-29.4509
G01 X60.5041 Y-29.3719
G01 X60.5160 Y-29.2914
G01 X60.5199 Y-29.2075
G00 Z2.0000
G00 X63.0599 Y-29.2075
G01 F60.00
G01 Z-0.0500
G01 F120.00
G01 X63.0560 Y-29.1286
G01 X63.0441 Y-29.0481
G01 X63.0243 Y-28.9691
G01 X62.9968 Y-28.8924
G01 X62.9620 Y-28.8187
G01 X62.9201 Y-28.7489
G01 X62.8716 Y-28.6835
G01 X62.8169 Y-28.6231
G01 X62.7565 Y-28.5684
G01 X62.6911 Y-28.5199
G01 X62.6213 Y-28.4780
G01 X62.5476 Y-28.4432
G01 X62.4709 Y-28.4157
G01 X62.3919 Y-28.3959
G01 X62.3114 Y-28.3840
G01 X62.2300 Y-28.3800
G01 X62.1486 Y-28.3840
G01 X62.0681 Y-28.3959
G01 X61.9891 Y-28.4157
G01 X61.9124 Y-28.4432
G01 X61.8387 Y-28.4780
G01 X61.7689 Y-28.5199
G01 X61.7035 Y-28.5684
G01 X61.6431 Y-28.6231
G01 X61.5884 Y-28.6835
G01 X61.5399 Y-28.7489
G01 X61.4980 Y-28.8187
G01 X61.4632 Y-28.8924
G01 X61.4357 Y-28.9691
G01 X61.4159 Y-29.0481
G01 X61.4040 Y-29.1286
G01 X61.4000 Y-29.2100
G01 X61.4040 Y-29.2914
G01 X61.4159 Y-29.3719
G01 X61.4357 Y-29.4509
G01 X61.4632 Y-29.5276
G01 X61.4980 Y-29.6013
G01 X61.5399 Y-29.6711
G01 X61.5884 Y-29.7365
G01 X61.6431 Y-29.7969
G01 X61.7035 Y-29.8516
G01 X61.7689 Y-29.9001
G01 X61.8387 Y-29.9420
G01 X61.9124 Y-29.9768
G01 X61.9891 Y-30.0043
G01 X62.0681 Y-30.0241
G01 X62.1486 Y-30.0360
G01 X62.2300 Y-30.0400
G01 X62.3114 Y-30.0360
G01 X62.3919 Y-30.0241
G01 X62.4709 Y-30.0043
G01 X62.5476 Y-29.9768
G01 X62.6213 Y-29.9420
G01 X62.6911 Y-29.9001
G01 X62.7565 Y-29.8516
G01 X62.8169 Y-29.7969
G01 X62.8716 Y-29.7365
G01 X62.9201 Y-29.6711
G01 X62.9620 Y-29.6013
G01 X62.9968 Y-29.5276
G01 X63.0243 Y-29.4509
G01 X63.0441 Y-29.3719
G01 X63.0560 Y-29.2914
G01 X63.0599 Y-29.2075
G00 Z2.0000
G00 X65.5999 Y-29.2075
G01 F60.00
G01 Z-0.0500
G01 F120.00
G01 X65.5960 Y-29.1286
G01 X65.5841 Y-29.0481
G01 X65.5643 Y-28.9691
G01 X65.5368 Y-28.8924
G01 X65.5020 Y-28.8187
G01 X65.4601 Y-28.7489
G01 X65.4116 Y-28.6835
G01 X65.3569 Y-28.6231
G01 X65.2965 Y-28.5684
G01 X65.2311 Y-28.5199
G01 X65.1613 Y-28.4780
G01 X65.0876 Y-28.4432
G01 X65.0109 Y-28.4157
G01 X64.9319 Y-28.3959
G01 X64.8514 Y-28.3840
G01 X64.7700 Y-28.3800
G01 X64.6886 Y-28.3840
G01 X64.6081 Y-28.3959
G01 X64.5291 Y-28.4157
G01 X64.4524 Y-28.4432
G01 X64.3787 Y-28.4780
G01 X64.3089 Y-28.5199
G01 X64.2435 Y-28.5684
G01 X64.1831 Y-28.6231
G01 X64.1284 Y-28.6835
G01 X64.0799 Y-28.7489
G01 X64.0380 Y-28.8187
G01 X64.0032 Y-28.8924
G01 X63.9757 Y-28.9691
G01 X63.9559 Y-29.0481
G01 X63.9440 Y-29.1286
G01 X63.9400 Y-29.2100
G01 X63.9440 Y-29.2914
G01 X63.9559 Y-29.3719
G01 X63.9757 Y-29.4509
G01 X64.0032 Y-29.5276
G01 X64.0380 Y-29.6013
G01 X64.0799 Y-29.6711
G01 X64.1284 Y-29.7365
G01 X64.1831 Y-29.7969
G01 X64.2435 Y-29.8516
G01 X64.3089 Y-29.9001
G01 X64.3787 Y-29.9420
G01 X64.4524 Y-29.9768
G01 X64.5291 Y-30.0043
G01 X64.6081 Y-30.0241
G01 X64.6886 Y-30.0360
G01 X64.7700 Y-30.0400
G01 X64.8514 Y-30.0360
G01 X64.9319 Y-30.0241
G01 X65.0109 Y-30.0043
G01 X65.0876 Y-29.9768
G01 X65.1613 Y-29.9420
G01 X65.2311 Y-29.9001
G01 X65.2965 Y-29.8516
G01 X65.3569 Y-29.7969
G01 X65.4116 Y-29.7365
G01 X65.4601 Y-29.6711
G01 X65.5020 Y-29.6013
G01 X65.5368 Y-29.5276
G01 X65.5643 Y-29.4509
G01 X65.5841 Y-29.3719
G01 X65.5960 Y-29.2914
G01 X65.5999 Y-29.2075
G00 Z2.0000
G00 X68.1399 Y-29.2075
G01 F60.00
G01 Z-0.0500
G01 F120.00
G01 X68.1360 Y-29.1286
G01 X68.1241 Y-29.0481
G01 X68.1043 Y-28.9691
G01 X68.0768 Y-28.8924
G01 X68.0420 Y-28.8187
G01 X68.0001 Y-28.7489
G01 X67.9516 Y-28.6835
G01 X67.8969 Y-28.6231
G01 X67.8365 Y-28.5684
G01 X67.7711 Y-28.5199
G01 X67.7013 Y-28.4780
G01 X67.6276 Y-28.4432
G01 X67.5509 Y-28.4157
G01 X67.4719 Y-28.3959
G01 X67.3914 Y-28.3840
G01 X67.3100 Y-28.3800
G01 X67.2286 Y-28.3840
G01 X67.1481 Y-28.3959
G01 X67.0691 Y-28.4157
G01 X66.9924 Y-28.4432
G01 X66.9187 Y-28.4780
G01 X66.8489 Y-28.5199
G01 X66.7835 Y-28.5684
G01 X66.7231 Y-28.6231
G01 X66.6684 Y-28.6835
G01 X66.6199 Y-28.7489
G01 X66.5780 Y-28.8187
G01 X66.5432 Y-28.8924
G01 X66.5157 Y-28.9691
G01 X66.4959 Y-29.0481
G01 X66.4840 Y-29.1286
G01 X66.4800 Y-29.2100
G01 X66.4840 Y-29.2914
G01 X66.4959 Y-29.3719
G01 X66.5157 Y-29.4509
G01 X66.5432 Y-29.5276
G01 X66.5780 Y-29.6013
G01 X66.6199 Y-29.6711
G01 X66.6684 Y-29.7365
G01 X66.7231 Y-29.7969
G01 X66.7835 Y-29.8516
G01 X66.8489 Y-29.9001
G01 X66.9187 Y-29.9420
G01 X66.9924 Y-29.9768
G01 X67.0691 Y-30.0043
G01 X67.1481 Y-30.0241
G01 X67.2286 Y-30.0360
G01 X67.3100 Y-30.0400
G01 X67.3914 Y-30.0360
G01 X67.4719 Y-30.0241
G01 X67.5509 Y-30.0043
G01 X67.6276 Y-29.9768
G01 X67.7013 Y-29.9420
G01 X67.7711 Y-29.9001
G01 X67.8365 Y-29.8516
G01 X67.8969 Y-29.7969
G01 X67.9516 Y-29.7365
G01 X68.0001 Y-29.6711
G01 X68.0420 Y-29.6013
G01 X68.0768 Y-29.5276
G01 X68.1043 Y-29.4509
G01 X68.1241 Y-29.3719
G01 X68.1360 Y-29.2914
G01 X68.1399 Y-29.2075
G00 Z2.0000
G00 X70.1845 Y-29.9689
G01 F60.00
G01 Z-0.0500
G01 F120.00
G01 X75.0178 Y-34.8022
G01 X75.0415 Y-34.8235
G01 X75.0633 Y-34.8395
G01 X75.0864 Y-34.8535
G01 X75.1151 Y-34.8673
G01 X75.1452 Y-34.8779
G01 X75.1714 Y-34.8844
G01 X75.1981 Y-34.8884
G01 X75.2300 Y-34.8901
G01 X87.4326 Y-34.8901
G01 X87.4490 Y-34.9355
G01 X87.4869 Y-35.0153
G01 X87.5317 Y-35.0900
G01 X87.5835 Y-35.1600
G01 X87.6454 Y-35.2281
G01 X87.7090 Y-35.2857
G01 X87.7790 Y-35.3376
G01 X87.8579 Y-35.3848
G01 X87.9356 Y-35.4215
G01 X88.0187 Y-35.4512
G01 X88.1068 Y-35.4731
G01 X88.1918 Y-35.4857
G01 X88.2800 Y-35.4900
G01 X88.3682 Y-35.4857
G01 X88.4532 Y-35.4731
G01 X88.5436 Y-35.4505
G01 X88.6244 Y-35.4215
G01 X88.7043 Y-35.3837
G01 X88.7800 Y-35.3383
G01 X88.8490 Y-35.2872
G01 X88.9181 Y-35.2246
G01 X88.9757 Y-35.1610
G01 X89.0283 Y-35.0900
G01 X89.0737 Y-35.0143
G01 X89.1105 Y-34.9367
G01 X89.1419 Y-34.8489
G01 X89.1631 Y-34.7632
G01 X89.1757 Y-34.6782
G01 X89.1799 Y-34.5925
G01 X89.1757 Y-34.5018
G01 X89.1631 Y-34.4168
G01 X89.1412 Y-34.3287
G01 X89.1115 Y-34.2456
G01 X89.0737 Y-34.1657
G01 X89.0269 Y-34.0880
G01 X88.9757 Y-34.0190
G01 X88.9181 Y-33.9554
G01 X88.8528 Y-33.8959
G01 X88.7800 Y-33.8417
G01 X88.7043 Y-33.7963
G01 X88.6244 Y-33.7585
G01 X88.5389 Y-33.7281
G01 X88.4556 Y-33.7073
G01 X88.3707 Y-33.6946
G01 X88.2825 Y-33.6901
G01 X88.1893 Y-33.6946
G01 X88.1044 Y-33.7073
G01 X88.0187 Y-33.7288
G01 X87.9356 Y-33.7585
G01 X87.8579 Y-33.7952
G01 X87.7790 Y-33.8424
G01 X87.7090 Y-33.8943
G01 X87.6454 Y-33.9519
G01 X87.5835 Y-34.0200
G01 X87.5317 Y-34.0900
G01 X87.4869 Y-34.1647
G01 X87.4490 Y-34.2445
G01 X87.4326 Y-34.2899
G01 X75.3543 Y-34.2899
G01 X70.6089 Y-29.5445
G01 X70.6173 Y-29.5265
G01 X70.6446 Y-29.4498
G01 X70.6641 Y-29.3719
G01 X70.6759 Y-29.2926
G01 X70.6799 Y-29.2075
G01 X70.6760 Y-29.1286
G01 X70.6641 Y-29.0481
G01 X70.6435 Y-28.9667
G01 X70.6168 Y-28.8924
G01 X70.5820 Y-28.8187
G01 X70.5387 Y-28.7469
G01 X70.4916 Y-28.6835
G01 X70.4369 Y-28.6231
G01 X70.3746 Y-28.5669
G01 X70.3111 Y-28.5199
G01 X70.2413 Y-28.4780
G01 X70.1653 Y-28.4423
G01 X70.0909 Y-28.4157
G01 X70.0119 Y-28.3959
G01 X69.9289 Y-28.3838
G01 X69.8500 Y-28.3800
G01 X69.7686 Y-28.3840
G01 X69.6881 Y-28.3959
G01 X69.6114 Y-28.4151
G01 X69.5324 Y-28.4432
G01 X69.4587 Y-28.4780
G01 X69.3889 Y-28.5199
G01 X69.3235 Y-28.5684
G01 X69.2631 Y-28.6231
G01 X69.2084 Y-28.6835
G01 X69.1599 Y-28.7489
G01 X69.1180 Y-28.8187
G01 X69.0832 Y-28.8924
G01 X69.0557 Y-28.9691
G01 X69.0359 Y-29.0481
G01 X69.0240 Y-29.1286
G01 X69.0200 Y-29.2100
G01 X69.0240 Y-29.2914
G01 X69.0359 Y-29.3719
G01 X69.0557 Y-29.4509
G01 X69.0832 Y-29.5276
G01 X69.1180 Y-29.6013
G01 X69.1599 Y-29.6711
G01 X69.2084 Y-29.7365
G01 X69.2631 Y-29.7969
G01 X69.3235 Y-29.8516
G01 X69.3889 Y-29.9001
G01 X69.4587 Y-29.9420
G01 X69.5324 Y-29.9768
G01 X69.6091 Y-30.0043
G01 X69.6881 Y-30.0241
G01 X69.7686 Y-30.0360
G01 X69.8500 Y-30.0400
G01 X69.9314 Y-30.0360
G01 X70.0131 Y-30.0238
G01 X70.0921 Y-30.0039
G01 X70.1665 Y-29.9773
G01 X70.1845 Y-29.9689
G00 Z2.0000
G00 X72.7245 Y-29.9689
G01 F60.00
G01 Z-0.0500
G01 F120.00
G01 X75.0187 Y-32.2631
G01 X75.0396 Y-32.2820
G01 X75.0613 Y-32.2981
G01 X75.0907 Y-32.3158
G01 X75.1151 Y-32.3273
G01 X75.1429 Y-32.3372
G01 X75.1714 Y-32.3444
G01 X75.1994 Y-32.3485
G01 X75.2300 Y-32.3501
G01 X87.4326 Y-32.3501
G01 X87.4490 Y-32.3955
G01 X87.4869 Y-32.4753
G01 X87.5317 Y-32.5500
G01 X87.5835 Y-32.6200
G01 X87.6454 Y-32.6881
G01 X87.7090 Y-32.7457
G01 X87.7790 Y-32.7976
G01 X87.8579 Y-32.8448
G01 X87.9356 Y-32.8815
G01 X88.0187 Y-32.9112
G01 X88.1044 Y-32.9327
G01 X88.1893 Y-32.9454
G01 X88.2812 Y-32.9500
G01 X88.3682 Y-32.9457
G01 X88.4556 Y-32.9327
G01 X88.5413 Y-32.9112
G01 X88.6221 Y-32.8824
G01 X88.7043 Y-32.8437
G01 X88.7779 Y-32.7996
G01 X88.8528 Y-32.7441
G01 X88.9164 Y-32.6864
G01 X88.9757 Y-32.6210
G01 X89.0283 Y-32.5500
G01 X89.0737 Y-32.4743
G01 X89.1115 Y-32.3944
G01 X89.1412 Y-32.3113
G01 X89.1627 Y-32.2256
G01 X89.1755 Y-32.1394
G01 X89.1800 Y-32.0500
G01 X89.1757 Y-31.9618
G01 X89.1627 Y-31.8744
G01 X89.1412 Y-31.7887
G01 X89.1115 Y-31.7056
G01 X89.0737 Y-31.6257
G01 X89.0283 Y-31.5500
G01 X88.9741 Y-31.4772
G01 X88.9164 Y-31.4136
G01 X88.8490 Y-31.3528
G01 X88.7800 Y-31.3017
G01 X88.7064 Y-31.2575
G01 X88.6267 Y-31.2195
G01 X88.5413 Y-31.1888
G01 X88.4556 Y-31.1673
G01 X88.3682 Y-31.1543
G01 X88.2812 Y-31.1500
G01 X88.1893 Y-31.1546
G01 X88.1044 Y-31.1673
G01 X88.0187 Y-31.1888
G01 X87.9356 Y-31.2185
G01 X87.8579 Y-31.2552
G01 X87.7790 Y-31.3024
G01 X87.7090 Y-31.3543
G01 X87.6454 Y-31.4119
G01 X87.5835 Y-31.4800
G01 X87.5317 Y-31.5500
G01 X87.4869 Y-31.6247
G01 X87.4490 Y-31.7045
G01 X87.4326 Y-31.7499
G01 X75.3543 Y-31.7499
G01 X73.1489 Y-29.5445
G01 X73.1573 Y-29.5265
G01 X73.1846 Y-29.4498
G01 X73.2041 Y-29.3719
G01 X73.2159 Y-29.2926
G01 X73.2199 Y-29.2075
G01 X73.2160 Y-29.1286
G01 X73.2041 Y-29.0481
G01 X73.1835 Y-28.9667
G01 X73.1568 Y-28.8924
G01 X73.1220 Y-28.8187
G01 X73.0787 Y-28.7469
G01 X73.0316 Y-28.6835
G01 X72.9769 Y-28.6231
G01 X72.9146 Y-28.5669
G01 X72.8511 Y-28.5199
G01 X72.7813 Y-28.4780
G01 X72.7053 Y-28.4423
G01 X72.6309 Y-28.4157
G01 X72.5519 Y-28.3959
G01 X72.4689 Y-28.3838
G01 X72.3900 Y-28.3800
G01 X72.3086 Y-28.3840
G01 X72.2281 Y-28.3959
G01 X72.1514 Y-28.4151
G01 X72.0724 Y-28.4432
G01 X71.9987 Y-28.4780
G01 X71.9289 Y-28.5199
G01 X71.8635 Y-28.5684
G01 X71.8031 Y-28.6231
G01 X71.7484 Y-28.6835
G01 X71.6999 Y-28.7489
G01 X71.6580 Y-28.8187
G01 X71.6232 Y-28.8924
G01 X71.5957 Y-28.9691
G01 X71.5759 Y-29.0481
G01 X71.5640 Y-29.1286
G01 X71.5600 Y-29.2100
G01 X71.5640 Y-29.2914
G01 X71.5759 Y-29.3719
G01 X71.5957 Y-29.4509
G01 X71.6232 Y-29.5276
G01 X71.6580 Y-29.6013
G01 X71.6999 Y-29.6711
G01 X71.7484 Y-29.7365
G01 X71.8031 Y-29.7969
G01 X71.8635 Y-29.8516
G01 X71.9289 Y-29.9001
G01 X71.9987 Y-29.9420
G01 X72.0724 Y-29.9768
G01 X72.1491 Y-30.0043
G01 X72.2281 Y-30.0241
G01 X72.3086 Y-30.0360
G01 X72.3900 Y-30.0400
G01 X72.4714 Y-30.0360
G01 X72.5531 Y-30.0238
G01 X72.6321 Y-30.0039
G01 X72.7065 Y-29.9773
G01 X72.7245 Y-29.9689
G00 Z2.0000
G00 X75.7599 Y-29.2075
G01 F60.00
G01 Z-0.0500
G01 F120.00
G01 X75.7560 Y-29.1286
G01 X75.7441 Y-29.0481
G01 X75.7243 Y-28.9691
G01 X75.6968 Y-28.8924
G01 X75.6620 Y-28.8187
G01 X75.6201 Y-28.7489
G01 X75.5716 Y-28.6835
G01 X75.5169 Y-28.6231
G01 X75.4565 Y-28.5684
G01 X75.3911 Y-28.5199
G01 X75.3213 Y-28.4780
G01 X75.2476 Y-28.4432
G01 X75.1709 Y-28.4157
G01 X75.0919 Y-28.3959
G01 X75.0114 Y-28.3840
G01 X74.9300 Y-28.3800
G01 X74.8486 Y-28.3840
G01 X74.7681 Y-28.3959
G01 X74.6891 Y-28.4157
G01 X74.6124 Y-28.4432
G01 X74.5387 Y-28.4780
G01 X74.4689 Y-28.5199
G01 X74.4035 Y-28.5684
G01 X74.3431 Y-28.6231
G01 X74.2884 Y-28.6835
G01 X74.2399 Y-28.7489
G01 X74.1980 Y-28.8187
G01 X74.1632 Y-28.8924
G01 X74.1357 Y-28.9691
G01 X74.1159 Y-29.0481
G01 X74.1040 Y-29.1286
G01 X74.1000 Y-29.2100
G01 X74.1040 Y-29.2914
G01 X74.1159 Y-29.3719
G01 X74.1357 Y-29.4509
G01 X74.1632 Y-29.5276
G01 X74.1980 Y-29.6013
G01 X74.2399 Y-29.6711
G01 X74.2884 Y-29.7365
G01 X74.3431 Y-29.7969
G01 X74.4035 Y-29.8516
G01 X74.4689 Y-29.9001
G01 X74.5387 Y-29.9420
G01 X74.6124 Y-29.9768
G01 X74.6891 Y-30.0043
G01 X74.7681 Y-30.0241
G01 X74.8486 Y-30.0360
G01 X74.9300 Y-30.0400
G01 X75.0114 Y-30.0360
G01 X75.0919 Y-30.0241
G01 X75.1709 Y-30.0043
G01 X75.2476 Y-29.9768
G01 X75.3213 Y-29.9420
G01 X75.3911 Y-29.9001
G01 X75.4565 Y-29.8516
G01 X75.5169 Y-29.7969
G01 X75.5716 Y-29.7365
G01 X75.6201 Y-29.6711
G01 X75.6620 Y-29.6013
G01 X75.6968 Y-29.5276
G01 X75.7243 Y-29.4509
G01 X75.7441 Y-29.3719
G01 X75.7560 Y-29.2914
G01 X75.7599 Y-29.2075
G00 Z2.0000
G00 X78.2999 Y-29.2075
G01 F60.00
G01 Z-0.0500
G01 F120.00
G01 X78.2960 Y-29.1286
G01 X78.2841 Y-29.0481
G01 X78.2643 Y-28.9691
G01 X78.2368 Y-28.8924
G01 X78.2020 Y-28.8187
G01 X78.1601 Y-28.7489
G01 X78.1116 Y-28.6835
G01 X78.0569 Y-28.6231
G01 X77.9965 Y-28.5684
G01 X77.9311 Y-28.5199
G01 X77.8613 Y-28.4780
G01 X77.7876 Y-28.4432
G01 X77.7109 Y-28.4157
G01 X77.6319 Y-28.3959
G01 X77.5514 Y-28.3840
G01 X77.4700 Y-28.3800
G01 X77.3886 Y-28.3840
G01 X77.3081 Y-28.3959
G01 X77.2291 Y-28.4157
G01 X77.1524 Y-28.4432
G01 X77.0787 Y-28.4780
G01 X77.0089 Y-28.5199
G01 X76.9435 Y-28.5684
G01 X76.8831 Y-28.6231
G01 X76.8284 Y-28.6835
G01 X76.7799 Y-28.7489
G01 X76.7380 Y-28.8187
G01 X76.7032 Y-28.8924
G01 X76.6757 Y-28.9691
G01 X76.6559 Y-29.0481
G01 X76.6440 Y-29.1286
G01 X76.6400 Y-29.2100
G01 X76.6440 Y-29.2914
G01 X76.6559 Y-29.3719
G01 X76.6757 Y-29.4509
G01 X76.7032 Y-29.5276
G01 X76.7380 Y-29.6013
G01 X76.7799 Y-29.6711
G01 X76.8284 Y-29.7365
G01 X76.8831 Y-29.7969
G01 X76.9435 Y-29.8516
G01 X77.0089 Y-29.9001
G01 X77.0787 Y-29.9420
G01 X77.1524 Y-29.9768
G01 X77.2291 Y-30.0043
G01 X77.3081 Y-30.0241
G01 X77.3886 Y-30.0360
G01 X77.4700 Y-30.0400
G01 X77.5514 Y-30.0360
G01 X77.6319 Y-30.0241
G01 X77.7109 Y-30.0043
G01 X77.7876 Y-29.9768
G01 X77.8613 Y-29.9420
G01 X77.9311 Y-29.9001
G01 X77.9965 Y-29.8516
G01 X78.0569 Y-29.7969
G01 X78.1116 Y-29.7365
G01 X78.1601 Y-29.6711
G01 X78.2020 Y-29.6013
G01 X78.2368 Y-29.5276
G01 X78.2643 Y-29.4509
G01 X78.2841 Y-29.3719
G01 X78.2960 Y-29.2914
G01 X78.2999 Y-29.2075
G00 Z2.0000
G00 X80.8399 Y-29.2075
G01 F60.00
G01 Z-0.0500
G01 F120.00
G01 X80.8360 Y-29.1286
G01 X80.8241 Y-29.0481
G01 X80.8043 Y-28.9691
G01 X80.7768 Y-28.8924
G01 X80.7420 Y-28.8187
G01 X80.7001 Y-28.7489
G01 X80.6516 Y-28.6835
G01 X80.5969 Y-28.6231
G01 X80.5365 Y-28.5684
G01 X80.4711 Y-28.5199
G01 X80.4013 Y-28.4780
G01 X80.3276 Y-28.4432
G01 X80.2509 Y-28.4157
G01 X80.1719 Y-28.3959
G01 X80.0914 Y-28.3840
G01 X80.0100 Y-28.3800
G01 X79.9286 Y-28.3840
G01 X79.8481 Y-28.3959
G01 X79.7691 Y-28.4157
G01 X79.6924 Y-28.4432
G01 X79.6187 Y-28.4780
G01 X79.5489 Y-28.5199
G01 X79.4835 Y-28.5684
G01 X79.4231 Y-28.6231
G01 X79.3684 Y-28.6835
G01 X79.3199 Y-28.7489
G01 X79.2780 Y-28.8187
G01 X79.2432 Y-28.8924
G01 X79.2157 Y-28.9691
G01 X79.1959 Y-29.0481
G01 X79.1840 Y-29.1286
G01 X79.1800 Y-29.2100
G01 X79.1840 Y-29.2914
G01 X79.1959 Y-29.3719
G01 X79.2157 Y-29.4509
G01 X79.2432 Y-29.5276
G01 X79.2780 Y-29.6013
G01 X79.3199 Y-29.6711
G01 X79.3684 Y-29.7365
G01 X79.4231 Y-29.7969
G01 X79.4835 Y-29.8516
G01 X79.5489 Y-29.9001
G01 X79.6187 Y-29.9420
G01 X79.6924 Y-29.9768
G01 X79.7691 Y-30.0043
G01 X79.8481 Y-30.0241
G01 X79.9286 Y-30.0360
G01 X80.0100 Y-30.0400
G01 X80.0914 Y-30.0360
G01 X80.1719 Y-30.0241
G01 X80.2509 Y-30.0043
G01 X80.3276 Y-29.9768
G01 X80.4013 Y-29.9420
G01 X80.4711 Y-29.9001
G01 X80.5365 Y-29.8516
G01 X80.5969 Y-29.7969
G01 X80.6516 Y-29.7365
G01 X80.7001 Y-29.6711
G01 X80.7420 Y-29.6013
G01 X80.7768 Y-29.5276
G01 X80.8043 Y-29.4509
G01 X80.8241 Y-29.3719
G01 X80.8360 Y-29.2914
G01 X80.8399 Y-29.2075
G00 Z2.0000
G00 X100.5299 Y-31.0075
G01 F60.00
G01 Z-0.0500
G01 F120.00
G01 X100.5144 Y-30.6914
G01 X100.4676 Y-30.3760
G01 X100.3901 Y-30.0666
G01 X100.2826 Y-29.7663
G01 X100.1462 Y-29.4780
G01 X99.9823 Y-29.2044
G01 X99.7923 Y-28.9482
G01 X99.5781 Y-28.7119
G01 X99.3418 Y-28.4977
G01 X99.0856 Y-28.3077
G01 X98.8120 Y-28.1438
G01 X98.5237 Y-28.0074
G01 X98.2234 Y-27.8999
G01 X97.9140 Y-27.8224
G01 X97.5986 Y-27.7756
G01 X97.2800 Y-27.7600
G01 X96.9614 Y-27.7756
G01 X96.6460 Y-27.8224
G01 X96.3366 Y-27.8999
G01 X96.0363 Y-28.0074
G01 X95.7480 Y-28.1438
G01 X95.4744 Y-28.3077
G01 X95.2182 Y-28.4977
G01 X94.9819 Y-28.7119
G01 X94.7677 Y-28.9482
G01 X94.5777 Y-29.2044
G01 X94.4138 Y-29.4780
G01 X94.2774 Y-29.7663
G01 X94.1699 Y-30.0666
G01 X94.0924 Y-30.3760
G01 X94.0456 Y-30.6914
G01 X94.0300 Y-31.0100
G01 X94.0456 Y-31.3286
G01 X94.0924 Y-31.6440
G01 X94.1699 Y-31.9534
G01 X94.2774 Y-32.2537
G01 X94.4138 Y-32.5420
G01 X94.5777 Y-32.8156
G01 X94.7677 Y-33.0718
G01 X94.9819 Y-33.3081
G01 X95.2182 Y-33.5223
G01 X95.4744 Y-33.7123
G01 X95.7480 Y-33.8762
G01 X96.0363 Y-34.0126
G01 X96.3366 Y-34.1201
G01 X96.6460 Y-34.1976
G01 X96.9614 Y-34.2444
G01 X97.2800 Y-34.2600
G01 X97.5986 Y-34.2444
G01 X97.9140 Y-34.1976
G01 X98.2234 Y-34.1201
G01 X98.5237 Y-34.0126
G01 X98.8120 Y-33.8762
G01 X99.0856 Y-33.7123
G01 X99.3418 Y-33.5223
G01 X99.5781 Y-33.3081
G01 X99.7923 Y-33.0718
G01 X99.9823 Y-32.8156
G01 X100.1462 Y-32.5420
G01 X100.2826 Y-32.2537
G01 X100.3901 Y-31.9534
G01 X100.4676 Y-31.6440
G01 X100.5144 Y-31.3286
G01 X100.5299 Y-31.0075
G00 Z2.0000
G00 X78.2999 Y-54.6075
G01 F60.00
G01 Z-0.0500
G01 F120.00
G01 X78.2960 Y-54.5286
G01 X78.2841 Y-54.4481
G01 X78.2643 Y-54.3691
G01 X78.2368 Y-54.2924
G01 X78.2020 Y-54.2187
G01 X78.1601 Y-54.1489
G01 X78.1116 Y-54.0835
G01 X78.0569 Y-54.0231
G01 X77.9965 Y-53.9684
G01 X77.9311 Y-53.9199
G01 X77.8613 Y-53.8780
G01 X77.7876 Y-53.8432
G01 X77.7109 Y-53.8157
G01 X77.6319 Y-53.7959
G01 X77.5514 Y-53.7840
G01 X77.4700 Y-53.7800
G01 X77.3886 Y-53.7840
G01 X77.3081 Y-53.7959
G01 X77.2291 Y-53.8157
G01 X77.1524 Y-53.8432
G01 X77.0787 Y-53.8780
G01 X77.0089 Y-53.9199
G01 X76.9435 Y-53.9684
G01 X76.8831 Y-54.0231
G01 X76.8284 Y-54.0835
G01 X76.7799 Y-54.1489
G01 X76.7380 Y-54.2187
G01 X76.7032 Y-54.2924
G01 X76.6757 Y-54.3691
G01 X76.6559 Y-54.4481
G01 X76.6440 Y-54.5286
G01 X76.6400 Y-54.6100
G01 X76.6440 Y-54.6914
G01 X76.6559 Y-54.7719
G01 X76.6757 Y-54.8509
G01 X76.7032 Y-54.9276
G01 X76.7380 Y-55.0013
G01 X76.7799 Y-55.0711
G01 X76.8284 Y-55.1365
G01 X76.8831 Y-55.1969
G01 X76.9435 Y-55.2516
G01 X77.0089 Y-55.3001
G01 X77.0787 Y-55.3420
G01 X77.1524 Y-55.3768
G01 X77.2291 Y-55.4043
G01 X77.3081 Y-55.4241
G01 X77.3886 Y-55.4360
G01 X77.4700 Y-55.4400
G01 X77.5514 Y-55.4360
G01 X77.6319 Y-55.4241
G01 X77.7109 Y-55.4043
G01 X77.7876 Y-55.3768
G01 X77.8613 Y-55.3420
G01 X77.9311 Y-55.3001
G01 X77.9965 Y-55.2516
G01 X78.0569 Y-55.1969
G01 X78.1116 Y-55.1365
G01 X78.1601 Y-55.0711
G01 X78.2020 Y-55.0013
G01 X78.2368 Y-54.9276
G01 X78.2643 Y-54.8509
G01 X78.2841 Y-54.7719
G01 X78.2960 Y-54.6914
G01 X78.2999 Y-54.6075
G00 Z2.0000
G00 X75.7599 Y-54.6075
G01 F60.00
G01 Z-0.0500
G01 F120.00
G01 X75.7560 Y-54.5286
G01 X75.7441 Y-54.4481
G01 X75.7243 Y-54.3691
G01 X75.6968 Y-54.2924
G01 X75.6620 Y-54.2187
G01 X75.6201 Y-54.1489
G01 X75.5716 Y-54.0835
G01 X75.5169 Y-54.0231
G01 X75.4565 Y-53.9684
G01 X75.3911 Y-53.9199
G01 X75.3213 Y-53.8780
G01 X75.2476 Y-53.8432
G01 X75.1709 Y-53.8157
G01 X75.0919 Y-53.7959
G01 X75.0114 Y-53.7840
G01 X74.9300 Y-53.7800
G01 X74.8486 Y-53.7840
G01 X74.7681 Y-53.7959
G01 X74.6891 Y-53.8157
G01 X74.6124 Y-53.8432
G01 X74.5387 Y-53.8780
G01 X74.4689 Y-53.9199
G01 X74.4035 Y-53.9684
G01 X74.3431 Y-54.0231
G01 X74.2884 Y-54.0835
G01 X74.2399 Y-54.1489
G01 X74.1980 Y-54.2187
G01 X74.1632 Y-54.2924
G01 X74.1357 Y-54.3691
G01 X74.1159 Y-54.4481
G01 X74.1040 Y-54.5286
G01 X74.1000 Y-54.6100
G01 X74.1040 Y-54.6914
G01 X74.1159 Y-54.7719
G01 X74.1357 Y-54.8509
G01 X74.1632 Y-54.9276
G01 X74.1980 Y-55.0013
G01 X74.2399 Y-55.0711
G01 X74.2884 Y-55.1365
G01 X74.3431 Y-55.1969
G01 X74.4035 Y-55.2516
G01 X74.4689 Y-55.3001
G01 X74.5387 Y-55.3420
G01 X74.6124 Y-55.3768
G01 X74.6891 Y-55.4043
G01 X74.7681 Y-55.4241
G01 X74.8486 Y-55.4360
G01 X74.9300 Y-55.4400
G01 X75.0114 Y-55.4360
G01 X75.0919 Y-55.4241
G01 X75.1709 Y-55.4043
G01 X75.2476 Y-55.3768
G01 X75.3213 Y-55.3420
G01 X75.3911 Y-55.3001
G01 X75.4565 Y-55.2516
G01 X75.5169 Y-55.1969
G01 X75.5716 Y-55.1365
G01 X75.6201 Y-55.0711
G01 X75.6620 Y-55.0013
G01 X75.6968 Y-54.9276
G01 X75.7243 Y-54.8509
G01 X75.7441 Y-54.7719
G01 X75.7560 Y-54.6914
G01 X75.7599 Y-54.6075
G00 Z2.0000
G00 X73.2199 Y-54.6075
G01 F60.00
G01 Z-0.0500
G01 F120.00
G01 X73.2160 Y-54.5286
G01 X73.2041 Y-54.4481
G01 X73.1843 Y-54.3691
G01 X73.1568 Y-54.2924
G01 X73.1220 Y-54.2187
G01 X73.0801 Y-54.1489
G01 X73.0316 Y-54.0835
G01 X72.9769 Y-54.0231
G01 X72.9165 Y-53.9684
G01 X72.8511 Y-53.9199
G01 X72.7813 Y-53.8780
G01 X72.7076 Y-53.8432
G01 X72.6309 Y-53.8157
G01 X72.5519 Y-53.7959
G01 X72.4714 Y-53.7840
G01 X72.3900 Y-53.7800
G01 X72.3086 Y-53.7840
G01 X72.2281 Y-53.7959
G01 X72.1491 Y-53.8157
G01 X72.0724 Y-53.8432
G01 X71.9987 Y-53.8780
G01 X71.9289 Y-53.9199
G01 X71.8635 Y-53.9684
G01 X71.8031 Y-54.0231
G01 X71.7484 Y-54.0835
G01 X71.6999 Y-54.1489
G01 X71.6580 Y-54.2187
G01 X71.6232 Y-54.2924
G01 X71.5957 Y-54.3691
G01 X71.5759 Y-54.4481
G01 X71.5640 Y-54.5286
G01 X71.5600 Y-54.6100
G01 X71.5640 Y-54.6914
G01 X71.5759 Y-54.7719
G01 X71.5957 Y-54.8509
G01 X71.6232 Y-54.9276
G01 X71.6580 Y-55.0013
G01 X71.6999 Y-55.0711
G01 X71.7484 Y-55.1365
G01 X71.8031 Y-55.1969
G01 X71.8635 Y-55.2516
G01 X71.9289 Y-55.3001
G01 X71.9987 Y-55.3420
G01 X72.0724 Y-55.3768
G01 X72.1491 Y-55.4043
G01 X72.2281 Y-55.4241
G01 X72.3086 Y-55.4360
G01 X72.3900 Y-55.4400
G01 X72.4714 Y-55.4360
G01 X72.5519 Y-55.4241
G01 X72.6309 Y-55.4043
G01 X72.7076 Y-55.3768
G01 X72.7813 Y-55.3420
G01 X72.8511 Y-55.3001
G01 X72.9165 Y-55.2516
G01 X72.9769 Y-55.1969
G01 X73.0316 Y-55.1365
G01 X73.0801 Y-55.0711
G01 X73.1220 Y-55.0013
G01 X73.1568 Y-54.9276
G01 X73.1843 Y-54.8509
G01 X73.2041 Y-54.7719
G01 X73.2160 Y-54.6914
G01 X73.2199 Y-54.6075
G00 Z2.0000
G00 X66.5480 Y-60.5020
G01 F60.00
G01 Z-0.0500
G01 F120.00
G01 X68.0732 Y-60.5020
G01 X68.0793 Y-60.5015
G01 X68.0865 Y-60.4998
G01 X68.0923 Y-60.4977
G01 X68.0977 Y-60.4949
G01 X68.1028 Y-60.4914
G01 X68.1074 Y-60.4874
G01 X68.1122 Y-60.4818
G01 X68.1155 Y-60.4766
G01 X68.1182 Y-60.4711
G01 X68.1202 Y-60.4653
G01 X68.1216 Y-60.4581
G01 X68.1220 Y-60.4520
G01 X68.1220 Y-58.9280
G01 X68.1215 Y-58.9207
G01 X68.1198 Y-58.9135
G01 X68.1172 Y-58.9066
G01 X68.1129 Y-58.8992
G01 X68.1082 Y-58.8935
G01 X68.1028 Y-58.8886
G01 X68.0966 Y-58.8845
G01 X68.0900 Y-58.8814
G01 X68.0830 Y-58.8792
G01 X68.0757 Y-58.8781
G01 X67.6101 Y-58.8780
G01 X67.6101 Y-57.2743
G01 X69.5155 Y-55.3689
G01 X69.5335 Y-55.3773
G01 X69.6102 Y-55.4046
G01 X69.6881 Y-55.4241
G01 X69.7686 Y-55.4360
G01 X69.8500 Y-55.4400
G01 X69.9289 Y-55.4362
G01 X70.0143 Y-55.4235
G01 X70.0909 Y-55.4043
G01 X70.1676 Y-55.3768
G01 X70.2413 Y-55.3420
G01 X70.3090 Y-55.3014
G01 X70.3784 Y-55.2500
G01 X70.4369 Y-55.1969
G01 X70.4924 Y-55.1356
G01 X70.5401 Y-55.0711
G01 X70.5831 Y-54.9991
G01 X70.6168 Y-54.9276
G01 X70.6435 Y-54.8533
G01 X70.6635 Y-54.7743
G01 X70.6760 Y-54.6914
G01 X70.6800 Y-54.6100
G01 X70.6760 Y-54.5286
G01 X70.6641 Y-54.4481
G01 X70.6443 Y-54.3691
G01 X70.6168 Y-54.2924
G01 X70.5820 Y-54.2187
G01 X70.5387 Y-54.1469
G01 X70.4916 Y-54.0835
G01 X70.4386 Y-54.0249
G01 X70.3784 Y-53.9700
G01 X70.3111 Y-53.9199
G01 X70.2423 Y-53.8786
G01 X70.1653 Y-53.8423
G01 X70.0909 Y-53.8157
G01 X70.0119 Y-53.7959
G01 X69.9314 Y-53.7840
G01 X69.8525 Y-53.7801
G01 X69.7662 Y-53.7843
G01 X69.6881 Y-53.7959
G01 X69.6091 Y-53.8157
G01 X69.5324 Y-53.8432
G01 X69.4609 Y-53.8769
G01 X69.3869 Y-53.9213
G01 X69.3235 Y-53.9684
G01 X69.2631 Y-54.0231
G01 X69.2084 Y-54.0835
G01 X69.1613 Y-54.1469
G01 X69.1180 Y-54.2187
G01 X69.0832 Y-54.2924
G01 X69.0565 Y-54.3667
G01 X69.0359 Y-54.4481
G01 X69.0240 Y-54.5286
G01 X69.0201 Y-54.6075
G01 X69.0241 Y-54.6926
G01 X69.0359 Y-54.7719
G01 X69.0554 Y-54.8498
G01 X69.0827 Y-54.9265
G01 X69.0911 Y-54.9445
G01 X67.0978 Y-56.9378
G01 X67.0765 Y-56.9615
G01 X67.0605 Y-56.9833
G01 X67.0459 Y-57.0074
G01 X67.0327 Y-57.0351
G01 X67.0221 Y-57.0652
G01 X67.0156 Y-57.0914
G01 X67.0116 Y-57.1181
G01 X67.0099 Y-57.1488
G01 X67.0099 Y-58.8780
G01 X66.5443 Y-58.8781
G01 X66.5359 Y-58.8795
G01 X66.5277 Y-58.8823
G01 X66.5202 Y-58.8864
G01 X66.5135 Y-58.8918
G01 X66.5078 Y-58.8982
G01 X66.5033 Y-58.9055
G01 X66.5002 Y-58.9135
G01 X66.4985 Y-58.9207
G01 X66.4980 Y-58.9280
G01 X66.4980 Y-60.4532
G01 X66.4992 Y-60.4630
G01 X66.5023 Y-60.4723
G01 X66.5071 Y-60.4808
G01 X66.5135 Y-60.4882
G01 X66.5213 Y-60.4942
G01 X66.5300 Y-60.4986
G01 X66.5395 Y-60.5013
G01 X66.5480 Y-60.5020
G00 Z2.0000
G00 X64.4699 Y-58.9359
G01 F60.00
G01 Z-0.0500
G01 F120.00
G01 X64.4570 Y-58.9408
G01 X64.3872 Y-58.9739
G01 X64.3189 Y-59.0148
G01 X64.2549 Y-59.0623
G01 X64.1958 Y-59.1158
G01 X64.1423 Y-59.1749
G01 X64.0948 Y-59.2389
G01 X64.0539 Y-59.3072
G01 X64.0198 Y-59.3793
G01 X63.9930 Y-59.4543
G01 X63.9736 Y-59.5316
G01 X63.9619 Y-59.6104
G01 X63.9580 Y-59.6900
G01 X63.9619 Y-59.7696
G01 X63.9736 Y-59.8484
G01 X63.9930 Y-59.9257
G01 X64.0198 Y-60.0007
G01 X64.0539 Y-60.0728
G01 X64.0948 Y-60.1411
G01 X64.1423 Y-60.2051
G01 X64.1958 Y-60.2642
G01 X64.2549 Y-60.3177
G01 X64.3189 Y-60.3652
G01 X64.3872 Y-60.4061
G01 X64.4593 Y-60.4402
G01 X64.5343 Y-60.4670
G01 X64.6116 Y-60.4864
G01 X64.6904 Y-60.4981
G01 X64.7700 Y-60.5020
G01 X64.8496 Y-60.4981
G01 X64.9284 Y-60.4864
G01 X65.0057 Y-60.4670
G01 X65.0807 Y-60.4402
G01 X65.1549 Y-60.4049
G01 X65.2211 Y-60.3652
G01 X65.2851 Y-60.3177
G01 X65.3442 Y-60.2642
G01 X65.3961 Y-60.2070
G01 X65.4452 Y-60.1411
G01 X65.4872 Y-60.0706
G01 X65.5202 Y-60.0007
G01 X65.5470 Y-59.9257
G01 X65.5668 Y-59.8460
G01 X65.5781 Y-59.7696
G01 X65.5820 Y-59.6900
G01 X65.5778 Y-59.6080
G01 X65.5664 Y-59.5316
G01 X65.5470 Y-59.4543
G01 X65.5202 Y-59.3793
G01 X65.4872 Y-59.3094
G01 X65.4452 Y-59.2389
G01 X65.3977 Y-59.1749
G01 X65.3459 Y-59.1176
G01 X65.2851 Y-59.0623
G01 X65.2211 Y-59.0148
G01 X65.1549 Y-58.9751
G01 X65.0830 Y-58.9408
G01 X65.0701 Y-58.9359
G01 X65.0701 Y-55.3831
G01 X65.0888 Y-55.3763
G01 X65.1623 Y-55.3414
G01 X65.2311 Y-55.3001
G01 X65.2956 Y-55.2524
G01 X65.3586 Y-55.1951
G01 X65.4116 Y-55.1365
G01 X65.4601 Y-55.0711
G01 X65.5031 Y-54.9991
G01 X65.5368 Y-54.9276
G01 X65.5643 Y-54.8509
G01 X65.5841 Y-54.7719
G01 X65.5957 Y-54.6938
G01 X65.6000 Y-54.6088
G01 X65.5960 Y-54.5286
G01 X65.5841 Y-54.4481
G01 X65.5643 Y-54.3691
G01 X65.5368 Y-54.2924
G01 X65.5020 Y-54.2187
G01 X65.4601 Y-54.1489
G01 X65.4116 Y-54.0835
G01 X65.3586 Y-54.0249
G01 X65.2946 Y-53.9669
G01 X65.2311 Y-53.9199
G01 X65.1591 Y-53.8769
G01 X65.0876 Y-53.8432
G01 X65.0109 Y-53.8157
G01 X64.9319 Y-53.7959
G01 X64.8501 Y-53.7839
G01 X64.7700 Y-53.7800
G01 X64.6886 Y-53.7840
G01 X64.6081 Y-53.7959
G01 X64.5291 Y-53.8157
G01 X64.4524 Y-53.8432
G01 X64.3787 Y-53.8780
G01 X64.3089 Y-53.9199
G01 X64.2435 Y-53.9684
G01 X64.1831 Y-54.0231
G01 X64.1284 Y-54.0835
G01 X64.0799 Y-54.1489
G01 X64.0380 Y-54.2187
G01 X64.0032 Y-54.2924
G01 X63.9757 Y-54.3691
G01 X63.9559 Y-54.4481
G01 X63.9439 Y-54.5299
G01 X63.9400 Y-54.6100
G01 X63.9440 Y-54.6914
G01 X63.9559 Y-54.7719
G01 X63.9751 Y-54.8486
G01 X64.0042 Y-54.9299
G01 X64.0380 Y-55.0013
G01 X64.0792 Y-55.0701
G01 X64.1300 Y-55.1384
G01 X64.1831 Y-55.1969
G01 X64.2435 Y-55.2516
G01 X64.3089 Y-55.3001
G01 X64.3777 Y-55.3414
G01 X64.4512 Y-55.3763
G01 X64.4699 Y-55.3831
G01 X64.4699 Y-58.9359
G00 Z2.0000
G00 X61.9299 Y-58.9359
G01 F60.00
G01 Z-0.0500
G01 F120.00
G01 X61.9170 Y-58.9408
G01 X61.8472 Y-58.9739
G01 X61.7789 Y-59.0148
G01 X61.7149 Y-59.0623
G01 X61.6558 Y-59.1158
G01 X61.6023 Y-59.1749
G01 X61.5548 Y-59.2389
G01 X61.5139 Y-59.3072
G01 X61.4798 Y-59.3793
G01 X61.4530 Y-59.4543
G01 X61.4336 Y-59.5316
G01 X61.4219 Y-59.6104
G01 X61.4180 Y-59.6900
G01 X61.4219 Y-59.7696
G01 X61.4336 Y-59.8484
G01 X61.4530 Y-59.9257
G01 X61.4798 Y-60.0007
G01 X61.5139 Y-60.0728
G01 X61.5548 Y-60.1411
G01 X61.6023 Y-60.2051
G01 X61.6558 Y-60.2642
G01 X61.7149 Y-60.3177
G01 X61.7789 Y-60.3652
G01 X61.8472 Y-60.4061
G01 X61.9193 Y-60.4402
G01 X61.9943 Y-60.4670
G01 X62.0716 Y-60.4864
G01 X62.1504 Y-60.4981
G01 X62.2300 Y-60.5020
G01 X62.3096 Y-60.4981
G01 X62.3884 Y-60.4864
G01 X62.4657 Y-60.4670
G01 X62.5407 Y-60.4402
G01 X62.6149 Y-60.4049
G01 X62.6811 Y-60.3652
G01 X62.7451 Y-60.3177
G01 X62.8042 Y-60.2642
G01 X62.8561 Y-60.2070
G01 X62.9052 Y-60.1411
G01 X62.9472 Y-60.0706
G01 X62.9802 Y-60.0007
G01 X63.0070 Y-59.9257
G01 X63.0268 Y-59.8460
G01 X63.0381 Y-59.7696
G01 X63.0420 Y-59.6900
G01 X63.0378 Y-59.6080
G01 X63.0264 Y-59.5316
G01 X63.0070 Y-59.4543
G01 X62.9792 Y-59.3770
G01 X62.9461 Y-59.3072
G01 X62.9052 Y-59.2389
G01 X62.8577 Y-59.1749
G01 X62.8059 Y-59.1176
G01 X62.7451 Y-59.0623
G01 X62.6811 Y-59.0148
G01 X62.6149 Y-58.9751
G01 X62.5430 Y-58.9408
G01 X62.5301 Y-58.9359
G01 X62.5301 Y-55.3831
G01 X62.5488 Y-55.3763
G01 X62.6223 Y-55.3414
G01 X62.6911 Y-55.3001
G01 X62.7556 Y-55.2524
G01 X62.8186 Y-55.1951
G01 X62.8716 Y-55.1365
G01 X62.9201 Y-55.0711
G01 X62.9620 Y-55.0013
G01 X62.9958 Y-54.9299
G01 X63.0243 Y-54.8509
G01 X63.0441 Y-54.7719
G01 X63.0557 Y-54.6938
G01 X63.0600 Y-54.6088
G01 X63.0560 Y-54.5286
G01 X63.0441 Y-54.4481
G01 X63.0243 Y-54.3691
G01 X62.9968 Y-54.2924
G01 X62.9620 Y-54.2187
G01 X62.9201 Y-54.1489
G01 X62.8716 Y-54.0835
G01 X62.8186 Y-54.0249
G01 X62.7546 Y-53.9669
G01 X62.6911 Y-53.9199
G01 X62.6191 Y-53.8769
G01 X62.5476 Y-53.8432
G01 X62.4709 Y-53.8157
G01 X62.3919 Y-53.7959
G01 X62.3101 Y-53.7839
G01 X62.2300 Y-53.7800
G01 X62.1486 Y-53.7840
G01 X62.0681 Y-53.7959
G01 X61.9891 Y-53.8157
G01 X61.9124 Y-53.8432
G01 X61.8387 Y-53.8780
G01 X61.7689 Y-53.9199
G01 X61.7035 Y-53.9684
G01 X61.6431 Y-54.0231
G01 X61.5884 Y-54.0835
G01 X61.5399 Y-54.1489
G01 X61.4980 Y-54.2187
G01 X61.4632 Y-54.2924
G01 X61.4357 Y-54.3691
G01 X61.4159 Y-54.4481
G01 X61.4039 Y-54.5299
G01 X61.4000 Y-54.6100
G01 X61.4038 Y-54.6889
G01 X61.4165 Y-54.7743
G01 X61.4357 Y-54.8509
G01 X61.4632 Y-54.9276
G01 X61.4980 Y-55.0013
G01 X61.5392 Y-55.0701
G01 X61.5900 Y-55.1384
G01 X61.6431 Y-55.1969
G01 X61.7035 Y-55.2516
G01 X61.7689 Y-55.3001
G01 X61.8377 Y-55.3414
G01 X61.9112 Y-55.3763
G01 X61.9299 Y-55.3831
G01 X61.9299 Y-58.9359
G00 Z2.0000
G00 X60.5199 Y-54.6075
G01 F60.00
G01 Z-0.0500
G01 F120.00
G01 X60.5160 Y-54.5286
G01 X60.5041 Y-54.4481
G01 X60.4843 Y-54.3691
G01 X60.4568 Y-54.2924
G01 X60.4220 Y-54.2187
G01 X60.3801 Y-54.1489
G01 X60.3316 Y-54.0835
G01 X60.2769 Y-54.0231
G01 X60.2165 Y-53.9684
G01 X60.1511 Y-53.9199
G01 X60.0813 Y-53.8780
G01 X60.0076 Y-53.8432
G01 X59.9309 Y-53.8157
G01 X59.8519 Y-53.7959
G01 X59.7714 Y-53.7840
G01 X59.6900 Y-53.7800
G01 X59.6086 Y-53.7840
G01 X59.5281 Y-53.7959
G01 X59.4491 Y-53.8157
G01 X59.3724 Y-53.8432
G01 X59.2987 Y-53.8780
G01 X59.2289 Y-53.9199
G01 X59.1635 Y-53.9684
G01 X59.1031 Y-54.0231
G01 X59.0484 Y-54.0835
G01 X58.9999 Y-54.1489
G01 X58.9580 Y-54.2187
G01 X58.9232 Y-54.2924
G01 X58.8957 Y-54.3691
G01 X58.8759 Y-54.4481
G01 X58.8640 Y-54.5286
G01 X58.8600 Y-54.6100
G01 X58.8640 Y-54.6914
G01 X58.8759 Y-54.7719
G01 X58.8957 Y-54.8509
G01 X58.9232 Y-54.9276
G01 X58.9580 Y-55.0013
G01 X58.9999 Y-55.0711
G01 X59.0484 Y-55.1365
G01 X59.1031 Y-55.1969
G01 X59.1635 Y-55.2516
G01 X59.2289 Y-55.3001
G01 X59.2987 Y-55.3420
G01 X59.3724 Y-55.3768
G01 X59.4491 Y-55.4043
G01 X59.5281 Y-55.4241
G01 X59.6086 Y-55.4360
G01 X59.6900 Y-55.4400
G01 X59.7714 Y-55.4360
G01 X59.8519 Y-55.4241
G01 X59.9309 Y-55.4043
G01 X60.0076 Y-55.3768
G01 X60.0813 Y-55.3420
G01 X60.1511 Y-55.3001
G01 X60.2165 Y-55.2516
G01 X60.2769 Y-55.1969
G01 X60.3316 Y-55.1365
G01 X60.3801 Y-55.0711
G01 X60.4220 Y-55.0013
G01 X60.4568 Y-54.9276
G01 X60.4843 Y-54.8509
G01 X60.5041 Y-54.7719
G01 X60.5160 Y-54.6914
G01 X60.5199 Y-54.6075
G00 Z2.0000
G00 X56.8499 Y-58.9359
G01 F60.00
G01 Z-0.0500
G01 F120.00
G01 X56.8370 Y-58.9408
G01 X56.7651 Y-58.9751
G01 X56.6989 Y-59.0148
G01 X56.6349 Y-59.0623
G01 X56.5758 Y-59.1158
G01 X56.5239 Y-59.1730
G01 X56.4748 Y-59.2389
G01 X56.4328 Y-59.3094
G01 X56.3998 Y-59.3793
G01 X56.3730 Y-59.4543
G01 X56.3536 Y-59.5316
G01 X56.3422 Y-59.6080
G01 X56.3381 Y-59.6925
G01 X56.3419 Y-59.7696
G01 X56.3532 Y-59.8460
G01 X56.3737 Y-59.9280
G01 X56.3998 Y-60.0007
G01 X56.4339 Y-60.0728
G01 X56.4748 Y-60.1411
G01 X56.5208 Y-60.2032
G01 X56.5776 Y-60.2659
G01 X56.6349 Y-60.3177
G01 X56.6989 Y-60.3652
G01 X56.7672 Y-60.4061
G01 X56.8370 Y-60.4392
G01 X56.9155 Y-60.4674
G01 X56.9916 Y-60.4864
G01 X57.0704 Y-60.4981
G01 X57.1500 Y-60.5020
G01 X57.2296 Y-60.4981
G01 X57.3084 Y-60.4864
G01 X57.3857 Y-60.4670
G01 X57.4607 Y-60.4402
G01 X57.5306 Y-60.4072
G01 X57.6011 Y-60.3652
G01 X57.6651 Y-60.3177
G01 X57.7242 Y-60.2642
G01 X57.7761 Y-60.2070
G01 X57.8252 Y-60.1411
G01 X57.8649 Y-60.0749
G01 X57.8992 Y-60.0030
G01 X57.9041 Y-59.9901
G01 X58.9359 Y-59.9901
G01 X58.9408 Y-60.0030
G01 X58.9751 Y-60.0749
G01 X59.0148 Y-60.1411
G01 X59.0639 Y-60.2070
G01 X59.1158 Y-60.2642
G01 X59.1749 Y-60.3177
G01 X59.2389 Y-60.3652
G01 X59.3072 Y-60.4061
G01 X59.3793 Y-60.4402
G01 X59.4520 Y-60.4663
G01 X59.5340 Y-60.4868
G01 X59.6104 Y-60.4981
G01 X59.6900 Y-60.5020
G01 X59.7696 Y-60.4981
G01 X59.8460 Y-60.4868
G01 X59.9280 Y-60.4663
G01 X60.0007 Y-60.4402
G01 X60.0706 Y-60.4072
G01 X60.1411 Y-60.3652
G01 X60.2070 Y-60.3161
G01 X60.2642 Y-60.2642
G01 X60.3161 Y-60.2070
G01 X60.3652 Y-60.1411
G01 X60.4061 Y-60.0728
G01 X60.4392 Y-60.0030
G01 X60.4674 Y-59.9245
G01 X60.4864 Y-59.8484
G01 X60.4981 Y-59.7696
G01 X60.5020 Y-59.6900
G01 X60.4981 Y-59.6104
G01 X60.4864 Y-59.5316
G01 X60.4670 Y-59.4543
G01 X60.4402 Y-59.3793
G01 X60.4061 Y-59.3072
G01 X60.3652 Y-59.2389
G01 X60.3177 Y-59.1749
G01 X60.2642 Y-59.1158
G01 X60.2051 Y-59.0623
G01 X60.1411 Y-59.0148
G01 X60.0728 Y-58.9739
G01 X60.0007 Y-58.9398
G01 X59.9269 Y-58.9133
G01 X59.8484 Y-58.8936
G01 X59.7696 Y-58.8819
G01 X59.6900 Y-58.8780
G01 X59.6104 Y-58.8819
G01 X59.5316 Y-58.8936
G01 X59.4543 Y-58.9130
G01 X59.3793 Y-58.9398
G01 X59.3094 Y-58.9728
G01 X59.2389 Y-59.0148
G01 X59.1749 Y-59.0623
G01 X59.1158 Y-59.1158
G01 X59.0639 Y-59.1730
G01 X59.0148 Y-59.2389
G01 X58.9751 Y-59.3051
G01 X58.9408 Y-59.3770
G01 X58.9359 Y-59.3899
G01 X57.9041 Y-59.3899
G01 X57.8992 Y-59.3770
G01 X57.8661 Y-59.3072
G01 X57.8252 Y-59.2389
G01 X57.7777 Y-59.1749
G01 X57.7242 Y-59.1158
G01 X57.6651 Y-59.0623
G01 X57.6011 Y-59.0148
G01 X57.5328 Y-58.9739
G01 X57.4630 Y-58.9408
G01 X57.4501 Y-58.9359
G01 X57.4501 Y-55.3831
G01 X57.4688 Y-55.3763
G01 X57.5423 Y-55.3414
G01 X57.6111 Y-55.3001
G01 X57.6756 Y-55.2524
G01 X57.7386 Y-55.1951
G01 X57.7916 Y-55.1365
G01 X57.8401 Y-55.0711
G01 X57.8820 Y-55.0013
G01 X57.9158 Y-54.9299
G01 X57.9443 Y-54.8509
G01 X57.9641 Y-54.7719
G01 X57.9757 Y-54.6938
G01 X57.9799 Y-54.6075
G01 X57.9760 Y-54.5286
G01 X57.9641 Y-54.4481
G01 X57.9443 Y-54.3691
G01 X57.9168 Y-54.2924
G01 X57.8820 Y-54.2187
G01 X57.8401 Y-54.1489
G01 X57.7916 Y-54.0835
G01 X57.7386 Y-54.0249
G01 X57.6746 Y-53.9669
G01 X57.6111 Y-53.9199
G01 X57.5391 Y-53.8769
G01 X57.4676 Y-53.8432
G01 X57.3909 Y-53.8157
G01 X57.3119 Y-53.7959
G01 X57.2301 Y-53.7839
G01 X57.1500 Y-53.7800
G01 X57.0686 Y-53.7840
G01 X56.9881 Y-53.7959
G01 X56.9091 Y-53.8157
G01 X56.8324 Y-53.8432
G01 X56.7587 Y-53.8780
G01 X56.6889 Y-53.9199
G01 X56.6235 Y-53.9684
G01 X56.5631 Y-54.0231
G01 X56.5084 Y-54.0835
G01 X56.4599 Y-54.1489
G01 X56.4180 Y-54.2187
G01 X56.3832 Y-54.2924
G01 X56.3557 Y-54.3691
G01 X56.3359 Y-54.4481
G01 X56.3239 Y-54.5299
G01 X56.3200 Y-54.6100
G01 X56.3238 Y-54.6889
G01 X56.3365 Y-54.7743
G01 X56.3557 Y-54.8509
G01 X56.3832 Y-54.9276
G01 X56.4180 Y-55.0013
G01 X56.4592 Y-55.0701
G01 X56.5100 Y-55.1384
G01 X56.5631 Y-55.1969
G01 X56.6235 Y-55.2516
G01 X56.6889 Y-55.3001
G01 X56.7577 Y-55.3414
G01 X56.8312 Y-55.3763
G01 X56.8499 Y-55.3831
G01 X56.8499 Y-58.9359
G00 Z2.0000
G00 X54.3099 Y-58.9359
G01 F60.00
G01 Z-0.0500
G01 F120.00
G01 X54.2970 Y-58.9408
G01 X54.2272 Y-58.9739
G01 X54.1589 Y-59.0148
G01 X54.0949 Y-59.0623
G01 X54.0358 Y-59.1158
G01 X53.9823 Y-59.1749
G01 X53.9348 Y-59.2389
G01 X53.8939 Y-59.3072
G01 X53.8598 Y-59.3793
G01 X53.8330 Y-59.4543
G01 X53.8136 Y-59.5316
G01 X53.8019 Y-59.6104
G01 X53.7980 Y-59.6900
G01 X53.8019 Y-59.7696
G01 X53.8136 Y-59.8484
G01 X53.8330 Y-59.9257
G01 X53.8598 Y-60.0007
G01 X53.8939 Y-60.0728
G01 X53.9348 Y-60.1411
G01 X53.9823 Y-60.2051
G01 X54.0358 Y-60.2642
G01 X54.0949 Y-60.3177
G01 X54.1589 Y-60.3652
G01 X54.2272 Y-60.4061
G01 X54.2993 Y-60.4402
G01 X54.3743 Y-60.4670
G01 X54.4516 Y-60.4864
G01 X54.5304 Y-60.4981
G01 X54.6100 Y-60.5020
G01 X54.6896 Y-60.4981
G01 X54.7684 Y-60.4864
G01 X54.8457 Y-60.4670
G01 X54.9207 Y-60.4402
G01 X54.9949 Y-60.4049
G01 X55.0611 Y-60.3652
G01 X55.1251 Y-60.3177
G01 X55.1842 Y-60.2642
G01 X55.2361 Y-60.2070
G01 X55.2852 Y-60.1411
G01 X55.3272 Y-60.0706
G01 X55.3602 Y-60.0007
G01 X55.3870 Y-59.9257
G01 X55.4068 Y-59.8460
G01 X55.4181 Y-59.7696
G01 X55.4220 Y-59.6900
G01 X55.4178 Y-59.6080
G01 X55.4064 Y-59.5316
G01 X55.3870 Y-59.4543
G01 X55.3592 Y-59.3770
G01 X55.3261 Y-59.3072
G01 X55.2852 Y-59.2389
G01 X55.2377 Y-59.1749
G01 X55.1859 Y-59.1176
G01 X55.1251 Y-59.0623
G01 X55.0611 Y-59.0148
G01 X54.9949 Y-58.9751
G01 X54.9230 Y-58.9408
G01 X54.9101 Y-58.9359
G01 X54.9101 Y-55.3831
G01 X54.9288 Y-55.3763
G01 X55.0023 Y-55.3414
G01 X55.0711 Y-55.3001
G01 X55.1356 Y-55.2524
G01 X55.1986 Y-55.1951
G01 X55.2516 Y-55.1365
G01 X55.3001 Y-55.0711
G01 X55.3420 Y-55.0013
G01 X55.3758 Y-54.9299
G01 X55.4043 Y-54.8509
G01 X55.4241 Y-54.7719
G01 X55.4357 Y-54.6938
G01 X55.4400 Y-54.6088
G01 X55.4360 Y-54.5286
G01 X55.4241 Y-54.4481
G01 X55.4043 Y-54.3691
G01 X55.3768 Y-54.2924
G01 X55.3420 Y-54.2187
G01 X55.3001 Y-54.1489
G01 X55.2516 Y-54.0835
G01 X55.1986 Y-54.0249
G01 X55.1346 Y-53.9669
G01 X55.0711 Y-53.9199
G01 X54.9991 Y-53.8769
G01 X54.9276 Y-53.8432
G01 X54.8509 Y-53.8157
G01 X54.7719 Y-53.7959
G01 X54.6901 Y-53.7839
G01 X54.6100 Y-53.7800
G01 X54.5286 Y-53.7840
G01 X54.4481 Y-53.7959
G01 X54.3691 Y-53.8157
G01 X54.2924 Y-53.8432
G01 X54.2187 Y-53.8780
G01 X54.1489 Y-53.9199
G01 X54.0835 Y-53.9684
G01 X54.0231 Y-54.0231
G01 X53.9684 Y-54.0835
G01 X53.9199 Y-54.1489
G01 X53.8780 Y-54.2187
G01 X53.8432 Y-54.2924
G01 X53.8157 Y-54.3691
G01 X53.7959 Y-54.4481
G01 X53.7839 Y-54.5299
G01 X53.7800 Y-54.6100
G01 X53.7838 Y-54.6889
G01 X53.7965 Y-54.7743
G01 X53.8157 Y-54.8509
G01 X53.8432 Y-54.9276
G01 X53.8780 Y-55.0013
G01 X53.9192 Y-55.0701
G01 X53.9700 Y-55.1384
G01 X54.0231 Y-55.1969
G01 X54.0835 Y-55.2516
G01 X54.1489 Y-55.3001
G01 X54.2177 Y-55.3414
G01 X54.2912 Y-55.3763
G01 X54.3099 Y-55.3831
G01 X54.3099 Y-58.9359
G00 Z2.0000
G00 X51.7699 Y-58.9359
G01 F60.00
G01 Z-0.0500
G01 F120.00
G01 X51.7570 Y-58.9408
G01 X51.6872 Y-58.9739
G01 X51.6189 Y-59.0148
G01 X51.5549 Y-59.0623
G01 X51.4958 Y-59.1158
G01 X51.4423 Y-59.1749
G01 X51.3948 Y-59.2389
G01 X51.3539 Y-59.3072
G01 X51.3198 Y-59.3793
G01 X51.2930 Y-59.4543
G01 X51.2736 Y-59.5316
G01 X51.2619 Y-59.6104
G01 X51.2580 Y-59.6900
G01 X51.2619 Y-59.7696
G01 X51.2736 Y-59.8484
G01 X51.2930 Y-59.9257
G01 X51.3198 Y-60.0007
G01 X51.3539 Y-60.0728
G01 X51.3948 Y-60.1411
G01 X51.4423 Y-60.2051
G01 X51.4958 Y-60.2642
G01 X51.5549 Y-60.3177
G01 X51.6189 Y-60.3652
G01 X51.6872 Y-60.4061
G01 X51.7593 Y-60.4402
G01 X51.8343 Y-60.4670
G01 X51.9116 Y-60.4864
G01 X51.9904 Y-60.4981
G01 X52.0700 Y-60.5020
G01 X52.1496 Y-60.4981
G01 X52.2284 Y-60.4864
G01 X52.3057 Y-60.4670
G01 X52.3807 Y-60.4402
G01 X52.4549 Y-60.4049
G01 X52.5211 Y-60.3652
G01 X52.5851 Y-60.3177
G01 X52.6442 Y-60.2642
G01 X52.6961 Y-60.2070
G01 X52.7452 Y-60.1411
G01 X52.7872 Y-60.0706
G01 X52.8202 Y-60.0007
G01 X52.8470 Y-59.9257
G01 X52.8668 Y-59.8460
G01 X52.8781 Y-59.7696
G01 X52.8820 Y-59.6900
G01 X52.8778 Y-59.6080
G01 X52.8664 Y-59.5316
G01 X52.8470 Y-59.4543
G01 X52.8192 Y-59.3770
G01 X52.7861 Y-59.3072
G01 X52.7452 Y-59.2389
G01 X52.6977 Y-59.1749
G01 X52.6459 Y-59.1176
G01 X52.5851 Y-59.0623
G01 X52.5211 Y-59.0148
G01 X52.4549 Y-58.9751
G01 X52.3830 Y-58.9408
G01 X52.3701 Y-58.9359
G01 X52.3701 Y-55.3831
G01 X52.3888 Y-55.3763
G01 X52.4623 Y-55.3414
G01 X52.5311 Y-55.3001
G01 X52.5956 Y-55.2524
G01 X52.6586 Y-55.1951
G01 X52.7116 Y-55.1365
G01 X52.7601 Y-55.0711
G01 X52.8020 Y-55.0013
G01 X52.8358 Y-54.9299
G01 X52.8643 Y-54.8509
G01 X52.8841 Y-54.7719
G01 X52.8957 Y-54.6938
G01 X52.9000 Y-54.6088
G01 X52.8960 Y-54.5286
G01 X52.8841 Y-54.4481
G01 X52.8643 Y-54.3691
G01 X52.8368 Y-54.2924
G01 X52.8020 Y-54.2187
G01 X52.7601 Y-54.1489
G01 X52.7116 Y-54.0835
G01 X52.6586 Y-54.0249
G01 X52.5946 Y-53.9669
G01 X52.5311 Y-53.9199
G01 X52.4591 Y-53.8769
G01 X52.3876 Y-53.8432
G01 X52.3109 Y-53.8157
G01 X52.2319 Y-53.7959
G01 X52.1501 Y-53.7839
G01 X52.0700 Y-53.7800
G01 X51.9886 Y-53.7840
G01 X51.9081 Y-53.7959
G01 X51.8291 Y-53.8157
G01 X51.7524 Y-53.8432
G01 X51.6787 Y-53.8780
G01 X51.6089 Y-53.9199
G01 X51.5435 Y-53.9684
G01 X51.4831 Y-54.0231
G01 X51.4284 Y-54.0835
G01 X51.3799 Y-54.1489
G01 X51.3380 Y-54.2187
G01 X51.3032 Y-54.2924
G01 X51.2757 Y-54.3691
G01 X51.2559 Y-54.4481
G01 X51.2439 Y-54.5299
G01 X51.2400 Y-54.6100
G01 X51.2438 Y-54.6889
G01 X51.2565 Y-54.7743
G01 X51.2757 Y-54.8509
G01 X51.3032 Y-54.9276
G01 X51.3380 Y-55.0013
G01 X51.3792 Y-55.0701
G01 X51.4300 Y-55.1384
G01 X51.4831 Y-55.1969
G01 X51.5435 Y-55.2516
G01 X51.6089 Y-55.3001
G01 X51.6777 Y-55.3414
G01 X51.7512 Y-55.3763
G01 X51.7699 Y-55.3831
G01 X51.7699 Y-58.9359
G00 Z2.0000
G00 X49.2299 Y-58.9359
G01 F60.00
G01 Z-0.0500
G01 F120.00
G01 X49.2170 Y-58.9408
G01 X49.1472 Y-58.9739
G01 X49.0789 Y-59.0148
G01 X49.0149 Y-59.0623
G01 X48.9558 Y-59.1158
G01 X48.9023 Y-59.1749
G01 X48.8548 Y-59.2389
G01 X48.8139 Y-59.3072
G01 X48.7798 Y-59.3793
G01 X48.7530 Y-59.4543
G01 X48.7336 Y-59.5316
G01 X48.7219 Y-59.6104
G01 X48.7180 Y-59.6900
G01 X48.7219 Y-59.7696
G01 X48.7336 Y-59.8484
G01 X48.7530 Y-59.9257
G01 X48.7798 Y-60.0007
G01 X48.8139 Y-60.0728
G01 X48.8548 Y-60.1411
G01 X48.9023 Y-60.2051
G01 X48.9558 Y-60.2642
G01 X49.0149 Y-60.3177
G01 X49.0789 Y-60.3652
G01 X49.1472 Y-60.4061
G01 X49.2193 Y-60.4402
G01 X49.2943 Y-60.4670
G01 X49.3716 Y-60.4864
G01 X49.4504 Y-60.4981
G01 X49.5300 Y-60.5020
G01 X49.6096 Y-60.4981
G01 X49.6884 Y-60.4864
G01 X49.7657 Y-60.4670
G01 X49.8407 Y-60.4402
G01 X49.9149 Y-60.4049
G01 X49.9811 Y-60.3652
G01 X50.0451 Y-60.3177
G01 X50.1042 Y-60.2642
G01 X50.1561 Y-60.2070
G01 X50.2052 Y-60.1411
G01 X50.2472 Y-60.0706
G01 X50.2802 Y-60.0007
G01 X50.3070 Y-59.9257
G01 X50.3268 Y-59.8460
G01 X50.3381 Y-59.7696
G01 X50.3420 Y-59.6900
G01 X50.3378 Y-59.6080
G01 X50.3264 Y-59.5316
G01 X50.3070 Y-59.4543
G01 X50.2792 Y-59.3770
G01 X50.2461 Y-59.3072
G01 X50.2052 Y-59.2389
G01 X50.1577 Y-59.1749
G01 X50.1059 Y-59.1176
G01 X50.0451 Y-59.0623
G01 X49.9811 Y-59.0148
G01 X49.9149 Y-58.9751
G01 X49.8430 Y-58.9408
G01 X49.8301 Y-58.9359
G01 X49.8301 Y-55.3831
G01 X49.8488 Y-55.3763
G01 X49.9223 Y-55.3414
G01 X49.9911 Y-55.3001
G01 X50.0556 Y-55.2524
G01 X50.1186 Y-55.1951
G01 X50.1716 Y-55.1365
G01 X50.2201 Y-55.0711
G01 X50.2620 Y-55.0013
G01 X50.2958 Y-54.9299
G01 X50.3243 Y-54.8509
G01 X50.3441 Y-54.7719
G01 X50.3557 Y-54.6938
G01 X50.3600 Y-54.6088
G01 X50.3560 Y-54.5286
G01 X50.3441 Y-54.4481
G01 X50.3243 Y-54.3691
G01 X50.2968 Y-54.2924
G01 X50.2620 Y-54.2187
G01 X50.2201 Y-54.1489
G01 X50.1716 Y-54.0835
G01 X50.1186 Y-54.0249
G01 X50.0546 Y-53.9669
G01 X49.9911 Y-53.9199
G01 X49.9191 Y-53.8769
G01 X49.8476 Y-53.8432
G01 X49.7709 Y-53.8157
G01 X49.6919 Y-53.7959
G01 X49.6101 Y-53.7839
G01 X49.5300 Y-53.7800
G01 X49.4486 Y-53.7840
G01 X49.3681 Y-53.7959
G01 X49.2891 Y-53.8157
G01 X49.2124 Y-53.8432
G01 X49.1387 Y-53.8780
G01 X49.0689 Y-53.9199
G01 X49.0035 Y-53.9684
G01 X48.9431 Y-54.0231
G01 X48.8884 Y-54.0835
G01 X48.8399 Y-54.1489
G01 X48.7980 Y-54.2187
G01 X48.7632 Y-54.2924
G01 X48.7357 Y-54.3691
G01 X48.7159 Y-54.4481
G01 X48.7039 Y-54.5299
G01 X48.7000 Y-54.6100
G01 X48.7038 Y-54.6889
G01 X48.7165 Y-54.7743
G01 X48.7357 Y-54.8509
G01 X48.7632 Y-54.9276
G01 X48.7980 Y-55.0013
G01 X48.8392 Y-55.0701
G01 X48.8900 Y-55.1384
G01 X48.9431 Y-55.1969
G01 X49.0035 Y-55.2516
G01 X49.0689 Y-55.3001
G01 X49.1377 Y-55.3414
G01 X49.2112 Y-55.3763
G01 X49.2299 Y-55.3831
G01 X49.2299 Y-58.9359
G00 Z2.0000
G00 X47.8199 Y-54.6075
G01 F60.00
G01 Z-0.0500
G01 F120.00
G01 X47.8160 Y-54.5286
G01 X47.8041 Y-54.4481
G01 X47.7843 Y-54.3691
G01 X47.7568 Y-54.2924
G01 X47.7220 Y-54.2187
G01 X47.6801 Y-54.1489
G01 X47.6316 Y-54.0835
G01 X47.5769 Y-54.0231
G01 X47.5165 Y-53.9684
G01 X47.4511 Y-53.9199
G01 X47.3813 Y-53.8780
G01 X47.3076 Y-53.8432
G01 X47.2309 Y-53.8157
G01 X47.1519 Y-53.7959
G01 X47.0714 Y-53.7840
G01 X46.9900 Y-53.7800
G01 X46.9086 Y-53.7840
G01 X46.8281 Y-53.7959
G01 X46.7491 Y-53.8157
G01 X46.6724 Y-53.8432
G01 X46.5987 Y-53.8780
G01 X46.5289 Y-53.9199
G01 X46.4635 Y-53.9684
G01 X46.4031 Y-54.0231
G01 X46.3484 Y-54.0835
G01 X46.2999 Y-54.1489
G01 X46.2580 Y-54.2187
G01 X46.2232 Y-54.2924
G01 X46.1957 Y-54.3691
G01 X46.1759 Y-54.4481
G01 X46.1640 Y-54.5286
G01 X46.1600 Y-54.6100
G01 X46.1640 Y-54.6914
G01 X46.1759 Y-54.7719
G01 X46.1957 Y-54.8509
G01 X46.2232 Y-54.9276
G01 X46.2580 Y-55.0013
G01 X46.2999 Y-55.0711
G01 X46.3484 Y-55.1365
G01 X46.4031 Y-55.1969
G01 X46.4635 Y-55.2516
G01 X46.5289 Y-55.3001
G01 X46.5987 Y-55.3420
G01 X46.6724 Y-55.3768
G01 X46.7491 Y-55.4043
G01 X46.8281 Y-55.4241
G01 X46.9086 Y-55.4360
G01 X46.9900 Y-55.4400
G01 X47.0714 Y-55.4360
G01 X47.1519 Y-55.4241
G01 X47.2309 Y-55.4043
G01 X47.3076 Y-55.3768
G01 X47.3813 Y-55.3420
G01 X47.4511 Y-55.3001
G01 X47.5165 Y-55.2516
G01 X47.5769 Y-55.1969
G01 X47.6316 Y-55.1365
G01 X47.6801 Y-55.0711
G01 X47.7220 Y-55.0013
G01 X47.7568 Y-54.9276
G01 X47.7843 Y-54.8509
G01 X47.8041 Y-54.7719
G01 X47.8160 Y-54.6914
G01 X47.8199 Y-54.6075
G00 Z2.0000
G00 X45.2799 Y-54.6075
G01 F60.00
G01 Z-0.0500
G01 F120.00
G01 X45.2760 Y-54.5286
G01 X45.2641 Y-54.4481
G01 X45.2443 Y-54.3691
G01 X45.2168 Y-54.2924
G01 X45.1820 Y-54.2187
G01 X45.1401 Y-54.1489
G01 X45.0916 Y-54.0835
G01 X45.0369 Y-54.0231
G01 X44.9765 Y-53.9684
G01 X44.9111 Y-53.9199
G01 X44.8413 Y-53.8780
G01 X44.7676 Y-53.8432
G01 X44.6909 Y-53.8157
G01 X44.6119 Y-53.7959
G01 X44.5314 Y-53.7840
G01 X44.4500 Y-53.7800
G01 X44.3686 Y-53.7840
G01 X44.2881 Y-53.7959
G01 X44.2091 Y-53.8157
G01 X44.1324 Y-53.8432
G01 X44.0587 Y-53.8780
G01 X43.9889 Y-53.9199
G01 X43.9235 Y-53.9684
G01 X43.8631 Y-54.0231
G01 X43.8084 Y-54.0835
G01 X43.7599 Y-54.1489
G01 X43.7180 Y-54.2187
G01 X43.6832 Y-54.2924
G01 X43.6557 Y-54.3691
G01 X43.6359 Y-54.4481
G01 X43.6240 Y-54.5286
G01 X43.6200 Y-54.6100
G01 X43.6240 Y-54.6914
G01 X43.6359 Y-54.7719
G01 X43.6557 Y-54.8509
G01 X43.6832 Y-54.9276
G01 X43.7180 Y-55.0013
G01 X43.7599 Y-55.0711
G01 X43.8084 Y-55.1365
G01 X43.8631 Y-55.1969
G01 X43.9235 Y-55.2516
G01 X43.9889 Y-55.3001
G01 X44.0587 Y-55.3420
G01 X44.1324 Y-55.3768
G01 X44.2091 Y-55.4043
G01 X44.2881 Y-55.4241
G01 X44.3686 Y-55.4360
G01 X44.4500 Y-55.4400
G01 X44.5314 Y-55.4360
G01 X44.6119 Y-55.4241
G01 X44.6909 Y-55.4043
G01 X44.7676 Y-55.3768
G01 X44.8413 Y-55.3420
G01 X44.9111 Y-55.3001
G01 X44.9765 Y-55.2516
G01 X45.0369 Y-55.1969
G01 X45.0916 Y-55.1365
G01 X45.1401 Y-55.0711
G01 X45.1820 Y-55.0013
G01 X45.2168 Y-54.9276
G01 X45.2443 Y-54.8509
G01 X45.2641 Y-54.7719
G01 X45.2760 Y-54.6914
G01 X45.2799 Y-54.6075
G00 Z2.0000
G00 X42.7399 Y-54.6075
G01 F60.00
G01 Z-0.0500
G01 F120.00
G01 X42.7360 Y-54.5286
G01 X42.7241 Y-54.4481
G01 X42.7043 Y-54.3691
G01 X42.6768 Y-54.2924
G01 X42.6420 Y-54.2187
G01 X42.6001 Y-54.1489
G01 X42.5516 Y-54.0835
G01 X42.4969 Y-54.0231
G01 X42.4365 Y-53.9684
G01 X42.3711 Y-53.9199
G01 X42.3013 Y-53.8780
G01 X42.2276 Y-53.8432
G01 X42.1509 Y-53.8157
G01 X42.0719 Y-53.7959
G01 X41.9914 Y-53.7840
G01 X41.9100 Y-53.7800
G01 X41.8286 Y-53.7840
G01 X41.7481 Y-53.7959
G01 X41.6691 Y-53.8157
G01 X41.5924 Y-53.8432
G01 X41.5187 Y-53.8780
G01 X41.4489 Y-53.9199
G01 X41.3835 Y-53.9684
G01 X41.3231 Y-54.0231
G01 X41.2684 Y-54.0835
G01 X41.2199 Y-54.1489
G01 X41.1780 Y-54.2187
G01 X41.1432 Y-54.2924
G01 X41.1157 Y-54.3691
G01 X41.0959 Y-54.4481
G01 X41.0840 Y-54.5286
G01 X41.0800 Y-54.6100
G01 X41.0840 Y-54.6914
G01 X41.0959 Y-54.7719
G01 X41.1157 Y-54.8509
G01 X41.1432 Y-54.9276
G01 X41.1780 Y-55.0013
G01 X41.2199 Y-55.0711
G01 X41.2684 Y-55.1365
G01 X41.3231 Y-55.1969
G01 X41.3835 Y-55.2516
G01 X41.4489 Y-55.3001
G01 X41.5187 Y-55.3420
G01 X41.5924 Y-55.3768
G01 X41.6691 Y-55.4043
G01 X41.7481 Y-55.4241
G01 X41.8286 Y-55.4360
G01 X41.9100 Y-55.4400
G01 X41.9914 Y-55.4360
G01 X42.0719 Y-55.4241
G01 X42.1509 Y-55.4043
G01 X42.2276 Y-55.3768
G01 X42.3013 Y-55.3420
G01 X42.3711 Y-55.3001
G01 X42.4365 Y-55.2516
G01 X42.4969 Y-55.1969
G01 X42.5516 Y-55.1365
G01 X42.6001 Y-55.0711
G01 X42.6420 Y-55.0013
G01 X42.6768 Y-54.9276
G01 X42.7043 Y-54.8509
G01 X42.7241 Y-54.7719
G01 X42.7360 Y-54.6914
G01 X42.7399 Y-54.6075
G00 Z2.0000
G00 X40.1999 Y-54.6075
G01 F60.00
G01 Z-0.0500
G01 F120.00
G01 X40.1960 Y-54.5286
G01 X40.1841 Y-54.4481
G01 X40.1643 Y-54.3691
G01 X40.1368 Y-54.2924
G01 X40.1020 Y-54.2187
G01 X40.0601 Y-54.1489
G01 X40.0116 Y-54.0835
G01 X39.9569 Y-54.0231
G01 X39.8965 Y-53.9684
G01 X39.8311 Y-53.9199
G01 X39.7613 Y-53.8780
G01 X39.6876 Y-53.8432
G01 X39.6109 Y-53.8157
G01 X39.5319 Y-53.7959
G01 X39.4514 Y-53.7840
G01 X39.3700 Y-53.7800
G01 X39.2886 Y-53.7840
G01 X39.2081 Y-53.7959
G01 X39.1291 Y-53.8157
G01 X39.0524 Y-53.8432
G01 X38.9787 Y-53.8780
G01 X38.9089 Y-53.9199
G01 X38.8435 Y-53.9684
G01 X38.7831 Y-54.0231
G01 X38.7284 Y-54.0835
G01 X38.6799 Y-54.1489
G01 X38.6380 Y-54.2187
G01 X38.6032 Y-54.2924
G01 X38.5757 Y-54.3691
G01 X38.5559 Y-54.4481
G01 X38.5440 Y-54.5286
G01 X38.5400 Y-54.6100
G01 X38.5440 Y-54.6914
G01 X38.5559 Y-54.7719
G01 X38.5757 Y-54.8509
G01 X38.6032 Y-54.9276
G01 X38.6380 Y-55.0013
G01 X38.6799 Y-55.0711
G01 X38.7284 Y-55.1365
G01 X38.7831 Y-55.1969
G01 X38.8435 Y-55.2516
G01 X38.9089 Y-55.3001
G01 X38.9787 Y-55.3420
G01 X39.0524 Y-55.3768
G01 X39.1291 Y-55.4043
G01 X39.2081 Y-55.4241
G01 X39.2886 Y-55.4360
G01 X39.3700 Y-55.4400
G01 X39.4514 Y-55.4360
G01 X39.5319 Y-55.4241
G01 X39.6109 Y-55.4043
G01 X39.6876 Y-55.3768
G01 X39.7613 Y-55.3420
G01 X39.8311 Y-55.3001
G01 X39.8965 Y-55.2516
G01 X39.9569 Y-55.1969
G01 X40.0116 Y-55.1365
G01 X40.0601 Y-55.0711
G01 X40.1020 Y-55.0013
G01 X40.1368 Y-54.9276
G01 X40.1643 Y-54.8509
G01 X40.1841 Y-54.7719
G01 X40.1960 Y-54.6914
G01 X40.1999 Y-54.6075
G00 Z2.0000
G00 X37.6599 Y-54.6075
G01 F60.00
G01 Z-0.0500
G01 F120.00
G01 X37.6560 Y-54.5286
G01 X37.6441 Y-54.4481
G01 X37.6243 Y-54.3691
G01 X37.5968 Y-54.2924
G01 X37.5620 Y-54.2187
G01 X37.5201 Y-54.1489
G01 X37.4716 Y-54.0835
G01 X37.4169 Y-54.0231
G01 X37.3565 Y-53.9684
G01 X37.2911 Y-53.9199
G01 X37.2213 Y-53.8780
G01 X37.1476 Y-53.8432
G01 X37.0709 Y-53.8157
G01 X36.9919 Y-53.7959
G01 X36.9114 Y-53.7840
G01 X36.8300 Y-53.7800
G01 X36.7486 Y-53.7840
G01 X36.6681 Y-53.7959
G01 X36.5891 Y-53.8157
G01 X36.5124 Y-53.8432
G01 X36.4387 Y-53.8780
G01 X36.3689 Y-53.9199
G01 X36.3035 Y-53.9684
G01 X36.2431 Y-54.0231
G01 X36.1884 Y-54.0835
G01 X36.1399 Y-54.1489
G01 X36.0980 Y-54.2187
G01 X36.0632 Y-54.2924
G01 X36.0357 Y-54.3691
G01 X36.0159 Y-54.4481
G01 X36.0040 Y-54.5286
G01 X36.0000 Y-54.6100
G01 X36.0040 Y-54.6914
G01 X36.0159 Y-54.7719
G01 X36.0357 Y-54.8509
G01 X36.0632 Y-54.9276
G01 X36.0980 Y-55.0013
G01 X36.1399 Y-55.0711
G01 X36.1884 Y-55.1365
G01 X36.2431 Y-55.1969
G01 X36.3035 Y-55.2516
G01 X36.3689 Y-55.3001
G01 X36.4387 Y-55.3420
G01 X36.5124 Y-55.3768
G01 X36.5891 Y-55.4043
G01 X36.6681 Y-55.4241
G01 X36.7486 Y-55.4360
G01 X36.8300 Y-55.4400
G01 X36.9114 Y-55.4360
G01 X36.9919 Y-55.4241
G01 X37.0709 Y-55.4043
G01 X37.1476 Y-55.3768
G01 X37.2213 Y-55.3420
G01 X37.2911 Y-55.3001
G01 X37.3565 Y-55.2516
G01 X37.4169 Y-55.1969
G01 X37.4716 Y-55.1365
G01 X37.5201 Y-55.0711
G01 X37.5620 Y-55.0013
G01 X37.5968 Y-54.9276
G01 X37.6243 Y-54.8509
G01 X37.6441 Y-54.7719
G01 X37.6560 Y-54.6914
G01 X37.6599 Y-54.6075
G00 Z2.0000
G00 X33.5100 Y-55.4400
G01 F60.00
G01 Z-0.0500
G01 F120.00
G01 X35.0700 Y-55.4400
G01 X35.0798 Y-55.4390
G01 X35.0845 Y-55.4378
G01 X35.0903 Y-55.4357
G01 X35.0988 Y-55.4309
G01 X35.1062 Y-55.4245
G01 X35.1122 Y-55.4167
G01 X35.1166 Y-55.4080
G01 X35.1193 Y-55.3985
G01 X35.1200 Y-55.3900
G01 X35.1200 Y-53.8300
G01 X35.1190 Y-53.8202
G01 X35.1178 Y-53.8155
G01 X35.1157 Y-53.8097
G01 X35.1109 Y-53.8012
G01 X35.1045 Y-53.7938
G01 X35.0967 Y-53.7878
G01 X35.0880 Y-53.7834
G01 X35.0785 Y-53.7807
G01 X35.0700 Y-53.7800
G01 X33.5100 Y-53.7800
G01 X33.5002 Y-53.7810
G01 X33.4943 Y-53.7825
G01 X33.4897 Y-53.7843
G01 X33.4812 Y-53.7891
G01 X33.4738 Y-53.7955
G01 X33.4678 Y-53.8033
G01 X33.4634 Y-53.8120
G01 X33.4607 Y-53.8215
G01 X33.4600 Y-53.8300
G01 X33.4600 Y-55.3912
G01 X33.4612 Y-55.4010
G01 X33.4643 Y-55.4103
G01 X33.4691 Y-55.4188
G01 X33.4755 Y-55.4262
G01 X33.4833 Y-55.4322
G01 X33.4920 Y-55.4366
G01 X33.5015 Y-55.4393
G01 X33.5100 Y-55.4400
G00 Z2.0000
G00 X28.6551 Y-61.9625
G01 F60.00
G01 Z-0.0500
G01 F120.00
G01 X28.6564 Y-61.9894
G01 X28.6608 Y-62.0185
G01 X28.6679 Y-62.0471
G01 X28.6778 Y-62.0748
G01 X28.6904 Y-62.1014
G01 X28.7056 Y-62.1267
G01 X28.7231 Y-62.1503
G01 X28.7446 Y-62.1738
G01 X28.7647 Y-62.1919
G01 X28.7883 Y-62.2094
G01 X28.8136 Y-62.2246
G01 X28.8425 Y-62.2380
G01 X28.8679 Y-62.2471
G01 X28.8989 Y-62.2547
G01 X28.9268 Y-62.2587
G01 X28.9538 Y-62.2600
G01 X28.9799 Y-62.2600
G01 X28.9799 Y-65.6100
G01 X28.8300 Y-65.6100
G01 X28.8202 Y-65.6110
G01 X28.8132 Y-65.6129
G01 X28.8064 Y-65.6159
G01 X28.8002 Y-65.6198
G01 X28.7946 Y-65.6246
G01 X28.7898 Y-65.6302
G01 X28.7859 Y-65.6364
G01 X28.7829 Y-65.6432
G01 X28.7810 Y-65.6502
G01 X28.7800 Y-65.6600
G01 X28.7800 Y-66.4612
G01 X28.7805 Y-66.4673
G01 X28.7815 Y-66.4721
G01 X28.7834 Y-66.4780
G01 X28.7853 Y-66.4825
G01 X28.7884 Y-66.4878
G01 X28.7913 Y-66.4917
G01 X28.7955 Y-66.4962
G01 X28.7992 Y-66.4994
G01 X28.8064 Y-66.5041
G01 X28.8143 Y-66.5075
G01 X28.8227 Y-66.5095
G01 X28.8300 Y-66.5100
G01 X29.7300 Y-66.5100
G01 X29.7373 Y-66.5095
G01 X29.7445 Y-66.5078
G01 X29.7503 Y-66.5057
G01 X29.7567 Y-66.5022
G01 X29.7627 Y-66.4979
G01 X29.7679 Y-66.4927
G01 X29.7722 Y-66.4867
G01 X29.7757 Y-66.4803
G01 X29.7782 Y-66.4733
G01 X29.7795 Y-66.4673
G01 X29.7800 Y-66.4612
G01 X29.7800 Y-66.3601
G01 X33.0312 Y-66.3601
G01 X33.0317 Y-66.3668
G01 X33.0363 Y-66.3959
G01 X33.0429 Y-66.4221
G01 X33.0538 Y-66.4520
G01 X33.0654 Y-66.4764
G01 X33.0806 Y-66.5017
G01 X33.0981 Y-66.5253
G01 X33.1179 Y-66.5471
G01 X33.1397 Y-66.5669
G01 X33.1613 Y-66.5830
G01 X33.1908 Y-66.6007
G01 X33.2152 Y-66.6122
G01 X33.2429 Y-66.6221
G01 X33.2715 Y-66.6292
G01 X33.2994 Y-66.6334
G01 X33.3300 Y-66.6350
G01 X34.2300 Y-66.6350
G01 X34.2594 Y-66.6336
G01 X34.2885 Y-66.6292
G01 X34.3171 Y-66.6221
G01 X34.3448 Y-66.6122
G01 X34.3714 Y-66.5996
G01 X34.3967 Y-66.5844
G01 X34.4203 Y-66.5669
G01 X34.4421 Y-66.5471
G01 X34.4627 Y-66.5244
G01 X34.4794 Y-66.5017
G01 X34.4934 Y-66.4786
G01 X34.5072 Y-66.4498
G01 X34.5171 Y-66.4221
G01 X34.5237 Y-66.3959
G01 X34.5287 Y-66.3632
G01 X34.5300 Y-66.3350
G01 X34.5300 Y-65.6850
G01 X34.5286 Y-65.6556
G01 X34.5247 Y-65.6289
G01 X34.5163 Y-65.5956
G01 X34.5072 Y-65.5702
G01 X34.4946 Y-65.5436
G01 X34.4794 Y-65.5183
G01 X34.4634 Y-65.4966
G01 X34.4421 Y-65.4729
G01 X34.4203 Y-65.4531
G01 X34.3987 Y-65.4370
G01 X34.3714 Y-65.4204
G01 X34.3448 Y-65.4078
G01 X34.3194 Y-65.3987
G01 X34.2885 Y-65.3908
G01 X34.2594 Y-65.3864
G01 X34.2300 Y-65.3850
G01 X33.3300 Y-65.3850
G01 X33.2982 Y-65.3867
G01 X33.2715 Y-65.3908
G01 X33.2429 Y-65.3979
G01 X33.2152 Y-65.4078
G01 X33.1886 Y-65.4204
G01 X33.1633 Y-65.4356
G01 X33.1397 Y-65.4531
G01 X33.1179 Y-65.4729
G01 X33.0981 Y-65.4947
G01 X33.0806 Y-65.5183
G01 X33.0666 Y-65.5414
G01 X33.0520 Y-65.5725
G01 X33.0429 Y-65.5979
G01 X33.0355 Y-65.6277
G01 X33.0314 Y-65.6556
G01 X33.0301 Y-65.6825
G01 X33.0300 Y-65.7599
G01 X29.7800 Y-65.7599
G01 X29.7800 Y-65.6600
G01 X29.7795 Y-65.6527
G01 X29.7771 Y-65.6432
G01 X29.7729 Y-65.6343
G01 X29.7670 Y-65.6264
G01 X29.7598 Y-65.6198
G01 X29.7536 Y-65.6159
G01 X29.7468 Y-65.6129
G01 X29.7398 Y-65.6110
G01 X29.7325 Y-65.6101
G01 X29.5801 Y-65.6100
G01 X29.5801 Y-62.2600
G01 X29.6062 Y-62.2600
G01 X29.6356 Y-62.2584
G01 X29.6635 Y-62.2542
G01 X29.6921 Y-62.2471
G01 X29.7198 Y-62.2372
G01 X29.7464 Y-62.2246
G01 X29.7717 Y-62.2094
G01 X29.7934 Y-62.1934
G01 X29.8171 Y-62.1721
G01 X29.8353 Y-62.1522
G01 X29.8558 Y-62.1246
G01 X29.8696 Y-62.1014
G01 X29.8822 Y-62.0748
G01 X29.8921 Y-62.0471
G01 X29.8995 Y-62.0173
G01 X29.9036 Y-61.9894
G01 X29.9050 Y-61.9600
G01 X29.9050 Y-61.0600
G01 X29.9037 Y-61.0318
G01 X29.8992 Y-61.0015
G01 X29.8927 Y-60.9753
G01 X29.8812 Y-60.9430
G01 X29.8696 Y-60.9186
G01 X29.8544 Y-60.8933
G01 X29.8369 Y-60.8697
G01 X29.8180 Y-60.8487
G01 X29.7953 Y-60.8281
G01 X29.7717 Y-60.8106
G01 X29.7464 Y-60.7954
G01 X29.7198 Y-60.7828
G01 X29.6921 Y-60.7729
G01 X29.6635 Y-60.7658
G01 X29.6344 Y-60.7614
G01 X29.6050 Y-60.7600
G01 X28.9550 Y-60.7600
G01 X28.9256 Y-60.7614
G01 X28.8965 Y-60.7658
G01 X28.8703 Y-60.7723
G01 X28.8380 Y-60.7838
G01 X28.8136 Y-60.7954
G01 X28.7883 Y-60.8106
G01 X28.7647 Y-60.8281
G01 X28.7437 Y-60.8470
G01 X28.7231 Y-60.8697
G01 X28.7070 Y-60.8913
G01 X28.6893 Y-60.9208
G01 X28.6778 Y-60.9452
G01 X28.6679 Y-60.9729
G01 X28.6608 Y-61.0015
G01 X28.6563 Y-61.0318
G01 X28.6550 Y-61.0600
G01 X28.6551 Y-61.9625
G00 Z2.0000
G00 X21.6416 Y-66.7099
G01 F60.00
G01 Z-0.0500
G01 F120.00
G01 X21.6115 Y-66.6256
G01 X21.5737 Y-66.5457
G01 X21.5283 Y-66.4700
G01 X21.4757 Y-66.3990
G01 X21.4164 Y-66.3336
G01 X21.3510 Y-66.2743
G01 X21.2800 Y-66.2217
G01 X21.2043 Y-66.1763
G01 X21.1244 Y-66.1385
G01 X21.0413 Y-66.1088
G01 X20.9556 Y-66.0873
G01 X20.8682 Y-66.0743
G01 X20.7800 Y-66.0700
G01 X20.6918 Y-66.0743
G01 X20.6044 Y-66.0873
G01 X20.5187 Y-66.1088
G01 X20.4356 Y-66.1385
G01 X20.3557 Y-66.1763
G01 X20.2800 Y-66.2217
G01 X20.2090 Y-66.2743
G01 X20.1436 Y-66.3336
G01 X20.0843 Y-66.3990
G01 X20.0317 Y-66.4700
G01 X19.9863 Y-66.5457
G01 X19.9485 Y-66.6256
G01 X19.9188 Y-66.7087
G01 X19.8973 Y-66.7944
G01 X19.8843 Y-66.8818
G01 X19.8800 Y-66.9700
G01 X19.8843 Y-67.0582
G01 X19.8973 Y-67.1456
G01 X19.9188 Y-67.2313
G01 X19.9485 Y-67.3144
G01 X19.9852 Y-67.3921
G01 X20.0317 Y-67.4700
G01 X20.0843 Y-67.5410
G01 X20.1419 Y-67.6046
G01 X20.2110 Y-67.6672
G01 X20.2800 Y-67.7183
G01 X20.3557 Y-67.7637
G01 X20.4356 Y-67.8015
G01 X20.5164 Y-67.8305
G01 X20.6068 Y-67.8531
G01 X20.6918 Y-67.8657
G01 X20.7788 Y-67.8700
G01 X20.8707 Y-67.8654
G01 X20.9556 Y-67.8527
G01 X21.0413 Y-67.8312
G01 X21.1244 Y-67.8015
G01 X21.2021 Y-67.7648
G01 X21.2800 Y-67.7183
G01 X21.3510 Y-67.6657
G01 X21.4146 Y-67.6081
G01 X21.4757 Y-67.5410
G01 X21.5283 Y-67.4700
G01 X21.5725 Y-67.3964
G01 X21.6105 Y-67.3167
G01 X21.6131 Y-67.3101
G01 X26.7800 Y-67.3101
G01 X26.7800 Y-67.4112
G01 X26.7805 Y-67.4173
G01 X26.7822 Y-67.4245
G01 X26.7848 Y-67.4314
G01 X26.7884 Y-67.4378
G01 X26.7930 Y-67.4436
G01 X26.7983 Y-67.4487
G01 X26.8043 Y-67.4529
G01 X26.8109 Y-67.4562
G01 X26.8179 Y-67.4585
G01 X26.8251 Y-67.4598
G01 X27.7325 Y-67.4599
G01 X27.7410 Y-67.4588
G01 X27.7491 Y-67.4562
G01 X27.7578 Y-67.4516
G01 X27.7645 Y-67.4462
G01 X27.7702 Y-67.4398
G01 X27.7747 Y-67.4325
G01 X27.7778 Y-67.4245
G01 X27.7796 Y-67.4161
G01 X27.7800 Y-67.4100
G01 X27.7799 Y-66.6075
G01 X27.7788 Y-66.5990
G01 X27.7762 Y-66.5909
G01 X27.7722 Y-66.5833
G01 X27.7670 Y-66.5764
G01 X27.7598 Y-66.5698
G01 X27.7525 Y-66.5653
G01 X27.7445 Y-66.5622
G01 X27.7361 Y-66.5604
G01 X27.7300 Y-66.5600
G01 X26.8300 Y-66.5600
G01 X26.8227 Y-66.5605
G01 X26.8155 Y-66.5622
G01 X26.8097 Y-66.5643
G01 X26.8033 Y-66.5678
G01 X26.7973 Y-66.5721
G01 X26.7921 Y-66.5773
G01 X26.7878 Y-66.5833
G01 X26.7843 Y-66.5897
G01 X26.7818 Y-66.5967
G01 X26.7805 Y-66.6027
G01 X26.7800 Y-66.6088
G01 X26.7800 Y-66.7099
G01 X21.6416 Y-66.7099
G00 Z2.0000
G00 X23.6551 Y-75.9625
G01 F60.00
G01 Z-0.0500
G01 F120.00
G01 X23.6564 Y-75.9894
G01 X23.6608 Y-76.0185
G01 X23.6679 Y-76.0471
G01 X23.6778 Y-76.0748
G01 X23.6904 Y-76.1014
G01 X23.7056 Y-76.1267
G01 X23.7231 Y-76.1503
G01 X23.7446 Y-76.1738
G01 X23.7647 Y-76.1919
G01 X23.7883 Y-76.2094
G01 X23.8136 Y-76.2246
G01 X23.8425 Y-76.2380
G01 X23.8679 Y-76.2471
G01 X23.8989 Y-76.2547
G01 X23.9268 Y-76.2587
G01 X23.9538 Y-76.2600
G01 X23.9799 Y-76.2600
G01 X23.9799 Y-81.9320
G01 X23.9816 Y-81.9638
G01 X23.9856 Y-81.9905
G01 X23.9928 Y-82.0191
G01 X24.0027 Y-82.0468
G01 X24.0165 Y-82.0756
G01 X24.0305 Y-82.0987
G01 X24.0465 Y-82.1205
G01 X24.0669 Y-82.1433
G01 X25.9278 Y-84.0042
G01 X25.9496 Y-84.0240
G01 X25.9713 Y-84.0401
G01 X26.0007 Y-84.0578
G01 X26.0252 Y-84.0693
G01 X26.0529 Y-84.0792
G01 X26.0815 Y-84.0864
G01 X26.1094 Y-84.0906
G01 X26.1400 Y-84.0921
G01 X40.6680 Y-84.0921
G01 X40.6974 Y-84.0907
G01 X40.7265 Y-84.0864
G01 X40.7551 Y-84.0792
G01 X40.7828 Y-84.0693
G01 X40.8095 Y-84.0567
G01 X40.8347 Y-84.0416
G01 X40.8584 Y-84.0240
G01 X40.8802 Y-84.0042
G01 X51.7490 Y-73.1354
G01 X51.7616 Y-73.1411
G01 X51.8343 Y-73.1670
G01 X51.9140 Y-73.1868
G01 X51.9904 Y-73.1981
G01 X52.0675 Y-73.2019
G01 X52.1520 Y-73.1978
G01 X52.2284 Y-73.1864
G01 X52.3033 Y-73.1677
G01 X52.3807 Y-73.1402
G01 X52.4549 Y-73.1049
G01 X52.5211 Y-73.0652
G01 X52.5796 Y-73.0218
G01 X61.0500 Y-81.4922
G01 X61.0738 Y-81.5135
G01 X61.0955 Y-81.5295
G01 X61.1197 Y-81.5441
G01 X61.1474 Y-81.5573
G01 X61.1775 Y-81.5679
G01 X61.2037 Y-81.5744
G01 X61.2304 Y-81.5784
G01 X61.2622 Y-81.5801
G01 X67.1659 Y-81.5801
G01 X67.1708 Y-81.5930
G01 X67.2039 Y-81.6628
G01 X67.2448 Y-81.7311
G01 X67.2923 Y-81.7951
G01 X67.3476 Y-81.8559
G01 X67.4049 Y-81.9077
G01 X67.4669 Y-81.9537
G01 X67.5351 Y-81.9949
G01 X67.6093 Y-82.0302
G01 X67.6843 Y-82.0570
G01 X67.7616 Y-82.0764
G01 X67.8429 Y-82.0883
G01 X67.9225 Y-82.0919
G01 X67.9996 Y-82.0881
G01 X68.0760 Y-82.0768
G01 X68.1557 Y-82.0570
G01 X68.2307 Y-82.0302
G01 X68.3028 Y-81.9961
G01 X68.3721 Y-81.9545
G01 X68.4351 Y-81.9077
G01 X68.4942 Y-81.8542
G01 X68.5477 Y-81.7951
G01 X68.5937 Y-81.7331
G01 X68.6372 Y-81.6606
G01 X68.6702 Y-81.5907
G01 X68.6970 Y-81.5157
G01 X68.7164 Y-81.4384
G01 X68.7281 Y-81.3596
G01 X68.7320 Y-81.2800
G01 X68.7283 Y-81.2029
G01 X68.7164 Y-81.1216
G01 X68.6977 Y-81.0467
G01 X68.6711 Y-80.9716
G01 X68.6654 Y-80.9590
G01 X69.7189 Y-79.9055
G01 X69.7370 Y-79.8854
G01 X69.7545 Y-79.8618
G01 X69.7697 Y-79.8365
G01 X69.7813 Y-79.8121
G01 X69.7928 Y-79.7798
G01 X69.7993 Y-79.7536
G01 X69.8038 Y-79.7232
G01 X69.8051 Y-79.6950
G01 X69.8051 Y-65.2393
G01 X79.6755 Y-55.3689
G01 X79.6935 Y-55.3773
G01 X79.7702 Y-55.4046
G01 X79.8481 Y-55.4241
G01 X79.9274 Y-55.4359
G01 X80.0125 Y-55.4399
G01 X80.0914 Y-55.4360
G01 X80.1719 Y-55.4241
G01 X80.2533 Y-55.4035
G01 X80.3276 Y-55.3768
G01 X80.4013 Y-55.3420
G01 X80.4711 Y-55.3001
G01 X80.5346 Y-55.2531
G01 X80.5969 Y-55.1969
G01 X80.6516 Y-55.1365
G01 X80.6987 Y-55.0731
G01 X80.7420 Y-55.0013
G01 X80.7768 Y-54.9276
G01 X80.8035 Y-54.8533
G01 X80.8241 Y-54.7719
G01 X80.8360 Y-54.6914
G01 X80.8399 Y-54.6125
G01 X80.8359 Y-54.5274
G01 X80.8241 Y-54.4481
G01 X80.8046 Y-54.3702
G01 X80.7773 Y-54.2935
G01 X80.7689 Y-54.2755
G01 X90.0922 Y-44.9522
G01 X90.1120 Y-44.9304
G01 X90.1295 Y-44.9067
G01 X90.1447 Y-44.8815
G01 X90.1577 Y-44.8537
G01 X90.1672 Y-44.8271
G01 X90.1744 Y-44.7986
G01 X90.1787 Y-44.7694
G01 X90.1801 Y-44.7400
G01 X90.1801 Y-31.1100
G01 X90.1789 Y-31.0830
G01 X90.1744 Y-31.0514
G01 X90.1679 Y-31.0252
G01 X90.1563 Y-30.9929
G01 X90.1447 Y-30.9685
G01 X90.1295 Y-30.9433
G01 X90.1120 Y-30.9196
G01 X90.0939 Y-30.8996
G01 X89.1800 Y-29.9856
G01 X89.1800 Y-28.6600
G01 X89.1795 Y-28.6527
G01 X89.1778 Y-28.6455
G01 X89.1747 Y-28.6375
G01 X89.1709 Y-28.6312
G01 X89.1670 Y-28.6264
G01 X89.1627 Y-28.6221
G01 X89.1578 Y-28.6184
G01 X89.1525 Y-28.6153
G01 X89.1468 Y-28.6129
G01 X89.1410 Y-28.6112
G01 X89.1349 Y-28.6102
G01 X89.1300 Y-28.6100
G01 X87.4300 Y-28.6100
G01 X87.4215 Y-28.6107
G01 X87.4120 Y-28.6134
G01 X87.4033 Y-28.6178
G01 X87.3955 Y-28.6238
G01 X87.3891 Y-28.6312
G01 X87.3843 Y-28.6397
G01 X87.3812 Y-28.6490
G01 X87.3804 Y-28.6539
G01 X87.3800 Y-28.6600
G01 X87.3800 Y-30.3612
G01 X87.3812 Y-30.3710
G01 X87.3838 Y-30.3791
G01 X87.3884 Y-30.3878
G01 X87.3946 Y-30.3954
G01 X87.4022 Y-30.4016
G01 X87.4097 Y-30.4057
G01 X87.4190 Y-30.4088
G01 X87.4288 Y-30.4100
G01 X88.7556 Y-30.4100
G01 X89.5799 Y-31.2343
G01 X89.5799 Y-44.6157
G01 X80.3445 Y-53.8511
G01 X80.3265 Y-53.8427
G01 X80.2498 Y-53.8154
G01 X80.1719 Y-53.7959
G01 X80.0926 Y-53.7841
G01 X80.0075 Y-53.7801
G01 X79.9286 Y-53.7840
G01 X79.8481 Y-53.7959
G01 X79.7667 Y-53.8165
G01 X79.6924 Y-53.8432
G01 X79.6187 Y-53.8780
G01 X79.5489 Y-53.9199
G01 X79.4854 Y-53.9669
G01 X79.4231 Y-54.0231
G01 X79.3684 Y-54.0835
G01 X79.3213 Y-54.1469
G01 X79.2780 Y-54.2187
G01 X79.2432 Y-54.2924
G01 X79.2165 Y-54.3667
G01 X79.1959 Y-54.4481
G01 X79.1840 Y-54.5286
G01 X79.1801 Y-54.6075
G01 X79.1841 Y-54.6926
G01 X79.1959 Y-54.7719
G01 X79.2154 Y-54.8498
G01 X79.2427 Y-54.9265
G01 X79.2511 Y-54.9445
G01 X69.2928 Y-64.9028
G01 X69.2715 Y-64.9265
G01 X69.2554 Y-64.9483
G01 X69.2415 Y-64.9714
G01 X69.2277 Y-65.0002
G01 X69.2171 Y-65.0303
G01 X69.2106 Y-65.0565
G01 X69.2066 Y-65.0832
G01 X69.2049 Y-65.1150
G01 X69.2049 Y-79.5707
G01 X68.2410 Y-80.5346
G01 X68.2284 Y-80.5289
G01 X68.1557 Y-80.5030
G01 X68.0784 Y-80.4836
G01 X67.9996 Y-80.4719
G01 X67.9200 Y-80.4680
G01 X67.8404 Y-80.4719
G01 X67.7616 Y-80.4836
G01 X67.6843 Y-80.5030
G01 X67.6093 Y-80.5298
G01 X67.5372 Y-80.5639
G01 X67.4689 Y-80.6048
G01 X67.4049 Y-80.6523
G01 X67.3458 Y-80.7058
G01 X67.2923 Y-80.7649
G01 X67.2448 Y-80.8289
G01 X67.2039 Y-80.8972
G01 X67.1708 Y-80.9670
G01 X67.1659 Y-80.9799
G01 X61.3866 Y-80.9799
G01 X52.8779 Y-72.4712
G01 X52.8820 Y-72.3900
G01 X52.8781 Y-72.3104
G01 X52.8664 Y-72.2316
G01 X52.8463 Y-72.1520
G01 X52.8202 Y-72.0793
G01 X52.7872 Y-72.0094
G01 X52.7465 Y-71.9410
G01 X52.6977 Y-71.8749
G01 X52.6442 Y-71.8158
G01 X52.5851 Y-71.7623
G01 X52.5211 Y-71.7148
G01 X52.4528 Y-71.6739
G01 X52.3830 Y-71.6408
G01 X52.3033 Y-71.6123
G01 X52.2284 Y-71.5936
G01 X52.1496 Y-71.5819
G01 X52.0700 Y-71.5780
G01 X51.9880 Y-71.5822
G01 X51.9116 Y-71.5936
G01 X51.8367 Y-71.6123
G01 X51.7616 Y-71.6389
G01 X51.6872 Y-71.6739
G01 X51.6189 Y-71.7148
G01 X51.5549 Y-71.7623
G01 X51.4950 Y-71.8167
G01 X51.4423 Y-71.8749
G01 X51.3963 Y-71.9369
G01 X51.3539 Y-72.0072
G01 X51.3189 Y-72.0816
G01 X51.2930 Y-72.1543
G01 X51.2736 Y-72.2316
G01 X51.2617 Y-72.3129
G01 X51.2580 Y-72.3900
G01 X51.2619 Y-72.4696
G01 X51.2736 Y-72.5484
G01 X51.2923 Y-72.6233
G01 X51.3189 Y-72.6984
G01 X51.3246 Y-72.7110
G01 X40.5437 Y-83.4919
G01 X26.2643 Y-83.4919
G01 X24.5801 Y-81.8077
G01 X24.5801 Y-76.2600
G01 X24.6062 Y-76.2600
G01 X24.6338 Y-76.2586
G01 X24.6601 Y-76.2549
G01 X24.6871 Y-76.2485
G01 X24.7134 Y-76.2397
G01 X24.7387 Y-76.2285
G01 X24.7629 Y-76.2151
G01 X24.7858 Y-76.1994
G01 X24.8071 Y-76.1817
G01 X24.8267 Y-76.1621
G01 X24.8444 Y-76.1408
G01 X24.8601 Y-76.1179
G01 X24.8735 Y-76.0937
G01 X24.8847 Y-76.0684
G01 X24.8935 Y-76.0421
G01 X24.9001 Y-76.0140
G01 X24.9037 Y-75.9877
G01 X24.9050 Y-75.9600
G01 X24.9050 Y-75.0600
G01 X24.9037 Y-75.0318
G01 X24.8992 Y-75.0015
G01 X24.8927 Y-74.9753
G01 X24.8812 Y-74.9430
G01 X24.8696 Y-74.9186
G01 X24.8544 Y-74.8933
G01 X24.8369 Y-74.8697
G01 X24.8180 Y-74.8487
G01 X24.7953 Y-74.8281
G01 X24.7717 Y-74.8106
G01 X24.7464 Y-74.7954
G01 X24.7198 Y-74.7828
G01 X24.6921 Y-74.7729
G01 X24.6635 Y-74.7658
G01 X24.6344 Y-74.7614
G01 X24.6050 Y-74.7600
G01 X23.9550 Y-74.7600
G01 X23.9256 Y-74.7614
G01 X23.8965 Y-74.7658
G01 X23.8703 Y-74.7723
G01 X23.8380 Y-74.7838
G01 X23.8136 Y-74.7954
G01 X23.7883 Y-74.8106
G01 X23.7647 Y-74.8281
G01 X23.7437 Y-74.8470
G01 X23.7231 Y-74.8697
G01 X23.7070 Y-74.8913
G01 X23.6893 Y-74.9208
G01 X23.6778 Y-74.9452
G01 X23.6679 Y-74.9729
G01 X23.6608 Y-75.0015
G01 X23.6563 Y-75.0318
G01 X23.6550 Y-75.0600
G01 X23.6551 Y-75.9625
G00 Z2.0000
G00 X20.4799 Y-78.5696
G01 F60.00
G01 Z-0.0500
G01 F120.00
G01 X20.4165 Y-78.5923
G01 X20.3322 Y-78.6322
G01 X20.2522 Y-78.6801
G01 X20.1764 Y-78.7364
G01 X20.1082 Y-78.7982
G01 X20.0456 Y-78.8673
G01 X19.9901 Y-78.9422
G01 X19.9416 Y-79.0233
G01 X19.9023 Y-79.1065
G01 X19.8709 Y-79.1942
G01 X19.8483 Y-79.2847
G01 X19.8346 Y-79.3769
G01 X19.8300 Y-79.4700
G01 X19.8346 Y-79.5631
G01 X19.8483 Y-79.6553
G01 X19.8713 Y-79.7469
G01 X19.9023 Y-79.8335
G01 X19.9422 Y-79.9178
G01 X19.9901 Y-79.9978
G01 X20.0456 Y-80.0727
G01 X20.1082 Y-80.1418
G01 X20.1773 Y-80.2044
G01 X20.2522 Y-80.2599
G01 X20.3322 Y-80.3078
G01 X20.4165 Y-80.3477
G01 X20.5042 Y-80.3791
G01 X20.5947 Y-80.4017
G01 X20.6869 Y-80.4154
G01 X20.7800 Y-80.4200
G01 X20.8731 Y-80.4154
G01 X20.9653 Y-80.4017
G01 X21.0569 Y-80.3787
G01 X21.1435 Y-80.3477
G01 X21.2256 Y-80.3089
G01 X21.3098 Y-80.2585
G01 X21.3827 Y-80.2044
G01 X21.4518 Y-80.1418
G01 X21.5144 Y-80.0727
G01 X21.5685 Y-79.9998
G01 X21.6189 Y-79.9156
G01 X21.6577 Y-79.8335
G01 X21.6891 Y-79.7458
G01 X21.7122 Y-79.6529
G01 X21.7254 Y-79.5631
G01 X21.7300 Y-79.4700
G01 X21.7251 Y-79.3744
G01 X21.7117 Y-79.2847
G01 X21.6891 Y-79.1942
G01 X21.6577 Y-79.1065
G01 X21.6189 Y-79.0244
G01 X21.5692 Y-78.9412
G01 X21.5144 Y-78.8673
G01 X21.4534 Y-78.8000
G01 X21.3807 Y-78.7341
G01 X21.3078 Y-78.6801
G01 X21.2278 Y-78.6322
G01 X21.1435 Y-78.5923
G01 X21.0801 Y-78.5696
G01 X21.0801 Y-77.0843
G01 X21.9044 Y-76.2600
G01 X22.5550 Y-76.2600
G01 X22.5868 Y-76.2583
G01 X22.6135 Y-76.2542
G01 X22.6444 Y-76.2463
G01 X22.6698 Y-76.2372
G01 X22.6942 Y-76.2257
G01 X22.7196 Y-76.2108
G01 X22.7453 Y-76.1919
G01 X22.7671 Y-76.1721
G01 X22.7869 Y-76.1503
G01 X22.8037 Y-76.1277
G01 X22.8207 Y-76.0992
G01 X22.8322 Y-76.0748
G01 X22.8421 Y-76.0471
G01 X22.8497 Y-76.0161
G01 X22.8536 Y-75.9894
G01 X22.8549 Y-75.9625
G01 X22.8550 Y-75.0600
G01 X22.8537 Y-75.0318
G01 X22.8492 Y-75.0015
G01 X22.8413 Y-74.9706
G01 X22.8322 Y-74.9452
G01 X22.8207 Y-74.9208
G01 X22.8044 Y-74.8933
G01 X22.7869 Y-74.8697
G01 X22.7654 Y-74.8462
G01 X22.7453 Y-74.8281
G01 X22.7237 Y-74.8120
G01 X22.6986 Y-74.7966
G01 X22.6698 Y-74.7828
G01 X22.6397 Y-74.7723
G01 X22.6135 Y-74.7658
G01 X22.5868 Y-74.7617
G01 X22.5575 Y-74.7601
G01 X21.9027 Y-74.7601
G01 X21.8773 Y-74.7613
G01 X21.8499 Y-74.7651
G01 X21.8229 Y-74.7715
G01 X21.7966 Y-74.7803
G01 X21.7713 Y-74.7915
G01 X21.7471 Y-74.8049
G01 X21.7242 Y-74.8206
G01 X21.7029 Y-74.8383
G01 X21.6833 Y-74.8579
G01 X21.6656 Y-74.8792
G01 X21.6499 Y-74.9021
G01 X21.6365 Y-74.9263
G01 X21.6253 Y-74.9516
G01 X21.6165 Y-74.9779
G01 X21.6101 Y-75.0049
G01 X21.6064 Y-75.0312
G01 X21.6050 Y-75.0600
G01 X21.6050 Y-75.7106
G01 X20.5678 Y-76.7478
G01 X20.5465 Y-76.7715
G01 X20.5305 Y-76.7933
G01 X20.5165 Y-76.8164
G01 X20.5027 Y-76.8451
G01 X20.4921 Y-76.8752
G01 X20.4856 Y-76.9014
G01 X20.4816 Y-76.9281
G01 X20.4799 Y-76.9588
G01 X20.4799 Y-78.5696
G00 Z2.0000
G00 X18.8299 Y-80.3625
G01 F60.00
G01 Z-0.0500
G01 F120.00
G01 X18.8313 Y-80.3894
G01 X18.8356 Y-80.4186
G01 X18.8428 Y-80.4471
G01 X18.8518 Y-80.4726
G01 X18.8665 Y-80.5036
G01 X18.8805 Y-80.5267
G01 X18.8996 Y-80.5523
G01 X18.9178 Y-80.5722
G01 X19.8300 Y-81.4844
G01 X19.8300 Y-82.9100
G01 X19.8310 Y-82.9198
G01 X19.8338 Y-82.9291
G01 X19.8384 Y-82.9378
G01 X19.8446 Y-82.9454
G01 X19.8522 Y-82.9516
G01 X19.8609 Y-82.9562
G01 X19.8702 Y-82.9590
G01 X19.8800 Y-82.9600
G01 X21.3056 Y-82.9600
G01 X26.9799 Y-88.6343
G01 X26.9799 Y-98.3059
G01 X26.9670 Y-98.3108
G01 X26.8951 Y-98.3451
G01 X26.8289 Y-98.3848
G01 X26.7649 Y-98.4323
G01 X26.7058 Y-98.4858
G01 X26.6539 Y-98.5430
G01 X26.6035 Y-98.6110
G01 X26.5639 Y-98.6772
G01 X26.5298 Y-98.7493
G01 X26.5030 Y-98.8243
G01 X26.4841 Y-98.8992
G01 X26.4717 Y-98.9829
G01 X26.4680 Y-99.0600
G01 X26.4717 Y-99.1371
G01 X26.4836 Y-99.2184
G01 X26.5030 Y-99.2957
G01 X26.5298 Y-99.3707
G01 X26.5651 Y-99.4449
G01 X26.6048 Y-99.5111
G01 X26.6508 Y-99.5732
G01 X26.7041 Y-99.6324
G01 X26.7649 Y-99.6877
G01 X26.8310 Y-99.7365
G01 X26.8994 Y-99.7772
G01 X26.9693 Y-99.8102
G01 X27.0420 Y-99.8363
G01 X27.1216 Y-99.8564
G01 X27.2004 Y-99.8681
G01 X27.2825 Y-99.8719
G01 X27.3596 Y-99.8681
G01 X27.4360 Y-99.8568
G01 X27.5157 Y-99.8370
G01 X27.5919 Y-99.8097
G01 X27.6628 Y-99.7761
G01 X27.7290 Y-99.7365
G01 X27.7951 Y-99.6877
G01 X27.8542 Y-99.6342
G01 X27.9061 Y-99.5770
G01 X27.9552 Y-99.5111
G01 X27.9961 Y-99.4428
G01 X28.0292 Y-99.3730
G01 X28.0570 Y-99.2957
G01 X28.0768 Y-99.2160
G01 X28.0881 Y-99.1396
G01 X28.0920 Y-99.0600
G01 X28.0878 Y-98.9780
G01 X28.0764 Y-98.9016
G01 X28.0570 Y-98.8243
G01 X28.0302 Y-98.7493
G01 X27.9972 Y-98.6794
G01 X27.9552 Y-98.6089
G01 X27.9061 Y-98.5430
G01 X27.8542 Y-98.4858
G01 X27.7951 Y-98.4323
G01 X27.7311 Y-98.3848
G01 X27.6649 Y-98.3451
G01 X27.5930 Y-98.3108
G01 X27.5801 Y-98.3059
G01 X27.5801 Y-88.5100
G01 X27.5784 Y-88.4781
G01 X27.5744 Y-88.4514
G01 X27.5675 Y-88.4241
G01 X27.5573 Y-88.3951
G01 X27.5435 Y-88.3664
G01 X27.5295 Y-88.3433
G01 X27.5135 Y-88.3215
G01 X27.4922 Y-88.2978
G01 X21.7300 Y-82.5356
G01 X21.7300 Y-81.1100
G01 X21.7290 Y-81.1002
G01 X21.7262 Y-81.0909
G01 X21.7216 Y-81.0822
G01 X21.7154 Y-81.0746
G01 X21.7078 Y-81.0684
G01 X21.6991 Y-81.0638
G01 X21.6898 Y-81.0610
G01 X21.6800 Y-81.0600
G01 X20.2544 Y-81.0600
G01 X19.4301 Y-80.2357
G01 X19.4301 Y-71.2843
G01 X20.3044 Y-70.4100
G01 X21.2556 Y-70.4100
G01 X25.3049 Y-74.4593
G01 X25.3049 Y-81.8428
G01 X25.3066 Y-81.8746
G01 X25.3107 Y-81.9013
G01 X25.3178 Y-81.9299
G01 X25.3277 Y-81.9576
G01 X25.3392 Y-81.9821
G01 X25.3569 Y-82.0115
G01 X25.3730 Y-82.0332
G01 X25.3911 Y-82.0532
G01 X26.3420 Y-83.0042
G01 X26.3638 Y-83.0240
G01 X26.3875 Y-83.0415
G01 X26.4128 Y-83.0567
G01 X26.4394 Y-83.0693
G01 X26.4671 Y-83.0792
G01 X26.4957 Y-83.0864
G01 X26.5248 Y-83.0907
G01 X26.5530 Y-83.0921
G01 X39.1280 Y-83.0921
G01 X39.1574 Y-83.0907
G01 X39.1866 Y-83.0864
G01 X39.2151 Y-83.0792
G01 X39.2440 Y-83.0688
G01 X39.2695 Y-83.0567
G01 X39.2947 Y-83.0415
G01 X39.3184 Y-83.0240
G01 X39.3402 Y-83.0042
G01 X49.2090 Y-73.1354
G01 X49.2216 Y-73.1411
G01 X49.2967 Y-73.1677
G01 X49.3716 Y-73.1864
G01 X49.4504 Y-73.1981
G01 X49.5300 Y-73.2020
G01 X49.6071 Y-73.1983
G01 X49.6884 Y-73.1864
G01 X49.7680 Y-73.1663
G01 X49.8407 Y-73.1402
G01 X49.9128 Y-73.1061
G01 X49.9831 Y-73.0637
G01 X50.0451 Y-73.0177
G01 X50.1042 Y-72.9642
G01 X50.1577 Y-72.9051
G01 X50.2065 Y-72.8390
G01 X50.2461 Y-72.7728
G01 X50.2792 Y-72.7030
G01 X50.3070 Y-72.6257
G01 X50.3268 Y-72.5460
G01 X50.3381 Y-72.4696
G01 X50.3419 Y-72.3925
G01 X50.3381 Y-72.3104
G01 X50.3259 Y-72.2292
G01 X50.3070 Y-72.1543
G01 X50.2811 Y-72.0816
G01 X50.2461 Y-72.0072
G01 X50.2037 Y-71.9369
G01 X50.1577 Y-71.8749
G01 X50.1059 Y-71.8176
G01 X50.0451 Y-71.7623
G01 X49.9790 Y-71.7135
G01 X49.9128 Y-71.6739
G01 X49.8430 Y-71.6408
G01 X49.7657 Y-71.6130
G01 X49.6860 Y-71.5932
G01 X49.6096 Y-71.5819
G01 X49.5325 Y-71.5781
G01 X49.4504 Y-71.5819
G01 X49.3692 Y-71.5941
G01 X49.2943 Y-71.6130
G01 X49.2216 Y-71.6389
G01 X49.1472 Y-71.6739
G01 X49.0769 Y-71.7163
G01 X49.0149 Y-71.7623
G01 X48.9576 Y-71.8141
G01 X48.9008 Y-71.8768
G01 X48.8548 Y-71.9389
G01 X48.8139 Y-72.0072
G01 X48.7789 Y-72.0816
G01 X48.7530 Y-72.1543
G01 X48.7336 Y-72.2316
G01 X48.7217 Y-72.3129
G01 X48.7180 Y-72.3900
G01 X48.7219 Y-72.4696
G01 X48.7336 Y-72.5484
G01 X48.7523 Y-72.6233
G01 X48.7789 Y-72.6984
G01 X48.7846 Y-72.7110
G01 X39.0037 Y-82.4919
G01 X26.6786 Y-82.4919
G01 X25.9051 Y-81.7185
G01 X25.9051 Y-74.3350
G01 X25.9037 Y-74.3056
G01 X25.8994 Y-74.2765
G01 X25.8922 Y-74.2479
G01 X25.8818 Y-74.2190
G01 X25.8697 Y-74.1935
G01 X25.8546 Y-74.1683
G01 X25.8370 Y-74.1446
G01 X25.8172 Y-74.1228
G01 X21.6800 Y-69.9856
G01 X21.6800 Y-68.6600
G01 X21.6790 Y-68.6502
G01 X21.6762 Y-68.6409
G01 X21.6716 Y-68.6322
G01 X21.6654 Y-68.6246
G01 X21.6578 Y-68.6184
G01 X21.6491 Y-68.6138
G01 X21.6398 Y-68.6110
G01 X21.6300 Y-68.6100
G01 X20.3044 Y-68.6100
G01 X19.4801 Y-67.7857
G01 X19.4801 Y-66.3263
G01 X23.9963 Y-61.8101
G01 X26.6050 Y-61.8101
G01 X26.6050 Y-61.9600
G01 X26.6064 Y-61.9894
G01 X26.6108 Y-62.0185
G01 X26.6173 Y-62.0447
G01 X26.6283 Y-62.0759
G01 X26.6404 Y-62.1014
G01 X26.6556 Y-62.1267
G01 X26.6731 Y-62.1503
G01 X26.6929 Y-62.1721
G01 X26.7147 Y-62.1919
G01 X26.7383 Y-62.2094
G01 X26.7636 Y-62.2246
G01 X26.7902 Y-62.2372
G01 X26.8179 Y-62.2471
G01 X26.8465 Y-62.2542
G01 X26.8756 Y-62.2586
G01 X26.9038 Y-62.2600
G01 X27.5562 Y-62.2600
G01 X27.5850 Y-62.2585
G01 X27.6101 Y-62.2549
G01 X27.6360 Y-62.2489
G01 X27.6634 Y-62.2397
G01 X27.6866 Y-62.2295
G01 X27.7149 Y-62.2138
G01 X27.7358 Y-62.1994
G01 X27.7571 Y-62.1817
G01 X27.7767 Y-62.1621
G01 X27.7944 Y-62.1408
G01 X27.8101 Y-62.1179
G01 X27.8225 Y-62.0958
G01 X27.8355 Y-62.0662
G01 X27.8435 Y-62.0421
G01 X27.8499 Y-62.0151
G01 X27.8537 Y-61.9877
G01 X27.8550 Y-61.9612
G01 X27.8550 Y-61.0600
G01 X27.8536 Y-61.0306
G01 X27.8497 Y-61.0039
G01 X27.8421 Y-60.9729
G01 X27.8312 Y-60.9430
G01 X27.8196 Y-60.9186
G01 X27.8058 Y-60.8954
G01 X27.7877 Y-60.8706
G01 X27.7671 Y-60.8479
G01 X27.7444 Y-60.8273
G01 X27.7196 Y-60.8092
G01 X27.6964 Y-60.7954
G01 X27.6779 Y-60.7866
G01 X28.3743 Y-60.0901
G01 X30.5612 Y-60.0901
G01 X30.5894 Y-60.0887
G01 X30.6186 Y-60.0844
G01 X30.6471 Y-60.0772
G01 X30.6749 Y-60.0673
G01 X30.7015 Y-60.0547
G01 X30.7267 Y-60.0395
G01 X30.7504 Y-60.0220
G01 X30.7713 Y-60.0031
G01 X30.7920 Y-59.9804
G01 X30.8095 Y-59.9567
G01 X30.8247 Y-59.9315
G01 X30.8373 Y-59.9049
G01 X30.8472 Y-59.8771
G01 X30.8544 Y-59.8486
G01 X30.8587 Y-59.8194
G01 X30.8601 Y-59.7912
G01 X30.8601 Y-55.5543
G01 X33.0343 Y-53.3801
G01 X65.6557 Y-53.3801
G01 X66.5511 Y-54.2755
G01 X66.5427 Y-54.2935
G01 X66.5161 Y-54.3679
G01 X66.4955 Y-54.4505
G01 X66.4840 Y-54.5286
G01 X66.4801 Y-54.6075
G01 X66.4843 Y-54.6938
G01 X66.4959 Y-54.7719
G01 X66.5151 Y-54.8486
G01 X66.5432 Y-54.9276
G01 X66.5792 Y-55.0034
G01 X66.6199 Y-55.0711
G01 X66.6684 Y-55.1365
G01 X66.7231 Y-55.1969
G01 X66.7854 Y-55.2531
G01 X66.8510 Y-55.3014
G01 X66.9187 Y-55.3420
G01 X66.9901 Y-55.3758
G01 X67.0691 Y-55.4043
G01 X67.1481 Y-55.4241
G01 X67.2286 Y-55.4360
G01 X67.3100 Y-55.4400
G01 X67.3914 Y-55.4360
G01 X67.4743 Y-55.4235
G01 X67.5533 Y-55.4035
G01 X67.6276 Y-55.3768
G01 X67.6991 Y-55.3431
G01 X67.7711 Y-55.3001
G01 X67.8365 Y-55.2516
G01 X67.8969 Y-55.1969
G01 X67.9516 Y-55.1365
G01 X68.0001 Y-55.0711
G01 X68.0408 Y-55.0034
G01 X68.0768 Y-54.9276
G01 X68.1049 Y-54.8486
G01 X68.1241 Y-54.7719
G01 X68.1357 Y-54.6938
G01 X68.1399 Y-54.6075
G01 X68.1360 Y-54.5286
G01 X68.1245 Y-54.4505
G01 X68.1039 Y-54.3679
G01 X68.0773 Y-54.2935
G01 X68.0689 Y-54.2755
G01 X68.9643 Y-53.3801
G01 X72.3300 Y-53.3801
G01 X72.3594 Y-53.3787
G01 X72.3886 Y-53.3744
G01 X72.4171 Y-53.3672
G01 X72.4449 Y-53.3573
G01 X72.4715 Y-53.3447
G01 X72.4967 Y-53.3295
G01 X72.5204 Y-53.3120
G01 X72.5422 Y-53.2922
G01 X87.8930 Y-37.9414
G01 X87.9367 Y-37.9619
G01 X88.0199 Y-37.9916
G01 X88.1044 Y-38.0127
G01 X88.1906 Y-38.0255
G01 X88.2825 Y-38.0299
G01 X88.3682 Y-38.0257
G01 X88.4544 Y-38.0129
G01 X88.5436 Y-37.9905
G01 X88.6244 Y-37.9615
G01 X88.7043 Y-37.9237
G01 X88.7800 Y-37.8783
G01 X88.8490 Y-37.8272
G01 X88.9164 Y-37.7664
G01 X88.9757 Y-37.7010
G01 X89.0269 Y-37.6320
G01 X89.0748 Y-37.5521
G01 X89.1115 Y-37.4744
G01 X89.1412 Y-37.3913
G01 X89.1627 Y-37.3056
G01 X89.1757 Y-37.2182
G01 X89.1800 Y-37.1300
G01 X89.1758 Y-37.0442
G01 X89.1622 Y-36.9520
G01 X89.1412 Y-36.8687
G01 X89.1115 Y-36.7856
G01 X89.0737 Y-36.7057
G01 X89.0290 Y-36.6310
G01 X88.9757 Y-36.5590
G01 X88.9164 Y-36.4936
G01 X88.8510 Y-36.4343
G01 X88.7779 Y-36.3804
G01 X88.7021 Y-36.3352
G01 X88.6244 Y-36.2985
G01 X88.5436 Y-36.2695
G01 X88.4556 Y-36.2473
G01 X88.3682 Y-36.2343
G01 X88.2800 Y-36.2300
G01 X88.1918 Y-36.2343
G01 X88.1044 Y-36.2473
G01 X88.0164 Y-36.2695
G01 X87.9356 Y-36.2985
G01 X87.8579 Y-36.3352
G01 X87.7821 Y-36.3804
G01 X87.7090 Y-36.4343
G01 X87.6445 Y-36.4927
G01 X87.5828 Y-36.5610
G01 X87.5317 Y-36.6300
G01 X87.4863 Y-36.7057
G01 X87.4485 Y-36.7856
G01 X87.4195 Y-36.8664
G01 X87.3971 Y-36.9556
G01 X87.3843 Y-37.0418
G01 X87.3801 Y-37.1275
G01 X87.3845 Y-37.2194
G01 X87.3973 Y-37.3056
G01 X87.4184 Y-37.3901
G01 X87.4481 Y-37.4733
G01 X87.4686 Y-37.5170
G01 X72.2057 Y-52.7799
G01 X68.8400 Y-52.7799
G01 X68.8106 Y-52.7813
G01 X68.7802 Y-52.7859
G01 X68.7529 Y-52.7928
G01 X68.7274 Y-52.8018
G01 X68.6985 Y-52.8153
G01 X68.6713 Y-52.8319
G01 X68.6496 Y-52.8480
G01 X68.6287 Y-52.8669
G01 X67.6445 Y-53.8511
G01 X67.6265 Y-53.8427
G01 X67.5521 Y-53.8161
G01 X67.4731 Y-53.7962
G01 X67.3914 Y-53.7840
G01 X67.3100 Y-53.7800
G01 X67.2286 Y-53.7840
G01 X67.1469 Y-53.7962
G01 X67.0679 Y-53.8161
G01 X66.9935 Y-53.8427
G01 X66.9755 Y-53.8511
G01 X65.9922 Y-52.8678
G01 X65.9723 Y-52.8496
G01 X65.9467 Y-52.8305
G01 X65.9236 Y-52.8165
G01 X65.8926 Y-52.8018
G01 X65.8671 Y-52.7928
G01 X65.8386 Y-52.7856
G01 X65.8094 Y-52.7813
G01 X65.7812 Y-52.7799
G01 X32.9100 Y-52.7799
G01 X32.8781 Y-52.7816
G01 X32.8514 Y-52.7856
G01 X32.8229 Y-52.7928
G01 X32.7929 Y-52.8037
G01 X32.7685 Y-52.8153
G01 X32.7443 Y-52.8298
G01 X32.7196 Y-52.8480
G01 X32.6978 Y-52.8678
G01 X30.3478 Y-55.2178
G01 X30.3280 Y-55.2396
G01 X30.3105 Y-55.2633
G01 X30.2953 Y-55.2885
G01 X30.2823 Y-55.3163
G01 X30.2728 Y-55.3429
G01 X30.2656 Y-55.3714
G01 X30.2613 Y-55.4006
G01 X30.2599 Y-55.4300
G01 X30.2599 Y-59.4899
G01 X28.2500 Y-59.4899
G01 X28.2206 Y-59.4913
G01 X28.1914 Y-59.4956
G01 X28.1629 Y-59.5028
G01 X28.1329 Y-59.5137
G01 X28.1085 Y-59.5253
G01 X28.0833 Y-59.5405
G01 X28.0596 Y-59.5580
G01 X28.0387 Y-59.5769
G01 X27.0169 Y-60.5987
G01 X26.9980 Y-60.6196
G01 X26.9819 Y-60.6413
