(G-CODE GENERATED BY FLATCAM v8.993 - www.flatcam.org - Version Date: 2020/06/05)

(Name: ESP32Focuser-B_Cu.gbr_0.5000_iso_cnc)
(Type: G-code from Geometry)
(Units: MM)

(Created on Samstag, 19 September 2020 at 22:31)

(This preprocessor is the default preprocessor used by FlatCAM.)
(It is made to work with MACH3 compatible motion controllers.)

(TOOL DIAMETER: 0.5 mm)
(Feedrate_XY: 120.0 mm/min)
(Feedrate_Z: 60.0 mm/min)
(Feedrate rapids 1500.0 mm/min)

(Z_Cut: -0.05 mm)
(Z_Move: 2.0 mm)
(Z Start: None mm)
(Z End: 15.0 mm)
(Steps per circle: 64)
(Preprocessor Geometry: default)

(X range:   18.3299 ...  100.7300  mm)
(Y range: -101.9600 ...  -27.5600  mm)

(Spindle Speed: None RPM)
G21
G90
G94



G01 F120.00
G00 Z2.0000

M03
G00 X25.2297 Y-30.9977
G01 F60.00
G01 Z-0.0500
G01 F120.00
G01 X25.2143 Y-30.6841
G01 X25.2134 Y-30.6718
G01 X25.2119 Y-30.6597
G01 X25.1658 Y-30.3490
G01 X25.1637 Y-30.3369
G01 X25.1610 Y-30.3250
G01 X25.0847 Y-30.0203
G01 X25.0814 Y-30.0085
G01 X25.0776 Y-29.9969
G01 X24.9718 Y-29.7012
G01 X24.9674 Y-29.6897
G01 X24.9624 Y-29.6785
G01 X24.8281 Y-29.3946
G01 X24.8226 Y-29.3837
G01 X24.8166 Y-29.3730
G01 X24.6551 Y-29.1036
G01 X24.6486 Y-29.0933
G01 X24.6415 Y-29.0833
G01 X24.4544 Y-28.8310
G01 X24.4469 Y-28.8213
G01 X24.4389 Y-28.8121
G01 X24.2280 Y-28.5794
G01 X24.2195 Y-28.5705
G01 X24.2106 Y-28.5620
G01 X23.9779 Y-28.3511
G01 X23.9687 Y-28.3431
G01 X23.9590 Y-28.3356
G01 X23.7067 Y-28.1485
G01 X23.6967 Y-28.1414
G01 X23.6864 Y-28.1349
G01 X23.4170 Y-27.9734
G01 X23.4063 Y-27.9674
G01 X23.3954 Y-27.9619
G01 X23.1115 Y-27.8276
G01 X23.1003 Y-27.8226
G01 X23.0888 Y-27.8182
G01 X22.7931 Y-27.7124
G01 X22.7815 Y-27.7086
G01 X22.7697 Y-27.7053
G01 X22.4650 Y-27.6290
G01 X22.4531 Y-27.6263
G01 X22.4410 Y-27.6242
G01 X22.1303 Y-27.5781
G01 X22.1182 Y-27.5766
G01 X22.1059 Y-27.5757
G01 X21.7923 Y-27.5603
G01 X21.7800 Y-27.5600
G01 X21.7677 Y-27.5603
G01 X21.4541 Y-27.5757
G01 X21.4418 Y-27.5766
G01 X21.4297 Y-27.5781
G01 X21.1190 Y-27.6242
G01 X21.1069 Y-27.6263
G01 X21.0950 Y-27.6290
G01 X20.7903 Y-27.7053
G01 X20.7785 Y-27.7086
G01 X20.7669 Y-27.7124
G01 X20.4712 Y-27.8182
G01 X20.4597 Y-27.8226
G01 X20.4485 Y-27.8276
G01 X20.1646 Y-27.9619
G01 X20.1537 Y-27.9674
G01 X20.1430 Y-27.9734
G01 X19.8736 Y-28.1349
G01 X19.8633 Y-28.1414
G01 X19.8533 Y-28.1485
G01 X19.6010 Y-28.3356
G01 X19.5913 Y-28.3431
G01 X19.5821 Y-28.3511
G01 X19.3494 Y-28.5620
G01 X19.3405 Y-28.5705
G01 X19.3320 Y-28.5794
G01 X19.1211 Y-28.8121
G01 X19.1131 Y-28.8213
G01 X19.1056 Y-28.8310
G01 X18.9185 Y-29.0833
G01 X18.9114 Y-29.0933
G01 X18.9049 Y-29.1036
G01 X18.7434 Y-29.3730
G01 X18.7374 Y-29.3837
G01 X18.7319 Y-29.3946
G01 X18.5976 Y-29.6785
G01 X18.5926 Y-29.6897
G01 X18.5882 Y-29.7012
G01 X18.4824 Y-29.9969
G01 X18.4786 Y-30.0085
G01 X18.4753 Y-30.0203
G01 X18.3990 Y-30.3250
G01 X18.3963 Y-30.3369
G01 X18.3942 Y-30.3490
G01 X18.3481 Y-30.6597
G01 X18.3466 Y-30.6718
G01 X18.3457 Y-30.6841
G01 X18.3303 Y-30.9977
G01 X18.3300 Y-31.0100
G01 X18.3303 Y-31.0223
G01 X18.3457 Y-31.3359
G01 X18.3466 Y-31.3482
G01 X18.3481 Y-31.3603
G01 X18.3942 Y-31.6710
G01 X18.3963 Y-31.6831
G01 X18.3990 Y-31.6950
G01 X18.4753 Y-31.9997
G01 X18.4786 Y-32.0115
G01 X18.4824 Y-32.0231
G01 X18.5882 Y-32.3188
G01 X18.5926 Y-32.3303
G01 X18.5976 Y-32.3415
G01 X18.7319 Y-32.6254
G01 X18.7374 Y-32.6363
G01 X18.7434 Y-32.6470
G01 X18.9049 Y-32.9164
G01 X18.9114 Y-32.9267
G01 X18.9185 Y-32.9367
G01 X19.1056 Y-33.1890
G01 X19.1131 Y-33.1987
G01 X19.1211 Y-33.2079
G01 X19.3320 Y-33.4406
G01 X19.3405 Y-33.4495
G01 X19.3494 Y-33.4580
G01 X19.5821 Y-33.6689
G01 X19.5913 Y-33.6769
G01 X19.6010 Y-33.6844
G01 X19.8533 Y-33.8715
G01 X19.8633 Y-33.8786
G01 X19.8736 Y-33.8851
G01 X20.1430 Y-34.0466
G01 X20.1537 Y-34.0526
G01 X20.1646 Y-34.0581
G01 X20.4485 Y-34.1924
G01 X20.4597 Y-34.1974
G01 X20.4712 Y-34.2018
G01 X20.7669 Y-34.3076
G01 X20.7785 Y-34.3114
G01 X20.7903 Y-34.3147
G01 X21.0950 Y-34.3910
G01 X21.1069 Y-34.3937
G01 X21.1190 Y-34.3958
G01 X21.4297 Y-34.4419
G01 X21.4418 Y-34.4434
G01 X21.4541 Y-34.4443
G01 X21.7677 Y-34.4597
G01 X21.7800 Y-34.4600
G01 X21.7923 Y-34.4597
G01 X22.1059 Y-34.4443
G01 X22.1182 Y-34.4434
G01 X22.1303 Y-34.4419
G01 X22.4410 Y-34.3958
G01 X22.4531 Y-34.3937
G01 X22.4650 Y-34.3910
G01 X22.7697 Y-34.3147
G01 X22.7815 Y-34.3114
G01 X22.7931 Y-34.3076
G01 X23.0888 Y-34.2018
G01 X23.1003 Y-34.1974
G01 X23.1115 Y-34.1924
G01 X23.3954 Y-34.0581
G01 X23.4063 Y-34.0526
G01 X23.4170 Y-34.0466
G01 X23.6864 Y-33.8851
G01 X23.6967 Y-33.8786
G01 X23.7067 Y-33.8715
G01 X23.9590 Y-33.6844
G01 X23.9687 Y-33.6769
G01 X23.9779 Y-33.6689
G01 X24.2106 Y-33.4580
G01 X24.2195 Y-33.4495
G01 X24.2280 Y-33.4406
G01 X24.4389 Y-33.2079
G01 X24.4469 Y-33.1987
G01 X24.4544 Y-33.1890
G01 X24.6415 Y-32.9367
G01 X24.6486 Y-32.9267
G01 X24.6551 Y-32.9164
G01 X24.8166 Y-32.6470
G01 X24.8226 Y-32.6363
G01 X24.8281 Y-32.6254
G01 X24.9624 Y-32.3415
G01 X24.9674 Y-32.3303
G01 X24.9718 Y-32.3188
G01 X25.0776 Y-32.0231
G01 X25.0814 Y-32.0115
G01 X25.0847 Y-31.9997
G01 X25.1610 Y-31.6950
G01 X25.1637 Y-31.6831
G01 X25.1658 Y-31.6710
G01 X25.2119 Y-31.3603
G01 X25.2134 Y-31.3482
G01 X25.2143 Y-31.3359
G01 X25.2297 Y-31.0223
G01 X25.2300 Y-31.0100
G01 X25.2297 Y-30.9977
G00 Z2.0000
G00 X35.3197 Y-29.1977
G01 F60.00
G01 Z-0.0500
G01 F120.00
G01 X35.3159 Y-29.1213
G01 X35.3150 Y-29.1090
G01 X35.3135 Y-29.0969
G01 X35.3023 Y-29.0211
G01 X35.3002 Y-29.0091
G01 X35.2975 Y-28.9971
G01 X35.2789 Y-28.9228
G01 X35.2756 Y-28.9110
G01 X35.2718 Y-28.8994
G01 X35.2460 Y-28.8273
G01 X35.2416 Y-28.8158
G01 X35.2366 Y-28.8046
G01 X35.2039 Y-28.7354
G01 X35.1984 Y-28.7245
G01 X35.1923 Y-28.7138
G01 X35.1530 Y-28.6481
G01 X35.1464 Y-28.6378
G01 X35.1393 Y-28.6277
G01 X35.0937 Y-28.5662
G01 X35.0862 Y-28.5566
G01 X35.0782 Y-28.5473
G01 X35.0268 Y-28.4906
G01 X35.0183 Y-28.4817
G01 X35.0094 Y-28.4732
G01 X34.9527 Y-28.4218
G01 X34.9434 Y-28.4138
G01 X34.9338 Y-28.4063
G01 X34.8723 Y-28.3607
G01 X34.8622 Y-28.3536
G01 X34.8519 Y-28.3470
G01 X34.7862 Y-28.3077
G01 X34.7755 Y-28.3016
G01 X34.7646 Y-28.2961
G01 X34.6954 Y-28.2634
G01 X34.6842 Y-28.2584
G01 X34.6727 Y-28.2540
G01 X34.6006 Y-28.2282
G01 X34.5890 Y-28.2244
G01 X34.5772 Y-28.2211
G01 X34.5029 Y-28.2025
G01 X34.4909 Y-28.1998
G01 X34.4789 Y-28.1977
G01 X34.4031 Y-28.1865
G01 X34.3910 Y-28.1850
G01 X34.3787 Y-28.1841
G01 X34.3023 Y-28.1803
G01 X34.2900 Y-28.1800
G01 X34.2777 Y-28.1803
G01 X34.2013 Y-28.1841
G01 X34.1890 Y-28.1850
G01 X34.1769 Y-28.1865
G01 X34.1011 Y-28.1977
G01 X34.0891 Y-28.1998
G01 X34.0771 Y-28.2025
G01 X34.0028 Y-28.2211
G01 X33.9910 Y-28.2244
G01 X33.9794 Y-28.2282
G01 X33.9073 Y-28.2540
G01 X33.8958 Y-28.2584
G01 X33.8846 Y-28.2634
G01 X33.8154 Y-28.2961
G01 X33.8045 Y-28.3016
G01 X33.7938 Y-28.3077
G01 X33.7281 Y-28.3470
G01 X33.7178 Y-28.3536
G01 X33.7077 Y-28.3607
G01 X33.6462 Y-28.4063
G01 X33.6366 Y-28.4138
G01 X33.6273 Y-28.4218
G01 X33.5706 Y-28.4732
G01 X33.5617 Y-28.4817
G01 X33.5532 Y-28.4906
G01 X33.5018 Y-28.5473
G01 X33.4938 Y-28.5566
G01 X33.4863 Y-28.5662
G01 X33.4407 Y-28.6277
G01 X33.4336 Y-28.6378
G01 X33.4270 Y-28.6481
G01 X33.3877 Y-28.7138
G01 X33.3816 Y-28.7245
G01 X33.3761 Y-28.7354
G01 X33.3434 Y-28.8046
G01 X33.3384 Y-28.8158
G01 X33.3340 Y-28.8273
G01 X33.3082 Y-28.8994
G01 X33.3044 Y-28.9110
G01 X33.3011 Y-28.9228
G01 X33.2825 Y-28.9971
G01 X33.2798 Y-29.0091
G01 X33.2777 Y-29.0211
G01 X33.2665 Y-29.0969
G01 X33.2650 Y-29.1090
G01 X33.2641 Y-29.1213
G01 X33.2603 Y-29.1977
G01 X33.2600 Y-29.2100
G01 X33.2603 Y-29.2223
G01 X33.2641 Y-29.2987
G01 X33.2650 Y-29.3110
G01 X33.2665 Y-29.3231
G01 X33.2777 Y-29.3989
G01 X33.2798 Y-29.4109
G01 X33.2825 Y-29.4229
G01 X33.3011 Y-29.4972
G01 X33.3044 Y-29.5090
G01 X33.3082 Y-29.5206
G01 X33.3340 Y-29.5927
G01 X33.3384 Y-29.6042
G01 X33.3434 Y-29.6154
G01 X33.3761 Y-29.6846
G01 X33.3816 Y-29.6955
G01 X33.3877 Y-29.7062
G01 X33.4270 Y-29.7719
G01 X33.4336 Y-29.7822
G01 X33.4407 Y-29.7923
G01 X33.4863 Y-29.8538
G01 X33.4938 Y-29.8634
G01 X33.5018 Y-29.8727
G01 X33.5532 Y-29.9294
G01 X33.5617 Y-29.9383
G01 X33.5706 Y-29.9468
G01 X33.6273 Y-29.9982
G01 X33.6366 Y-30.0062
G01 X33.6462 Y-30.0137
G01 X33.7077 Y-30.0593
G01 X33.7178 Y-30.0664
G01 X33.7281 Y-30.0730
G01 X33.7938 Y-30.1123
G01 X33.8045 Y-30.1184
G01 X33.8154 Y-30.1239
G01 X33.8846 Y-30.1566
G01 X33.8958 Y-30.1616
G01 X33.9073 Y-30.1660
G01 X33.9794 Y-30.1918
G01 X33.9910 Y-30.1956
G01 X34.0028 Y-30.1989
G01 X34.0771 Y-30.2175
G01 X34.0891 Y-30.2202
G01 X34.1011 Y-30.2223
G01 X34.1769 Y-30.2335
G01 X34.1890 Y-30.2350
G01 X34.2013 Y-30.2359
G01 X34.2777 Y-30.2397
G01 X34.2900 Y-30.2400
G01 X34.3023 Y-30.2397
G01 X34.3787 Y-30.2359
G01 X34.3910 Y-30.2350
G01 X34.4031 Y-30.2335
G01 X34.4789 Y-30.2223
G01 X34.4909 Y-30.2202
G01 X34.5029 Y-30.2175
G01 X34.5772 Y-30.1989
G01 X34.5890 Y-30.1956
G01 X34.6006 Y-30.1918
G01 X34.6727 Y-30.1660
G01 X34.6842 Y-30.1616
G01 X34.6954 Y-30.1566
G01 X34.7646 Y-30.1239
G01 X34.7755 Y-30.1184
G01 X34.7862 Y-30.1123
G01 X34.8519 Y-30.0730
G01 X34.8622 Y-30.0664
G01 X34.8723 Y-30.0593
G01 X34.9338 Y-30.0137
G01 X34.9434 Y-30.0062
G01 X34.9527 Y-29.9982
G01 X35.0094 Y-29.9468
G01 X35.0183 Y-29.9383
G01 X35.0268 Y-29.9294
G01 X35.0782 Y-29.8727
G01 X35.0862 Y-29.8634
G01 X35.0937 Y-29.8538
G01 X35.1393 Y-29.7923
G01 X35.1464 Y-29.7822
G01 X35.1530 Y-29.7719
G01 X35.1923 Y-29.7062
G01 X35.1984 Y-29.6955
G01 X35.2039 Y-29.6846
G01 X35.2366 Y-29.6154
G01 X35.2416 Y-29.6042
G01 X35.2460 Y-29.5927
G01 X35.2718 Y-29.5206
G01 X35.2756 Y-29.5090
G01 X35.2789 Y-29.4972
G01 X35.2975 Y-29.4229
G01 X35.3002 Y-29.4109
G01 X35.3023 Y-29.3989
G01 X35.3135 Y-29.3231
G01 X35.3150 Y-29.3110
G01 X35.3159 Y-29.2987
G01 X35.3197 Y-29.2223
G01 X35.3200 Y-29.2100
G01 X35.3197 Y-29.1977
G00 Z2.0000
G00 X37.8597 Y-29.1977
G01 F60.00
G01 Z-0.0500
G01 F120.00
G01 X37.8559 Y-29.1213
G01 X37.8550 Y-29.1090
G01 X37.8535 Y-29.0969
G01 X37.8423 Y-29.0211
G01 X37.8402 Y-29.0091
G01 X37.8375 Y-28.9971
G01 X37.8189 Y-28.9228
G01 X37.8156 Y-28.9110
G01 X37.8118 Y-28.8994
G01 X37.7860 Y-28.8273
G01 X37.7816 Y-28.8158
G01 X37.7766 Y-28.8046
G01 X37.7439 Y-28.7354
G01 X37.7384 Y-28.7245
G01 X37.7323 Y-28.7138
G01 X37.6930 Y-28.6481
G01 X37.6864 Y-28.6378
G01 X37.6793 Y-28.6277
G01 X37.6337 Y-28.5662
G01 X37.6262 Y-28.5566
G01 X37.6182 Y-28.5473
G01 X37.5668 Y-28.4906
G01 X37.5583 Y-28.4817
G01 X37.5494 Y-28.4732
G01 X37.4927 Y-28.4218
G01 X37.4834 Y-28.4138
G01 X37.4738 Y-28.4063
G01 X37.4123 Y-28.3607
G01 X37.4022 Y-28.3536
G01 X37.3919 Y-28.3470
G01 X37.3262 Y-28.3077
G01 X37.3155 Y-28.3016
G01 X37.3046 Y-28.2961
G01 X37.2354 Y-28.2634
G01 X37.2242 Y-28.2584
G01 X37.2127 Y-28.2540
G01 X37.1406 Y-28.2282
G01 X37.1290 Y-28.2244
G01 X37.1172 Y-28.2211
G01 X37.0429 Y-28.2025
G01 X37.0309 Y-28.1998
G01 X37.0189 Y-28.1977
G01 X36.9431 Y-28.1865
G01 X36.9310 Y-28.1850
G01 X36.9187 Y-28.1841
G01 X36.8423 Y-28.1803
G01 X36.8300 Y-28.1800
G01 X36.8177 Y-28.1803
G01 X36.7413 Y-28.1841
G01 X36.7290 Y-28.1850
G01 X36.7169 Y-28.1865
G01 X36.6411 Y-28.1977
G01 X36.6291 Y-28.1998
G01 X36.6171 Y-28.2025
G01 X36.5428 Y-28.2211
G01 X36.5310 Y-28.2244
G01 X36.5194 Y-28.2282
G01 X36.4473 Y-28.2540
G01 X36.4358 Y-28.2584
G01 X36.4246 Y-28.2634
G01 X36.3554 Y-28.2961
G01 X36.3445 Y-28.3016
G01 X36.3338 Y-28.3077
G01 X36.2681 Y-28.3470
G01 X36.2578 Y-28.3536
G01 X36.2477 Y-28.3607
G01 X36.1862 Y-28.4063
G01 X36.1766 Y-28.4138
G01 X36.1673 Y-28.4218
G01 X36.1106 Y-28.4732
G01 X36.1017 Y-28.4817
G01 X36.0932 Y-28.4906
G01 X36.0418 Y-28.5473
G01 X36.0338 Y-28.5566
G01 X36.0263 Y-28.5662
G01 X35.9807 Y-28.6277
G01 X35.9736 Y-28.6378
G01 X35.9670 Y-28.6481
G01 X35.9277 Y-28.7138
G01 X35.9216 Y-28.7245
G01 X35.9161 Y-28.7354
G01 X35.8834 Y-28.8046
G01 X35.8784 Y-28.8158
G01 X35.8740 Y-28.8273
G01 X35.8482 Y-28.8994
G01 X35.8444 Y-28.9110
G01 X35.8411 Y-28.9228
G01 X35.8225 Y-28.9971
G01 X35.8198 Y-29.0091
G01 X35.8177 Y-29.0211
G01 X35.8065 Y-29.0969
G01 X35.8050 Y-29.1090
G01 X35.8041 Y-29.1213
G01 X35.8003 Y-29.1977
G01 X35.8000 Y-29.2100
G01 X35.8003 Y-29.2223
G01 X35.8041 Y-29.2987
G01 X35.8050 Y-29.3110
G01 X35.8065 Y-29.3231
G01 X35.8177 Y-29.3989
G01 X35.8198 Y-29.4109
G01 X35.8225 Y-29.4229
G01 X35.8411 Y-29.4972
G01 X35.8444 Y-29.5090
G01 X35.8482 Y-29.5206
G01 X35.8740 Y-29.5927
G01 X35.8784 Y-29.6042
G01 X35.8834 Y-29.6154
G01 X35.9161 Y-29.6846
G01 X35.9216 Y-29.6955
G01 X35.9277 Y-29.7062
G01 X35.9670 Y-29.7719
G01 X35.9736 Y-29.7822
G01 X35.9807 Y-29.7923
G01 X36.0263 Y-29.8538
G01 X36.0338 Y-29.8634
G01 X36.0418 Y-29.8727
G01 X36.0932 Y-29.9294
G01 X36.1017 Y-29.9383
G01 X36.1106 Y-29.9468
G01 X36.1673 Y-29.9982
G01 X36.1766 Y-30.0062
G01 X36.1862 Y-30.0137
G01 X36.2477 Y-30.0593
G01 X36.2578 Y-30.0664
G01 X36.2681 Y-30.0730
G01 X36.3338 Y-30.1123
G01 X36.3445 Y-30.1184
G01 X36.3554 Y-30.1239
G01 X36.4246 Y-30.1566
G01 X36.4358 Y-30.1616
G01 X36.4473 Y-30.1660
G01 X36.5194 Y-30.1918
G01 X36.5310 Y-30.1956
G01 X36.5428 Y-30.1989
G01 X36.6171 Y-30.2175
G01 X36.6291 Y-30.2202
G01 X36.6411 Y-30.2223
G01 X36.7169 Y-30.2335
G01 X36.7290 Y-30.2350
G01 X36.7413 Y-30.2359
G01 X36.8177 Y-30.2397
G01 X36.8300 Y-30.2400
G01 X36.8423 Y-30.2397
G01 X36.9187 Y-30.2359
G01 X36.9310 Y-30.2350
G01 X36.9431 Y-30.2335
G01 X37.0189 Y-30.2223
G01 X37.0309 Y-30.2202
G01 X37.0429 Y-30.2175
G01 X37.1172 Y-30.1989
G01 X37.1290 Y-30.1956
G01 X37.1406 Y-30.1918
G01 X37.2127 Y-30.1660
G01 X37.2242 Y-30.1616
G01 X37.2354 Y-30.1566
G01 X37.3046 Y-30.1239
G01 X37.3155 Y-30.1184
G01 X37.3262 Y-30.1123
G01 X37.3919 Y-30.0730
G01 X37.4022 Y-30.0664
G01 X37.4123 Y-30.0593
G01 X37.4738 Y-30.0137
G01 X37.4834 Y-30.0062
G01 X37.4927 Y-29.9982
G01 X37.5494 Y-29.9468
G01 X37.5583 Y-29.9383
G01 X37.5668 Y-29.9294
G01 X37.6182 Y-29.8727
G01 X37.6262 Y-29.8634
G01 X37.6337 Y-29.8538
G01 X37.6793 Y-29.7923
G01 X37.6864 Y-29.7822
G01 X37.6930 Y-29.7719
G01 X37.7323 Y-29.7062
G01 X37.7384 Y-29.6955
G01 X37.7439 Y-29.6846
G01 X37.7766 Y-29.6154
G01 X37.7816 Y-29.6042
G01 X37.7860 Y-29.5927
G01 X37.8118 Y-29.5206
G01 X37.8156 Y-29.5090
G01 X37.8189 Y-29.4972
G01 X37.8375 Y-29.4229
G01 X37.8402 Y-29.4109
G01 X37.8423 Y-29.3989
G01 X37.8535 Y-29.3231
G01 X37.8550 Y-29.3110
G01 X37.8559 Y-29.2987
G01 X37.8597 Y-29.2223
G01 X37.8600 Y-29.2100
G01 X37.8597 Y-29.1977
G00 Z2.0000
G00 X40.3997 Y-29.1977
G01 F60.00
G01 Z-0.0500
G01 F120.00
G01 X40.3959 Y-29.1213
G01 X40.3950 Y-29.1090
G01 X40.3935 Y-29.0969
G01 X40.3823 Y-29.0211
G01 X40.3802 Y-29.0091
G01 X40.3775 Y-28.9971
G01 X40.3589 Y-28.9228
G01 X40.3556 Y-28.9110
G01 X40.3518 Y-28.8994
G01 X40.3260 Y-28.8273
G01 X40.3216 Y-28.8158
G01 X40.3166 Y-28.8046
G01 X40.2839 Y-28.7354
G01 X40.2784 Y-28.7245
G01 X40.2723 Y-28.7138
G01 X40.2330 Y-28.6481
G01 X40.2264 Y-28.6378
G01 X40.2193 Y-28.6277
G01 X40.1737 Y-28.5662
G01 X40.1662 Y-28.5566
G01 X40.1582 Y-28.5473
G01 X40.1068 Y-28.4906
G01 X40.0983 Y-28.4817
G01 X40.0894 Y-28.4732
G01 X40.0327 Y-28.4218
G01 X40.0234 Y-28.4138
G01 X40.0138 Y-28.4063
G01 X39.9523 Y-28.3607
G01 X39.9422 Y-28.3536
G01 X39.9319 Y-28.3470
G01 X39.8662 Y-28.3077
G01 X39.8555 Y-28.3016
G01 X39.8446 Y-28.2961
G01 X39.7754 Y-28.2634
G01 X39.7642 Y-28.2584
G01 X39.7527 Y-28.2540
G01 X39.6806 Y-28.2282
G01 X39.6690 Y-28.2244
G01 X39.6572 Y-28.2211
G01 X39.5829 Y-28.2025
G01 X39.5709 Y-28.1998
G01 X39.5589 Y-28.1977
G01 X39.4831 Y-28.1865
G01 X39.4710 Y-28.1850
G01 X39.4587 Y-28.1841
G01 X39.3823 Y-28.1803
G01 X39.3700 Y-28.1800
G01 X39.3577 Y-28.1803
G01 X39.2813 Y-28.1841
G01 X39.2690 Y-28.1850
G01 X39.2569 Y-28.1865
G01 X39.1811 Y-28.1977
G01 X39.1691 Y-28.1998
G01 X39.1571 Y-28.2025
G01 X39.0828 Y-28.2211
G01 X39.0710 Y-28.2244
G01 X39.0594 Y-28.2282
G01 X38.9873 Y-28.2540
G01 X38.9758 Y-28.2584
G01 X38.9646 Y-28.2634
G01 X38.8954 Y-28.2961
G01 X38.8845 Y-28.3016
G01 X38.8738 Y-28.3077
G01 X38.8081 Y-28.3470
G01 X38.7978 Y-28.3536
G01 X38.7877 Y-28.3607
G01 X38.7262 Y-28.4063
G01 X38.7166 Y-28.4138
G01 X38.7073 Y-28.4218
G01 X38.6506 Y-28.4732
G01 X38.6417 Y-28.4817
G01 X38.6332 Y-28.4906
G01 X38.5818 Y-28.5473
G01 X38.5738 Y-28.5566
G01 X38.5663 Y-28.5662
G01 X38.5207 Y-28.6277
G01 X38.5136 Y-28.6378
G01 X38.5070 Y-28.6481
G01 X38.4677 Y-28.7138
G01 X38.4616 Y-28.7245
G01 X38.4561 Y-28.7354
G01 X38.4234 Y-28.8046
G01 X38.4184 Y-28.8158
G01 X38.4140 Y-28.8273
G01 X38.3882 Y-28.8994
G01 X38.3844 Y-28.9110
G01 X38.3811 Y-28.9228
G01 X38.3625 Y-28.9971
G01 X38.3598 Y-29.0091
G01 X38.3577 Y-29.0211
G01 X38.3465 Y-29.0969
G01 X38.3450 Y-29.1090
G01 X38.3441 Y-29.1213
G01 X38.3403 Y-29.1977
G01 X38.3400 Y-29.2100
G01 X38.3403 Y-29.2223
G01 X38.3441 Y-29.2987
G01 X38.3450 Y-29.3110
G01 X38.3465 Y-29.3231
G01 X38.3577 Y-29.3989
G01 X38.3598 Y-29.4109
G01 X38.3625 Y-29.4229
G01 X38.3811 Y-29.4972
G01 X38.3844 Y-29.5090
G01 X38.3882 Y-29.5206
G01 X38.4140 Y-29.5927
G01 X38.4184 Y-29.6042
G01 X38.4234 Y-29.6154
G01 X38.4561 Y-29.6846
G01 X38.4616 Y-29.6955
G01 X38.4677 Y-29.7062
G01 X38.5070 Y-29.7719
G01 X38.5136 Y-29.7822
G01 X38.5207 Y-29.7923
G01 X38.5663 Y-29.8538
G01 X38.5738 Y-29.8634
G01 X38.5818 Y-29.8727
G01 X38.6332 Y-29.9294
G01 X38.6417 Y-29.9383
G01 X38.6506 Y-29.9468
G01 X38.7073 Y-29.9982
G01 X38.7166 Y-30.0062
G01 X38.7262 Y-30.0137
G01 X38.7877 Y-30.0593
G01 X38.7978 Y-30.0664
G01 X38.8081 Y-30.0730
G01 X38.8738 Y-30.1123
G01 X38.8845 Y-30.1184
G01 X38.8954 Y-30.1239
G01 X38.9646 Y-30.1566
G01 X38.9758 Y-30.1616
G01 X38.9873 Y-30.1660
G01 X39.0594 Y-30.1918
G01 X39.0710 Y-30.1956
G01 X39.0828 Y-30.1989
G01 X39.1571 Y-30.2175
G01 X39.1691 Y-30.2202
G01 X39.1811 Y-30.2223
G01 X39.2569 Y-30.2335
G01 X39.2690 Y-30.2350
G01 X39.2813 Y-30.2359
G01 X39.3577 Y-30.2397
G01 X39.3700 Y-30.2400
G01 X39.3823 Y-30.2397
G01 X39.4587 Y-30.2359
G01 X39.4710 Y-30.2350
G01 X39.4831 Y-30.2335
G01 X39.5589 Y-30.2223
G01 X39.5709 Y-30.2202
G01 X39.5829 Y-30.2175
G01 X39.6572 Y-30.1989
G01 X39.6690 Y-30.1956
G01 X39.6806 Y-30.1918
G01 X39.7527 Y-30.1660
G01 X39.7642 Y-30.1616
G01 X39.7754 Y-30.1566
G01 X39.8446 Y-30.1239
G01 X39.8555 Y-30.1184
G01 X39.8662 Y-30.1123
G01 X39.9319 Y-30.0730
G01 X39.9422 Y-30.0664
G01 X39.9523 Y-30.0593
G01 X40.0138 Y-30.0137
G01 X40.0234 Y-30.0062
G01 X40.0327 Y-29.9982
G01 X40.0894 Y-29.9468
G01 X40.0983 Y-29.9383
G01 X40.1068 Y-29.9294
G01 X40.1582 Y-29.8727
G01 X40.1662 Y-29.8634
G01 X40.1737 Y-29.8538
G01 X40.2193 Y-29.7923
G01 X40.2264 Y-29.7822
G01 X40.2330 Y-29.7719
G01 X40.2723 Y-29.7062
G01 X40.2784 Y-29.6955
G01 X40.2839 Y-29.6846
G01 X40.3166 Y-29.6154
G01 X40.3216 Y-29.6042
G01 X40.3260 Y-29.5927
G01 X40.3518 Y-29.5206
G01 X40.3556 Y-29.5090
G01 X40.3589 Y-29.4972
G01 X40.3775 Y-29.4229
G01 X40.3802 Y-29.4109
G01 X40.3823 Y-29.3989
G01 X40.3935 Y-29.3231
G01 X40.3950 Y-29.3110
G01 X40.3959 Y-29.2987
G01 X40.3997 Y-29.2223
G01 X40.4000 Y-29.2100
G01 X40.3997 Y-29.1977
G00 Z2.0000
G00 X42.9397 Y-29.1977
G01 F60.00
G01 Z-0.0500
G01 F120.00
G01 X42.9359 Y-29.1213
G01 X42.9350 Y-29.1090
G01 X42.9335 Y-29.0969
G01 X42.9223 Y-29.0211
G01 X42.9202 Y-29.0091
G01 X42.9175 Y-28.9971
G01 X42.8989 Y-28.9228
G01 X42.8956 Y-28.9110
G01 X42.8918 Y-28.8994
G01 X42.8660 Y-28.8273
G01 X42.8616 Y-28.8158
G01 X42.8566 Y-28.8046
G01 X42.8239 Y-28.7354
G01 X42.8184 Y-28.7245
G01 X42.8123 Y-28.7138
G01 X42.7730 Y-28.6481
G01 X42.7664 Y-28.6378
G01 X42.7593 Y-28.6277
G01 X42.7137 Y-28.5662
G01 X42.7062 Y-28.5566
G01 X42.6982 Y-28.5473
G01 X42.6468 Y-28.4906
G01 X42.6383 Y-28.4817
G01 X42.6294 Y-28.4732
G01 X42.5727 Y-28.4218
G01 X42.5634 Y-28.4138
G01 X42.5538 Y-28.4063
G01 X42.4923 Y-28.3607
G01 X42.4822 Y-28.3536
G01 X42.4719 Y-28.3470
G01 X42.4062 Y-28.3077
G01 X42.3955 Y-28.3016
G01 X42.3846 Y-28.2961
G01 X42.3154 Y-28.2634
G01 X42.3042 Y-28.2584
G01 X42.2927 Y-28.2540
G01 X42.2206 Y-28.2282
G01 X42.2090 Y-28.2244
G01 X42.1972 Y-28.2211
G01 X42.1229 Y-28.2025
G01 X42.1109 Y-28.1998
G01 X42.0989 Y-28.1977
G01 X42.0231 Y-28.1865
G01 X42.0110 Y-28.1850
G01 X41.9987 Y-28.1841
G01 X41.9223 Y-28.1803
G01 X41.9100 Y-28.1800
G01 X41.8977 Y-28.1803
G01 X41.8213 Y-28.1841
G01 X41.8090 Y-28.1850
G01 X41.7969 Y-28.1865
G01 X41.7211 Y-28.1977
G01 X41.7091 Y-28.1998
G01 X41.6971 Y-28.2025
G01 X41.6228 Y-28.2211
G01 X41.6110 Y-28.2244
G01 X41.5994 Y-28.2282
G01 X41.5273 Y-28.2540
G01 X41.5158 Y-28.2584
G01 X41.5046 Y-28.2634
G01 X41.4354 Y-28.2961
G01 X41.4245 Y-28.3016
G01 X41.4138 Y-28.3077
G01 X41.3481 Y-28.3470
G01 X41.3378 Y-28.3536
G01 X41.3277 Y-28.3607
G01 X41.2662 Y-28.4063
G01 X41.2566 Y-28.4138
G01 X41.2473 Y-28.4218
G01 X41.1906 Y-28.4732
G01 X41.1817 Y-28.4817
G01 X41.1732 Y-28.4906
G01 X41.1218 Y-28.5473
G01 X41.1138 Y-28.5566
G01 X41.1063 Y-28.5662
G01 X41.0607 Y-28.6277
G01 X41.0536 Y-28.6378
G01 X41.0470 Y-28.6481
G01 X41.0077 Y-28.7138
G01 X41.0016 Y-28.7245
G01 X40.9961 Y-28.7354
G01 X40.9634 Y-28.8046
G01 X40.9584 Y-28.8158
G01 X40.9540 Y-28.8273
G01 X40.9282 Y-28.8994
G01 X40.9244 Y-28.9110
G01 X40.9211 Y-28.9228
G01 X40.9025 Y-28.9971
G01 X40.8998 Y-29.0091
G01 X40.8977 Y-29.0211
G01 X40.8865 Y-29.0969
G01 X40.8850 Y-29.1090
G01 X40.8841 Y-29.1213
G01 X40.8803 Y-29.1977
G01 X40.8800 Y-29.2100
G01 X40.8803 Y-29.2223
G01 X40.8841 Y-29.2987
G01 X40.8850 Y-29.3110
G01 X40.8865 Y-29.3231
G01 X40.8977 Y-29.3989
G01 X40.8998 Y-29.4109
G01 X40.9025 Y-29.4229
G01 X40.9211 Y-29.4972
G01 X40.9244 Y-29.5090
G01 X40.9282 Y-29.5206
G01 X40.9540 Y-29.5927
G01 X40.9584 Y-29.6042
G01 X40.9634 Y-29.6154
G01 X40.9961 Y-29.6846
G01 X41.0016 Y-29.6955
G01 X41.0077 Y-29.7062
G01 X41.0470 Y-29.7719
G01 X41.0536 Y-29.7822
G01 X41.0607 Y-29.7923
G01 X41.1063 Y-29.8538
G01 X41.1138 Y-29.8634
G01 X41.1218 Y-29.8727
G01 X41.1732 Y-29.9294
G01 X41.1817 Y-29.9383
G01 X41.1906 Y-29.9468
G01 X41.2473 Y-29.9982
G01 X41.2566 Y-30.0062
G01 X41.2662 Y-30.0137
G01 X41.3277 Y-30.0593
G01 X41.3378 Y-30.0664
G01 X41.3481 Y-30.0730
G01 X41.4138 Y-30.1123
G01 X41.4245 Y-30.1184
G01 X41.4354 Y-30.1239
G01 X41.5046 Y-30.1566
G01 X41.5158 Y-30.1616
G01 X41.5273 Y-30.1660
G01 X41.5994 Y-30.1918
G01 X41.6110 Y-30.1956
G01 X41.6228 Y-30.1989
G01 X41.6971 Y-30.2175
G01 X41.7091 Y-30.2202
G01 X41.7211 Y-30.2223
G01 X41.7969 Y-30.2335
G01 X41.8090 Y-30.2350
G01 X41.8213 Y-30.2359
G01 X41.8977 Y-30.2397
G01 X41.9100 Y-30.2400
G01 X41.9223 Y-30.2397
G01 X41.9987 Y-30.2359
G01 X42.0110 Y-30.2350
G01 X42.0231 Y-30.2335
G01 X42.0989 Y-30.2223
G01 X42.1109 Y-30.2202
G01 X42.1229 Y-30.2175
G01 X42.1972 Y-30.1989
G01 X42.2090 Y-30.1956
G01 X42.2206 Y-30.1918
G01 X42.2927 Y-30.1660
G01 X42.3042 Y-30.1616
G01 X42.3154 Y-30.1566
G01 X42.3846 Y-30.1239
G01 X42.3955 Y-30.1184
G01 X42.4062 Y-30.1123
G01 X42.4719 Y-30.0730
G01 X42.4822 Y-30.0664
G01 X42.4923 Y-30.0593
G01 X42.5538 Y-30.0137
G01 X42.5634 Y-30.0062
G01 X42.5727 Y-29.9982
G01 X42.6294 Y-29.9468
G01 X42.6383 Y-29.9383
G01 X42.6468 Y-29.9294
G01 X42.6982 Y-29.8727
G01 X42.7062 Y-29.8634
G01 X42.7137 Y-29.8538
G01 X42.7593 Y-29.7923
G01 X42.7664 Y-29.7822
G01 X42.7730 Y-29.7719
G01 X42.8123 Y-29.7062
G01 X42.8184 Y-29.6955
G01 X42.8239 Y-29.6846
G01 X42.8566 Y-29.6154
G01 X42.8616 Y-29.6042
G01 X42.8660 Y-29.5927
G01 X42.8918 Y-29.5206
G01 X42.8956 Y-29.5090
G01 X42.8989 Y-29.4972
G01 X42.9175 Y-29.4229
G01 X42.9202 Y-29.4109
G01 X42.9223 Y-29.3989
G01 X42.9335 Y-29.3231
G01 X42.9350 Y-29.3110
G01 X42.9359 Y-29.2987
G01 X42.9397 Y-29.2223
G01 X42.9400 Y-29.2100
G01 X42.9397 Y-29.1977
G00 Z2.0000
G00 X45.4797 Y-29.1977
G01 F60.00
G01 Z-0.0500
G01 F120.00
G01 X45.4759 Y-29.1213
G01 X45.4750 Y-29.1090
G01 X45.4735 Y-29.0969
G01 X45.4623 Y-29.0211
G01 X45.4602 Y-29.0091
G01 X45.4575 Y-28.9971
G01 X45.4389 Y-28.9228
G01 X45.4356 Y-28.9110
G01 X45.4318 Y-28.8994
G01 X45.4060 Y-28.8273
G01 X45.4016 Y-28.8158
G01 X45.3966 Y-28.8046
G01 X45.3639 Y-28.7354
G01 X45.3584 Y-28.7245
G01 X45.3523 Y-28.7138
G01 X45.3130 Y-28.6481
G01 X45.3064 Y-28.6378
G01 X45.2993 Y-28.6277
G01 X45.2537 Y-28.5662
G01 X45.2462 Y-28.5566
G01 X45.2382 Y-28.5473
G01 X45.1868 Y-28.4906
G01 X45.1783 Y-28.4817
G01 X45.1694 Y-28.4732
G01 X45.1127 Y-28.4218
G01 X45.1034 Y-28.4138
G01 X45.0938 Y-28.4063
G01 X45.0323 Y-28.3607
G01 X45.0222 Y-28.3536
G01 X45.0119 Y-28.3470
G01 X44.9462 Y-28.3077
G01 X44.9355 Y-28.3016
G01 X44.9246 Y-28.2961
G01 X44.8554 Y-28.2634
G01 X44.8442 Y-28.2584
G01 X44.8327 Y-28.2540
G01 X44.7606 Y-28.2282
G01 X44.7490 Y-28.2244
G01 X44.7372 Y-28.2211
G01 X44.6629 Y-28.2025
G01 X44.6509 Y-28.1998
G01 X44.6389 Y-28.1977
G01 X44.5631 Y-28.1865
G01 X44.5510 Y-28.1850
G01 X44.5387 Y-28.1841
G01 X44.4623 Y-28.1803
G01 X44.4500 Y-28.1800
G01 X44.4377 Y-28.1803
G01 X44.3613 Y-28.1841
G01 X44.3490 Y-28.1850
G01 X44.3369 Y-28.1865
G01 X44.2611 Y-28.1977
G01 X44.2491 Y-28.1998
G01 X44.2371 Y-28.2025
G01 X44.1628 Y-28.2211
G01 X44.1510 Y-28.2244
G01 X44.1394 Y-28.2282
G01 X44.0673 Y-28.2540
G01 X44.0558 Y-28.2584
G01 X44.0446 Y-28.2634
G01 X43.9754 Y-28.2961
G01 X43.9645 Y-28.3016
G01 X43.9538 Y-28.3077
G01 X43.8881 Y-28.3470
G01 X43.8778 Y-28.3536
G01 X43.8677 Y-28.3607
G01 X43.8062 Y-28.4063
G01 X43.7966 Y-28.4138
G01 X43.7873 Y-28.4218
G01 X43.7306 Y-28.4732
G01 X43.7217 Y-28.4817
G01 X43.7132 Y-28.4906
G01 X43.6618 Y-28.5473
G01 X43.6538 Y-28.5566
G01 X43.6463 Y-28.5662
G01 X43.6007 Y-28.6277
G01 X43.5936 Y-28.6378
G01 X43.5870 Y-28.6481
G01 X43.5477 Y-28.7138
G01 X43.5416 Y-28.7245
G01 X43.5361 Y-28.7354
G01 X43.5034 Y-28.8046
G01 X43.4984 Y-28.8158
G01 X43.4940 Y-28.8273
G01 X43.4682 Y-28.8994
G01 X43.4644 Y-28.9110
G01 X43.4611 Y-28.9228
G01 X43.4425 Y-28.9971
G01 X43.4398 Y-29.0091
G01 X43.4377 Y-29.0211
G01 X43.4265 Y-29.0969
G01 X43.4250 Y-29.1090
G01 X43.4241 Y-29.1213
G01 X43.4203 Y-29.1977
G01 X43.4200 Y-29.2100
G01 X43.4203 Y-29.2223
G01 X43.4241 Y-29.2987
G01 X43.4250 Y-29.3110
G01 X43.4265 Y-29.3231
G01 X43.4377 Y-29.3989
G01 X43.4398 Y-29.4109
G01 X43.4425 Y-29.4229
G01 X43.4611 Y-29.4972
G01 X43.4644 Y-29.5090
G01 X43.4682 Y-29.5206
G01 X43.4940 Y-29.5927
G01 X43.4984 Y-29.6042
G01 X43.5034 Y-29.6154
G01 X43.5361 Y-29.6846
G01 X43.5416 Y-29.6955
G01 X43.5477 Y-29.7062
G01 X43.5870 Y-29.7719
G01 X43.5936 Y-29.7822
G01 X43.6007 Y-29.7923
G01 X43.6463 Y-29.8538
G01 X43.6538 Y-29.8634
G01 X43.6618 Y-29.8727
G01 X43.7132 Y-29.9294
G01 X43.7217 Y-29.9383
G01 X43.7306 Y-29.9468
G01 X43.7873 Y-29.9982
G01 X43.7966 Y-30.0062
G01 X43.8062 Y-30.0137
G01 X43.8677 Y-30.0593
G01 X43.8778 Y-30.0664
G01 X43.8881 Y-30.0730
G01 X43.9538 Y-30.1123
G01 X43.9645 Y-30.1184
G01 X43.9754 Y-30.1239
G01 X44.0446 Y-30.1566
G01 X44.0558 Y-30.1616
G01 X44.0673 Y-30.1660
G01 X44.1394 Y-30.1918
G01 X44.1510 Y-30.1956
G01 X44.1628 Y-30.1989
G01 X44.2371 Y-30.2175
G01 X44.2491 Y-30.2202
G01 X44.2611 Y-30.2223
G01 X44.3369 Y-30.2335
G01 X44.3490 Y-30.2350
G01 X44.3613 Y-30.2359
G01 X44.4377 Y-30.2397
G01 X44.4500 Y-30.2400
G01 X44.4623 Y-30.2397
G01 X44.5387 Y-30.2359
G01 X44.5510 Y-30.2350
G01 X44.5631 Y-30.2335
G01 X44.6389 Y-30.2223
G01 X44.6509 Y-30.2202
G01 X44.6629 Y-30.2175
G01 X44.7372 Y-30.1989
G01 X44.7490 Y-30.1956
G01 X44.7606 Y-30.1918
G01 X44.8327 Y-30.1660
G01 X44.8442 Y-30.1616
G01 X44.8554 Y-30.1566
G01 X44.9246 Y-30.1239
G01 X44.9355 Y-30.1184
G01 X44.9462 Y-30.1123
G01 X45.0119 Y-30.0730
G01 X45.0222 Y-30.0664
G01 X45.0323 Y-30.0593
G01 X45.0938 Y-30.0137
G01 X45.1034 Y-30.0062
G01 X45.1127 Y-29.9982
G01 X45.1694 Y-29.9468
G01 X45.1783 Y-29.9383
G01 X45.1868 Y-29.9294
G01 X45.2382 Y-29.8727
G01 X45.2462 Y-29.8634
G01 X45.2537 Y-29.8538
G01 X45.2993 Y-29.7923
G01 X45.3064 Y-29.7822
G01 X45.3130 Y-29.7719
G01 X45.3523 Y-29.7062
G01 X45.3584 Y-29.6955
G01 X45.3639 Y-29.6846
G01 X45.3966 Y-29.6154
G01 X45.4016 Y-29.6042
G01 X45.4060 Y-29.5927
G01 X45.4318 Y-29.5206
G01 X45.4356 Y-29.5090
G01 X45.4389 Y-29.4972
G01 X45.4575 Y-29.4229
G01 X45.4602 Y-29.4109
G01 X45.4623 Y-29.3989
G01 X45.4735 Y-29.3231
G01 X45.4750 Y-29.3110
G01 X45.4759 Y-29.2987
G01 X45.4797 Y-29.2223
G01 X45.4800 Y-29.2100
G01 X45.4797 Y-29.1977
G00 Z2.0000
G00 X48.0197 Y-29.1977
G01 F60.00
G01 Z-0.0500
G01 F120.00
G01 X48.0159 Y-29.1213
G01 X48.0150 Y-29.1090
G01 X48.0135 Y-29.0969
G01 X48.0023 Y-29.0211
G01 X48.0002 Y-29.0091
G01 X47.9975 Y-28.9971
G01 X47.9789 Y-28.9228
G01 X47.9756 Y-28.9110
G01 X47.9718 Y-28.8994
G01 X47.9460 Y-28.8273
G01 X47.9416 Y-28.8158
G01 X47.9366 Y-28.8046
G01 X47.9039 Y-28.7354
G01 X47.8984 Y-28.7245
G01 X47.8923 Y-28.7138
G01 X47.8530 Y-28.6481
G01 X47.8464 Y-28.6378
G01 X47.8393 Y-28.6277
G01 X47.7937 Y-28.5662
G01 X47.7862 Y-28.5566
G01 X47.7782 Y-28.5473
G01 X47.7268 Y-28.4906
G01 X47.7183 Y-28.4817
G01 X47.7094 Y-28.4732
G01 X47.6527 Y-28.4218
G01 X47.6434 Y-28.4138
G01 X47.6338 Y-28.4063
G01 X47.5723 Y-28.3607
G01 X47.5622 Y-28.3536
G01 X47.5519 Y-28.3470
G01 X47.4862 Y-28.3077
G01 X47.4755 Y-28.3016
G01 X47.4646 Y-28.2961
G01 X47.3954 Y-28.2634
G01 X47.3842 Y-28.2584
G01 X47.3727 Y-28.2540
G01 X47.3006 Y-28.2282
G01 X47.2890 Y-28.2244
G01 X47.2772 Y-28.2211
G01 X47.2029 Y-28.2025
G01 X47.1909 Y-28.1998
G01 X47.1789 Y-28.1977
G01 X47.1031 Y-28.1865
G01 X47.0910 Y-28.1850
G01 X47.0787 Y-28.1841
G01 X47.0023 Y-28.1803
G01 X46.9900 Y-28.1800
G01 X46.9777 Y-28.1803
G01 X46.9013 Y-28.1841
G01 X46.8890 Y-28.1850
G01 X46.8769 Y-28.1865
G01 X46.8011 Y-28.1977
G01 X46.7891 Y-28.1998
G01 X46.7771 Y-28.2025
G01 X46.7028 Y-28.2211
G01 X46.6910 Y-28.2244
G01 X46.6794 Y-28.2282
G01 X46.6073 Y-28.2540
G01 X46.5958 Y-28.2584
G01 X46.5846 Y-28.2634
G01 X46.5154 Y-28.2961
G01 X46.5045 Y-28.3016
G01 X46.4938 Y-28.3077
G01 X46.4281 Y-28.3470
G01 X46.4178 Y-28.3536
G01 X46.4077 Y-28.3607
G01 X46.3462 Y-28.4063
G01 X46.3366 Y-28.4138
G01 X46.3273 Y-28.4218
G01 X46.2706 Y-28.4732
G01 X46.2617 Y-28.4817
G01 X46.2532 Y-28.4906
G01 X46.2018 Y-28.5473
G01 X46.1938 Y-28.5566
G01 X46.1863 Y-28.5662
G01 X46.1407 Y-28.6277
G01 X46.1336 Y-28.6378
G01 X46.1270 Y-28.6481
G01 X46.0877 Y-28.7138
G01 X46.0816 Y-28.7245
G01 X46.0761 Y-28.7354
G01 X46.0434 Y-28.8046
G01 X46.0384 Y-28.8158
G01 X46.0340 Y-28.8273
G01 X46.0082 Y-28.8994
G01 X46.0044 Y-28.9110
G01 X46.0011 Y-28.9228
G01 X45.9825 Y-28.9971
G01 X45.9798 Y-29.0091
G01 X45.9777 Y-29.0211
G01 X45.9665 Y-29.0969
G01 X45.9650 Y-29.1090
G01 X45.9641 Y-29.1213
G01 X45.9603 Y-29.1977
G01 X45.9600 Y-29.2100
G01 X45.9603 Y-29.2223
G01 X45.9641 Y-29.2987
G01 X45.9650 Y-29.3110
G01 X45.9665 Y-29.3231
G01 X45.9777 Y-29.3989
G01 X45.9798 Y-29.4109
G01 X45.9825 Y-29.4229
G01 X46.0011 Y-29.4972
G01 X46.0044 Y-29.5090
G01 X46.0082 Y-29.5206
G01 X46.0340 Y-29.5927
G01 X46.0384 Y-29.6042
G01 X46.0434 Y-29.6154
G01 X46.0761 Y-29.6846
G01 X46.0816 Y-29.6955
G01 X46.0877 Y-29.7062
G01 X46.1270 Y-29.7719
G01 X46.1336 Y-29.7822
G01 X46.1407 Y-29.7923
G01 X46.1863 Y-29.8538
G01 X46.1938 Y-29.8634
G01 X46.2018 Y-29.8727
G01 X46.2532 Y-29.9294
G01 X46.2617 Y-29.9383
G01 X46.2706 Y-29.9468
G01 X46.3273 Y-29.9982
G01 X46.3366 Y-30.0062
G01 X46.3462 Y-30.0137
G01 X46.4077 Y-30.0593
G01 X46.4178 Y-30.0664
G01 X46.4281 Y-30.0730
G01 X46.4938 Y-30.1123
G01 X46.5045 Y-30.1184
G01 X46.5154 Y-30.1239
G01 X46.5846 Y-30.1566
G01 X46.5958 Y-30.1616
G01 X46.6073 Y-30.1660
G01 X46.6794 Y-30.1918
G01 X46.6910 Y-30.1956
G01 X46.7028 Y-30.1989
G01 X46.7771 Y-30.2175
G01 X46.7891 Y-30.2202
G01 X46.8011 Y-30.2223
G01 X46.8769 Y-30.2335
G01 X46.8890 Y-30.2350
G01 X46.9013 Y-30.2359
G01 X46.9777 Y-30.2397
G01 X46.9900 Y-30.2400
G01 X47.0023 Y-30.2397
G01 X47.0787 Y-30.2359
G01 X47.0910 Y-30.2350
G01 X47.1031 Y-30.2335
G01 X47.1789 Y-30.2223
G01 X47.1909 Y-30.2202
G01 X47.2029 Y-30.2175
G01 X47.2772 Y-30.1989
G01 X47.2890 Y-30.1956
G01 X47.3006 Y-30.1918
G01 X47.3727 Y-30.1660
G01 X47.3842 Y-30.1616
G01 X47.3954 Y-30.1566
G01 X47.4646 Y-30.1239
G01 X47.4755 Y-30.1184
G01 X47.4862 Y-30.1123
G01 X47.5519 Y-30.0730
G01 X47.5622 Y-30.0664
G01 X47.5723 Y-30.0593
G01 X47.6338 Y-30.0137
G01 X47.6434 Y-30.0062
G01 X47.6527 Y-29.9982
G01 X47.7094 Y-29.9468
G01 X47.7183 Y-29.9383
G01 X47.7268 Y-29.9294
G01 X47.7782 Y-29.8727
G01 X47.7862 Y-29.8634
G01 X47.7937 Y-29.8538
G01 X47.8393 Y-29.7923
G01 X47.8464 Y-29.7822
G01 X47.8530 Y-29.7719
G01 X47.8923 Y-29.7062
G01 X47.8984 Y-29.6955
G01 X47.9039 Y-29.6846
G01 X47.9366 Y-29.6154
G01 X47.9416 Y-29.6042
G01 X47.9460 Y-29.5927
G01 X47.9718 Y-29.5206
G01 X47.9756 Y-29.5090
G01 X47.9789 Y-29.4972
G01 X47.9975 Y-29.4229
G01 X48.0002 Y-29.4109
G01 X48.0023 Y-29.3989
G01 X48.0135 Y-29.3231
G01 X48.0150 Y-29.3110
G01 X48.0159 Y-29.2987
G01 X48.0197 Y-29.2223
G01 X48.0200 Y-29.2100
G01 X48.0197 Y-29.1977
G00 Z2.0000
G00 X50.5597 Y-29.1977
G01 F60.00
G01 Z-0.0500
G01 F120.00
G01 X50.5559 Y-29.1213
G01 X50.5550 Y-29.1090
G01 X50.5535 Y-29.0969
G01 X50.5423 Y-29.0211
G01 X50.5402 Y-29.0091
G01 X50.5375 Y-28.9971
G01 X50.5189 Y-28.9228
G01 X50.5156 Y-28.9110
G01 X50.5118 Y-28.8994
G01 X50.4860 Y-28.8273
G01 X50.4816 Y-28.8158
G01 X50.4766 Y-28.8046
G01 X50.4439 Y-28.7354
G01 X50.4384 Y-28.7245
G01 X50.4323 Y-28.7138
G01 X50.3930 Y-28.6481
G01 X50.3864 Y-28.6378
G01 X50.3793 Y-28.6277
G01 X50.3337 Y-28.5662
G01 X50.3262 Y-28.5566
G01 X50.3182 Y-28.5473
G01 X50.2668 Y-28.4906
G01 X50.2583 Y-28.4817
G01 X50.2494 Y-28.4732
G01 X50.1927 Y-28.4218
G01 X50.1834 Y-28.4138
G01 X50.1738 Y-28.4063
G01 X50.1123 Y-28.3607
G01 X50.1022 Y-28.3536
G01 X50.0919 Y-28.3470
G01 X50.0262 Y-28.3077
G01 X50.0155 Y-28.3016
G01 X50.0046 Y-28.2961
G01 X49.9354 Y-28.2634
G01 X49.9242 Y-28.2584
G01 X49.9127 Y-28.2540
G01 X49.8406 Y-28.2282
G01 X49.8290 Y-28.2244
G01 X49.8172 Y-28.2211
G01 X49.7429 Y-28.2025
G01 X49.7309 Y-28.1998
G01 X49.7189 Y-28.1977
G01 X49.6431 Y-28.1865
G01 X49.6310 Y-28.1850
G01 X49.6187 Y-28.1841
G01 X49.5423 Y-28.1803
G01 X49.5300 Y-28.1800
G01 X49.5177 Y-28.1803
G01 X49.4413 Y-28.1841
G01 X49.4290 Y-28.1850
G01 X49.4169 Y-28.1865
G01 X49.3411 Y-28.1977
G01 X49.3291 Y-28.1998
G01 X49.3171 Y-28.2025
G01 X49.2428 Y-28.2211
G01 X49.2310 Y-28.2244
G01 X49.2194 Y-28.2282
G01 X49.1473 Y-28.2540
G01 X49.1358 Y-28.2584
G01 X49.1246 Y-28.2634
G01 X49.0554 Y-28.2961
G01 X49.0445 Y-28.3016
G01 X49.0338 Y-28.3077
G01 X48.9681 Y-28.3470
G01 X48.9578 Y-28.3536
G01 X48.9477 Y-28.3607
G01 X48.8862 Y-28.4063
G01 X48.8766 Y-28.4138
G01 X48.8673 Y-28.4218
G01 X48.8106 Y-28.4732
G01 X48.8017 Y-28.4817
G01 X48.7932 Y-28.4906
G01 X48.7418 Y-28.5473
G01 X48.7338 Y-28.5566
G01 X48.7263 Y-28.5662
G01 X48.6807 Y-28.6277
G01 X48.6736 Y-28.6378
G01 X48.6670 Y-28.6481
G01 X48.6277 Y-28.7138
G01 X48.6216 Y-28.7245
G01 X48.6161 Y-28.7354
G01 X48.5834 Y-28.8046
G01 X48.5784 Y-28.8158
G01 X48.5740 Y-28.8273
G01 X48.5482 Y-28.8994
G01 X48.5444 Y-28.9110
G01 X48.5411 Y-28.9228
G01 X48.5225 Y-28.9971
G01 X48.5198 Y-29.0091
G01 X48.5177 Y-29.0211
G01 X48.5065 Y-29.0969
G01 X48.5050 Y-29.1090
G01 X48.5041 Y-29.1213
G01 X48.5003 Y-29.1977
G01 X48.5000 Y-29.2100
G01 X48.5003 Y-29.2223
G01 X48.5041 Y-29.2987
G01 X48.5050 Y-29.3110
G01 X48.5065 Y-29.3231
G01 X48.5177 Y-29.3989
G01 X48.5198 Y-29.4109
G01 X48.5225 Y-29.4229
G01 X48.5411 Y-29.4972
G01 X48.5444 Y-29.5090
G01 X48.5482 Y-29.5206
G01 X48.5740 Y-29.5927
G01 X48.5784 Y-29.6042
G01 X48.5834 Y-29.6154
G01 X48.6161 Y-29.6846
G01 X48.6216 Y-29.6955
G01 X48.6277 Y-29.7062
G01 X48.6670 Y-29.7719
G01 X48.6736 Y-29.7822
G01 X48.6807 Y-29.7923
G01 X48.7263 Y-29.8538
G01 X48.7338 Y-29.8634
G01 X48.7418 Y-29.8727
G01 X48.7932 Y-29.9294
G01 X48.8017 Y-29.9383
G01 X48.8106 Y-29.9468
G01 X48.8673 Y-29.9982
G01 X48.8766 Y-30.0062
G01 X48.8862 Y-30.0137
G01 X48.9477 Y-30.0593
G01 X48.9578 Y-30.0664
G01 X48.9681 Y-30.0730
G01 X49.0338 Y-30.1123
G01 X49.0445 Y-30.1184
G01 X49.0554 Y-30.1239
G01 X49.1246 Y-30.1566
G01 X49.1358 Y-30.1616
G01 X49.1473 Y-30.1660
G01 X49.2194 Y-30.1918
G01 X49.2310 Y-30.1956
G01 X49.2428 Y-30.1989
G01 X49.3171 Y-30.2175
G01 X49.3291 Y-30.2202
G01 X49.3411 Y-30.2223
G01 X49.4169 Y-30.2335
G01 X49.4290 Y-30.2350
G01 X49.4413 Y-30.2359
G01 X49.5177 Y-30.2397
G01 X49.5300 Y-30.2400
G01 X49.5423 Y-30.2397
G01 X49.6187 Y-30.2359
G01 X49.6310 Y-30.2350
G01 X49.6431 Y-30.2335
G01 X49.7189 Y-30.2223
G01 X49.7309 Y-30.2202
G01 X49.7429 Y-30.2175
G01 X49.8172 Y-30.1989
G01 X49.8290 Y-30.1956
G01 X49.8406 Y-30.1918
G01 X49.9127 Y-30.1660
G01 X49.9242 Y-30.1616
G01 X49.9354 Y-30.1566
G01 X50.0046 Y-30.1239
G01 X50.0155 Y-30.1184
G01 X50.0262 Y-30.1123
G01 X50.0919 Y-30.0730
G01 X50.1022 Y-30.0664
G01 X50.1123 Y-30.0593
G01 X50.1738 Y-30.0137
G01 X50.1834 Y-30.0062
G01 X50.1927 Y-29.9982
G01 X50.2494 Y-29.9468
G01 X50.2583 Y-29.9383
G01 X50.2668 Y-29.9294
G01 X50.3182 Y-29.8727
G01 X50.3262 Y-29.8634
G01 X50.3337 Y-29.8538
G01 X50.3793 Y-29.7923
G01 X50.3864 Y-29.7822
G01 X50.3930 Y-29.7719
G01 X50.4323 Y-29.7062
G01 X50.4384 Y-29.6955
G01 X50.4439 Y-29.6846
G01 X50.4766 Y-29.6154
G01 X50.4816 Y-29.6042
G01 X50.4860 Y-29.5927
G01 X50.5118 Y-29.5206
G01 X50.5156 Y-29.5090
G01 X50.5189 Y-29.4972
G01 X50.5375 Y-29.4229
G01 X50.5402 Y-29.4109
G01 X50.5423 Y-29.3989
G01 X50.5535 Y-29.3231
G01 X50.5550 Y-29.3110
G01 X50.5559 Y-29.2987
G01 X50.5597 Y-29.2223
G01 X50.5600 Y-29.2100
G01 X50.5597 Y-29.1977
G00 Z2.0000
G00 X53.0997 Y-29.1977
G01 F60.00
G01 Z-0.0500
G01 F120.00
G01 X53.0959 Y-29.1213
G01 X53.0950 Y-29.1090
G01 X53.0935 Y-29.0969
G01 X53.0823 Y-29.0211
G01 X53.0802 Y-29.0091
G01 X53.0775 Y-28.9971
G01 X53.0589 Y-28.9228
G01 X53.0556 Y-28.9110
G01 X53.0518 Y-28.8994
G01 X53.0260 Y-28.8273
G01 X53.0216 Y-28.8158
G01 X53.0166 Y-28.8046
G01 X52.9839 Y-28.7354
G01 X52.9784 Y-28.7245
G01 X52.9723 Y-28.7138
G01 X52.9330 Y-28.6481
G01 X52.9264 Y-28.6378
G01 X52.9193 Y-28.6277
G01 X52.8737 Y-28.5662
G01 X52.8662 Y-28.5566
G01 X52.8582 Y-28.5473
G01 X52.8068 Y-28.4906
G01 X52.7983 Y-28.4817
G01 X52.7894 Y-28.4732
G01 X52.7327 Y-28.4218
G01 X52.7234 Y-28.4138
G01 X52.7138 Y-28.4063
G01 X52.6523 Y-28.3607
G01 X52.6422 Y-28.3536
G01 X52.6319 Y-28.3470
G01 X52.5662 Y-28.3077
G01 X52.5555 Y-28.3016
G01 X52.5446 Y-28.2961
G01 X52.4754 Y-28.2634
G01 X52.4642 Y-28.2584
G01 X52.4527 Y-28.2540
G01 X52.3806 Y-28.2282
G01 X52.3690 Y-28.2244
G01 X52.3572 Y-28.2211
G01 X52.2829 Y-28.2025
G01 X52.2709 Y-28.1998
G01 X52.2589 Y-28.1977
G01 X52.1831 Y-28.1865
G01 X52.1710 Y-28.1850
G01 X52.1587 Y-28.1841
G01 X52.0823 Y-28.1803
G01 X52.0700 Y-28.1800
G01 X52.0577 Y-28.1803
G01 X51.9813 Y-28.1841
G01 X51.9690 Y-28.1850
G01 X51.9569 Y-28.1865
G01 X51.8811 Y-28.1977
G01 X51.8691 Y-28.1998
G01 X51.8571 Y-28.2025
G01 X51.7828 Y-28.2211
G01 X51.7710 Y-28.2244
G01 X51.7594 Y-28.2282
G01 X51.6873 Y-28.2540
G01 X51.6758 Y-28.2584
G01 X51.6646 Y-28.2634
G01 X51.5954 Y-28.2961
G01 X51.5845 Y-28.3016
G01 X51.5738 Y-28.3077
G01 X51.5081 Y-28.3470
G01 X51.4978 Y-28.3536
G01 X51.4877 Y-28.3607
G01 X51.4262 Y-28.4063
G01 X51.4166 Y-28.4138
G01 X51.4073 Y-28.4218
G01 X51.3506 Y-28.4732
G01 X51.3417 Y-28.4817
G01 X51.3332 Y-28.4906
G01 X51.2818 Y-28.5473
G01 X51.2738 Y-28.5566
G01 X51.2663 Y-28.5662
G01 X51.2207 Y-28.6277
G01 X51.2136 Y-28.6378
G01 X51.2070 Y-28.6481
G01 X51.1677 Y-28.7138
G01 X51.1616 Y-28.7245
G01 X51.1561 Y-28.7354
G01 X51.1234 Y-28.8046
G01 X51.1184 Y-28.8158
G01 X51.1140 Y-28.8273
G01 X51.0882 Y-28.8994
G01 X51.0844 Y-28.9110
G01 X51.0811 Y-28.9228
G01 X51.0625 Y-28.9971
G01 X51.0598 Y-29.0091
G01 X51.0577 Y-29.0211
G01 X51.0465 Y-29.0969
G01 X51.0450 Y-29.1090
G01 X51.0441 Y-29.1213
G01 X51.0403 Y-29.1977
G01 X51.0400 Y-29.2100
G01 X51.0403 Y-29.2223
G01 X51.0441 Y-29.2987
G01 X51.0450 Y-29.3110
G01 X51.0465 Y-29.3231
G01 X51.0577 Y-29.3989
G01 X51.0598 Y-29.4109
G01 X51.0625 Y-29.4229
G01 X51.0811 Y-29.4972
G01 X51.0844 Y-29.5090
G01 X51.0882 Y-29.5206
G01 X51.1140 Y-29.5927
G01 X51.1184 Y-29.6042
G01 X51.1234 Y-29.6154
G01 X51.1561 Y-29.6846
G01 X51.1616 Y-29.6955
G01 X51.1677 Y-29.7062
G01 X51.2070 Y-29.7719
G01 X51.2136 Y-29.7822
G01 X51.2207 Y-29.7923
G01 X51.2663 Y-29.8538
G01 X51.2738 Y-29.8634
G01 X51.2818 Y-29.8727
G01 X51.3332 Y-29.9294
G01 X51.3417 Y-29.9383
G01 X51.3506 Y-29.9468
G01 X51.4073 Y-29.9982
G01 X51.4166 Y-30.0062
G01 X51.4262 Y-30.0137
G01 X51.4877 Y-30.0593
G01 X51.4978 Y-30.0664
G01 X51.5081 Y-30.0730
G01 X51.5738 Y-30.1123
G01 X51.5845 Y-30.1184
G01 X51.5954 Y-30.1239
G01 X51.6646 Y-30.1566
G01 X51.6758 Y-30.1616
G01 X51.6873 Y-30.1660
G01 X51.7594 Y-30.1918
G01 X51.7710 Y-30.1956
G01 X51.7828 Y-30.1989
G01 X51.8571 Y-30.2175
G01 X51.8691 Y-30.2202
G01 X51.8811 Y-30.2223
G01 X51.9569 Y-30.2335
G01 X51.9690 Y-30.2350
G01 X51.9813 Y-30.2359
G01 X52.0577 Y-30.2397
G01 X52.0700 Y-30.2400
G01 X52.0823 Y-30.2397
G01 X52.1587 Y-30.2359
G01 X52.1710 Y-30.2350
G01 X52.1831 Y-30.2335
G01 X52.2589 Y-30.2223
G01 X52.2709 Y-30.2202
G01 X52.2829 Y-30.2175
G01 X52.3572 Y-30.1989
G01 X52.3690 Y-30.1956
G01 X52.3806 Y-30.1918
G01 X52.4527 Y-30.1660
G01 X52.4642 Y-30.1616
G01 X52.4754 Y-30.1566
G01 X52.5446 Y-30.1239
G01 X52.5555 Y-30.1184
G01 X52.5662 Y-30.1123
G01 X52.6319 Y-30.0730
G01 X52.6422 Y-30.0664
G01 X52.6523 Y-30.0593
G01 X52.7138 Y-30.0137
G01 X52.7234 Y-30.0062
G01 X52.7327 Y-29.9982
G01 X52.7894 Y-29.9468
G01 X52.7983 Y-29.9383
G01 X52.8068 Y-29.9294
G01 X52.8582 Y-29.8727
G01 X52.8662 Y-29.8634
G01 X52.8737 Y-29.8538
G01 X52.9193 Y-29.7923
G01 X52.9264 Y-29.7822
G01 X52.9330 Y-29.7719
G01 X52.9723 Y-29.7062
G01 X52.9784 Y-29.6955
G01 X52.9839 Y-29.6846
G01 X53.0166 Y-29.6154
G01 X53.0216 Y-29.6042
G01 X53.0260 Y-29.5927
G01 X53.0518 Y-29.5206
G01 X53.0556 Y-29.5090
G01 X53.0589 Y-29.4972
G01 X53.0775 Y-29.4229
G01 X53.0802 Y-29.4109
G01 X53.0823 Y-29.3989
G01 X53.0935 Y-29.3231
G01 X53.0950 Y-29.3110
G01 X53.0959 Y-29.2987
G01 X53.0997 Y-29.2223
G01 X53.1000 Y-29.2100
G01 X53.0997 Y-29.1977
G00 Z2.0000
G00 X55.6397 Y-29.1977
G01 F60.00
G01 Z-0.0500
G01 F120.00
G01 X55.6359 Y-29.1213
G01 X55.6350 Y-29.1090
G01 X55.6335 Y-29.0969
G01 X55.6223 Y-29.0211
G01 X55.6202 Y-29.0091
G01 X55.6175 Y-28.9971
G01 X55.5989 Y-28.9228
G01 X55.5956 Y-28.9110
G01 X55.5918 Y-28.8994
G01 X55.5660 Y-28.8273
G01 X55.5616 Y-28.8158
G01 X55.5566 Y-28.8046
G01 X55.5239 Y-28.7354
G01 X55.5184 Y-28.7245
G01 X55.5123 Y-28.7138
G01 X55.4730 Y-28.6481
G01 X55.4664 Y-28.6378
G01 X55.4593 Y-28.6277
G01 X55.4137 Y-28.5662
G01 X55.4062 Y-28.5566
G01 X55.3982 Y-28.5473
G01 X55.3468 Y-28.4906
G01 X55.3383 Y-28.4817
G01 X55.3294 Y-28.4732
G01 X55.2727 Y-28.4218
G01 X55.2634 Y-28.4138
G01 X55.2538 Y-28.4063
G01 X55.1923 Y-28.3607
G01 X55.1822 Y-28.3536
G01 X55.1719 Y-28.3470
G01 X55.1062 Y-28.3077
G01 X55.0955 Y-28.3016
G01 X55.0846 Y-28.2961
G01 X55.0154 Y-28.2634
G01 X55.0042 Y-28.2584
G01 X54.9927 Y-28.2540
G01 X54.9206 Y-28.2282
G01 X54.9090 Y-28.2244
G01 X54.8972 Y-28.2211
G01 X54.8229 Y-28.2025
G01 X54.8109 Y-28.1998
G01 X54.7989 Y-28.1977
G01 X54.7231 Y-28.1865
G01 X54.7110 Y-28.1850
G01 X54.6987 Y-28.1841
G01 X54.6223 Y-28.1803
G01 X54.6100 Y-28.1800
G01 X54.5977 Y-28.1803
G01 X54.5213 Y-28.1841
G01 X54.5090 Y-28.1850
G01 X54.4969 Y-28.1865
G01 X54.4211 Y-28.1977
G01 X54.4091 Y-28.1998
G01 X54.3971 Y-28.2025
G01 X54.3228 Y-28.2211
G01 X54.3110 Y-28.2244
G01 X54.2994 Y-28.2282
G01 X54.2273 Y-28.2540
G01 X54.2158 Y-28.2584
G01 X54.2046 Y-28.2634
G01 X54.1354 Y-28.2961
G01 X54.1245 Y-28.3016
G01 X54.1138 Y-28.3077
G01 X54.0481 Y-28.3470
G01 X54.0378 Y-28.3536
G01 X54.0277 Y-28.3607
G01 X53.9662 Y-28.4063
G01 X53.9566 Y-28.4138
G01 X53.9473 Y-28.4218
G01 X53.8906 Y-28.4732
G01 X53.8817 Y-28.4817
G01 X53.8732 Y-28.4906
G01 X53.8218 Y-28.5473
G01 X53.8138 Y-28.5566
G01 X53.8063 Y-28.5662
G01 X53.7607 Y-28.6277
G01 X53.7536 Y-28.6378
G01 X53.7470 Y-28.6481
G01 X53.7077 Y-28.7138
G01 X53.7016 Y-28.7245
G01 X53.6961 Y-28.7354
G01 X53.6634 Y-28.8046
G01 X53.6584 Y-28.8158
G01 X53.6540 Y-28.8273
G01 X53.6282 Y-28.8994
G01 X53.6244 Y-28.9110
G01 X53.6211 Y-28.9228
G01 X53.6025 Y-28.9971
G01 X53.5998 Y-29.0091
G01 X53.5977 Y-29.0211
G01 X53.5865 Y-29.0969
G01 X53.5850 Y-29.1090
G01 X53.5841 Y-29.1213
G01 X53.5803 Y-29.1977
G01 X53.5800 Y-29.2100
G01 X53.5803 Y-29.2223
G01 X53.5841 Y-29.2987
G01 X53.5850 Y-29.3110
G01 X53.5865 Y-29.3231
G01 X53.5977 Y-29.3989
G01 X53.5998 Y-29.4109
G01 X53.6025 Y-29.4229
G01 X53.6211 Y-29.4972
G01 X53.6244 Y-29.5090
G01 X53.6282 Y-29.5206
G01 X53.6540 Y-29.5927
G01 X53.6584 Y-29.6042
G01 X53.6634 Y-29.6154
G01 X53.6961 Y-29.6846
G01 X53.7016 Y-29.6955
G01 X53.7077 Y-29.7062
G01 X53.7470 Y-29.7719
G01 X53.7536 Y-29.7822
G01 X53.7607 Y-29.7923
G01 X53.8063 Y-29.8538
G01 X53.8138 Y-29.8634
G01 X53.8218 Y-29.8727
G01 X53.8732 Y-29.9294
G01 X53.8817 Y-29.9383
G01 X53.8906 Y-29.9468
G01 X53.9473 Y-29.9982
G01 X53.9566 Y-30.0062
G01 X53.9662 Y-30.0137
G01 X54.0277 Y-30.0593
G01 X54.0378 Y-30.0664
G01 X54.0481 Y-30.0730
G01 X54.1138 Y-30.1123
G01 X54.1245 Y-30.1184
G01 X54.1354 Y-30.1239
G01 X54.2046 Y-30.1566
G01 X54.2158 Y-30.1616
G01 X54.2273 Y-30.1660
G01 X54.2994 Y-30.1918
G01 X54.3110 Y-30.1956
G01 X54.3228 Y-30.1989
G01 X54.3971 Y-30.2175
G01 X54.4091 Y-30.2202
G01 X54.4211 Y-30.2223
G01 X54.4969 Y-30.2335
G01 X54.5090 Y-30.2350
G01 X54.5213 Y-30.2359
G01 X54.5977 Y-30.2397
G01 X54.6100 Y-30.2400
G01 X54.6223 Y-30.2397
G01 X54.6987 Y-30.2359
G01 X54.7110 Y-30.2350
G01 X54.7231 Y-30.2335
G01 X54.7989 Y-30.2223
G01 X54.8109 Y-30.2202
G01 X54.8229 Y-30.2175
G01 X54.8972 Y-30.1989
G01 X54.9090 Y-30.1956
G01 X54.9206 Y-30.1918
G01 X54.9927 Y-30.1660
G01 X55.0042 Y-30.1616
G01 X55.0154 Y-30.1566
G01 X55.0846 Y-30.1239
G01 X55.0955 Y-30.1184
G01 X55.1062 Y-30.1123
G01 X55.1719 Y-30.0730
G01 X55.1822 Y-30.0664
G01 X55.1923 Y-30.0593
G01 X55.2538 Y-30.0137
G01 X55.2634 Y-30.0062
G01 X55.2727 Y-29.9982
G01 X55.3294 Y-29.9468
G01 X55.3383 Y-29.9383
G01 X55.3468 Y-29.9294
G01 X55.3982 Y-29.8727
G01 X55.4062 Y-29.8634
G01 X55.4137 Y-29.8538
G01 X55.4593 Y-29.7923
G01 X55.4664 Y-29.7822
G01 X55.4730 Y-29.7719
G01 X55.5123 Y-29.7062
G01 X55.5184 Y-29.6955
G01 X55.5239 Y-29.6846
G01 X55.5566 Y-29.6154
G01 X55.5616 Y-29.6042
G01 X55.5660 Y-29.5927
G01 X55.5918 Y-29.5206
G01 X55.5956 Y-29.5090
G01 X55.5989 Y-29.4972
G01 X55.6175 Y-29.4229
G01 X55.6202 Y-29.4109
G01 X55.6223 Y-29.3989
G01 X55.6335 Y-29.3231
G01 X55.6350 Y-29.3110
G01 X55.6359 Y-29.2987
G01 X55.6397 Y-29.2223
G01 X55.6400 Y-29.2100
G01 X55.6397 Y-29.1977
G00 Z2.0000
G00 X58.1797 Y-29.1977
G01 F60.00
G01 Z-0.0500
G01 F120.00
G01 X58.1759 Y-29.1213
G01 X58.1750 Y-29.1090
G01 X58.1735 Y-29.0969
G01 X58.1623 Y-29.0211
G01 X58.1602 Y-29.0091
G01 X58.1575 Y-28.9971
G01 X58.1389 Y-28.9228
G01 X58.1356 Y-28.9110
G01 X58.1318 Y-28.8994
G01 X58.1060 Y-28.8273
G01 X58.1016 Y-28.8158
G01 X58.0966 Y-28.8046
G01 X58.0639 Y-28.7354
G01 X58.0584 Y-28.7245
G01 X58.0523 Y-28.7138
G01 X58.0130 Y-28.6481
G01 X58.0064 Y-28.6378
G01 X57.9993 Y-28.6277
G01 X57.9537 Y-28.5662
G01 X57.9462 Y-28.5566
G01 X57.9382 Y-28.5473
G01 X57.8868 Y-28.4906
G01 X57.8783 Y-28.4817
G01 X57.8694 Y-28.4732
G01 X57.8127 Y-28.4218
G01 X57.8034 Y-28.4138
G01 X57.7938 Y-28.4063
G01 X57.7323 Y-28.3607
G01 X57.7222 Y-28.3536
G01 X57.7119 Y-28.3470
G01 X57.6462 Y-28.3077
G01 X57.6355 Y-28.3016
G01 X57.6246 Y-28.2961
G01 X57.5554 Y-28.2634
G01 X57.5442 Y-28.2584
G01 X57.5327 Y-28.2540
G01 X57.4606 Y-28.2282
G01 X57.4490 Y-28.2244
G01 X57.4372 Y-28.2211
G01 X57.3629 Y-28.2025
G01 X57.3509 Y-28.1998
G01 X57.3389 Y-28.1977
G01 X57.2631 Y-28.1865
G01 X57.2510 Y-28.1850
G01 X57.2387 Y-28.1841
G01 X57.1623 Y-28.1803
G01 X57.1500 Y-28.1800
G01 X57.1377 Y-28.1803
G01 X57.0613 Y-28.1841
G01 X57.0490 Y-28.1850
G01 X57.0369 Y-28.1865
G01 X56.9611 Y-28.1977
G01 X56.9491 Y-28.1998
G01 X56.9371 Y-28.2025
G01 X56.8628 Y-28.2211
G01 X56.8510 Y-28.2244
G01 X56.8394 Y-28.2282
G01 X56.7673 Y-28.2540
G01 X56.7558 Y-28.2584
G01 X56.7446 Y-28.2634
G01 X56.6754 Y-28.2961
G01 X56.6645 Y-28.3016
G01 X56.6538 Y-28.3077
G01 X56.5881 Y-28.3470
G01 X56.5778 Y-28.3536
G01 X56.5677 Y-28.3607
G01 X56.5062 Y-28.4063
G01 X56.4966 Y-28.4138
G01 X56.4873 Y-28.4218
G01 X56.4306 Y-28.4732
G01 X56.4217 Y-28.4817
G01 X56.4132 Y-28.4906
G01 X56.3618 Y-28.5473
G01 X56.3538 Y-28.5566
G01 X56.3463 Y-28.5662
G01 X56.3007 Y-28.6277
G01 X56.2936 Y-28.6378
G01 X56.2870 Y-28.6481
G01 X56.2477 Y-28.7138
G01 X56.2416 Y-28.7245
G01 X56.2361 Y-28.7354
G01 X56.2034 Y-28.8046
G01 X56.1984 Y-28.8158
G01 X56.1940 Y-28.8273
G01 X56.1682 Y-28.8994
G01 X56.1644 Y-28.9110
G01 X56.1611 Y-28.9228
G01 X56.1425 Y-28.9971
G01 X56.1398 Y-29.0091
G01 X56.1377 Y-29.0211
G01 X56.1265 Y-29.0969
G01 X56.1250 Y-29.1090
G01 X56.1241 Y-29.1213
G01 X56.1203 Y-29.1977
G01 X56.1200 Y-29.2100
G01 X56.1203 Y-29.2223
G01 X56.1241 Y-29.2987
G01 X56.1250 Y-29.3110
G01 X56.1265 Y-29.3231
G01 X56.1377 Y-29.3989
G01 X56.1398 Y-29.4109
G01 X56.1425 Y-29.4229
G01 X56.1611 Y-29.4972
G01 X56.1644 Y-29.5090
G01 X56.1682 Y-29.5206
G01 X56.1940 Y-29.5927
G01 X56.1984 Y-29.6042
G01 X56.2034 Y-29.6154
G01 X56.2361 Y-29.6846
G01 X56.2416 Y-29.6955
G01 X56.2477 Y-29.7062
G01 X56.2870 Y-29.7719
G01 X56.2936 Y-29.7822
G01 X56.3007 Y-29.7923
G01 X56.3463 Y-29.8538
G01 X56.3538 Y-29.8634
G01 X56.3618 Y-29.8727
G01 X56.4132 Y-29.9294
G01 X56.4217 Y-29.9383
G01 X56.4306 Y-29.9468
G01 X56.4873 Y-29.9982
G01 X56.4966 Y-30.0062
G01 X56.5062 Y-30.0137
G01 X56.5677 Y-30.0593
G01 X56.5778 Y-30.0664
G01 X56.5881 Y-30.0730
G01 X56.6538 Y-30.1123
G01 X56.6645 Y-30.1184
G01 X56.6754 Y-30.1239
G01 X56.7446 Y-30.1566
G01 X56.7558 Y-30.1616
G01 X56.7673 Y-30.1660
G01 X56.8394 Y-30.1918
G01 X56.8510 Y-30.1956
G01 X56.8628 Y-30.1989
G01 X56.9371 Y-30.2175
G01 X56.9491 Y-30.2202
G01 X56.9611 Y-30.2223
G01 X57.0369 Y-30.2335
G01 X57.0490 Y-30.2350
G01 X57.0613 Y-30.2359
G01 X57.1377 Y-30.2397
G01 X57.1500 Y-30.2400
G01 X57.1623 Y-30.2397
G01 X57.2387 Y-30.2359
G01 X57.2510 Y-30.2350
G01 X57.2631 Y-30.2335
G01 X57.3389 Y-30.2223
G01 X57.3509 Y-30.2202
G01 X57.3629 Y-30.2175
G01 X57.4372 Y-30.1989
G01 X57.4490 Y-30.1956
G01 X57.4606 Y-30.1918
G01 X57.5327 Y-30.1660
G01 X57.5442 Y-30.1616
G01 X57.5554 Y-30.1566
G01 X57.6246 Y-30.1239
G01 X57.6355 Y-30.1184
G01 X57.6462 Y-30.1123
G01 X57.7119 Y-30.0730
G01 X57.7222 Y-30.0664
G01 X57.7323 Y-30.0593
G01 X57.7938 Y-30.0137
G01 X57.8034 Y-30.0062
G01 X57.8127 Y-29.9982
G01 X57.8694 Y-29.9468
G01 X57.8783 Y-29.9383
G01 X57.8868 Y-29.9294
G01 X57.9382 Y-29.8727
G01 X57.9462 Y-29.8634
G01 X57.9537 Y-29.8538
G01 X57.9993 Y-29.7923
G01 X58.0064 Y-29.7822
G01 X58.0130 Y-29.7719
G01 X58.0523 Y-29.7062
G01 X58.0584 Y-29.6955
G01 X58.0639 Y-29.6846
G01 X58.0966 Y-29.6154
G01 X58.1016 Y-29.6042
G01 X58.1060 Y-29.5927
G01 X58.1318 Y-29.5206
G01 X58.1356 Y-29.5090
G01 X58.1389 Y-29.4972
G01 X58.1575 Y-29.4229
G01 X58.1602 Y-29.4109
G01 X58.1623 Y-29.3989
G01 X58.1735 Y-29.3231
G01 X58.1750 Y-29.3110
G01 X58.1759 Y-29.2987
G01 X58.1797 Y-29.2223
G01 X58.1800 Y-29.2100
G01 X58.1797 Y-29.1977
G00 Z2.0000
G00 X60.7197 Y-29.1977
G01 F60.00
G01 Z-0.0500
G01 F120.00
G01 X60.7159 Y-29.1213
G01 X60.7150 Y-29.1090
G01 X60.7135 Y-29.0969
G01 X60.7023 Y-29.0211
G01 X60.7002 Y-29.0091
G01 X60.6975 Y-28.9971
G01 X60.6789 Y-28.9228
G01 X60.6756 Y-28.9110
G01 X60.6718 Y-28.8994
G01 X60.6460 Y-28.8273
G01 X60.6416 Y-28.8158
G01 X60.6366 Y-28.8046
G01 X60.6039 Y-28.7354
G01 X60.5984 Y-28.7245
G01 X60.5923 Y-28.7138
G01 X60.5530 Y-28.6481
G01 X60.5464 Y-28.6378
G01 X60.5393 Y-28.6277
G01 X60.4937 Y-28.5662
G01 X60.4862 Y-28.5566
G01 X60.4782 Y-28.5473
G01 X60.4268 Y-28.4906
G01 X60.4183 Y-28.4817
G01 X60.4094 Y-28.4732
G01 X60.3527 Y-28.4218
G01 X60.3434 Y-28.4138
G01 X60.3338 Y-28.4063
G01 X60.2723 Y-28.3607
G01 X60.2622 Y-28.3536
G01 X60.2519 Y-28.3470
G01 X60.1862 Y-28.3077
G01 X60.1755 Y-28.3016
G01 X60.1646 Y-28.2961
G01 X60.0954 Y-28.2634
G01 X60.0842 Y-28.2584
G01 X60.0727 Y-28.2540
G01 X60.0006 Y-28.2282
G01 X59.9890 Y-28.2244
G01 X59.9772 Y-28.2211
G01 X59.9029 Y-28.2025
G01 X59.8909 Y-28.1998
G01 X59.8789 Y-28.1977
G01 X59.8031 Y-28.1865
G01 X59.7910 Y-28.1850
G01 X59.7787 Y-28.1841
G01 X59.7023 Y-28.1803
G01 X59.6900 Y-28.1800
G01 X59.6777 Y-28.1803
G01 X59.6013 Y-28.1841
G01 X59.5890 Y-28.1850
G01 X59.5769 Y-28.1865
G01 X59.5011 Y-28.1977
G01 X59.4891 Y-28.1998
G01 X59.4771 Y-28.2025
G01 X59.4028 Y-28.2211
G01 X59.3910 Y-28.2244
G01 X59.3794 Y-28.2282
G01 X59.3073 Y-28.2540
G01 X59.2958 Y-28.2584
G01 X59.2846 Y-28.2634
G01 X59.2154 Y-28.2961
G01 X59.2045 Y-28.3016
G01 X59.1938 Y-28.3077
G01 X59.1281 Y-28.3470
G01 X59.1178 Y-28.3536
G01 X59.1077 Y-28.3607
G01 X59.0462 Y-28.4063
G01 X59.0366 Y-28.4138
G01 X59.0273 Y-28.4218
G01 X58.9706 Y-28.4732
G01 X58.9617 Y-28.4817
G01 X58.9532 Y-28.4906
G01 X58.9018 Y-28.5473
G01 X58.8938 Y-28.5566
G01 X58.8863 Y-28.5662
G01 X58.8407 Y-28.6277
G01 X58.8336 Y-28.6378
G01 X58.8270 Y-28.6481
G01 X58.7877 Y-28.7138
G01 X58.7816 Y-28.7245
G01 X58.7761 Y-28.7354
G01 X58.7434 Y-28.8046
G01 X58.7384 Y-28.8158
G01 X58.7340 Y-28.8273
G01 X58.7082 Y-28.8994
G01 X58.7044 Y-28.9110
G01 X58.7011 Y-28.9228
G01 X58.6825 Y-28.9971
G01 X58.6798 Y-29.0091
G01 X58.6777 Y-29.0211
G01 X58.6665 Y-29.0969
G01 X58.6650 Y-29.1090
G01 X58.6641 Y-29.1213
G01 X58.6603 Y-29.1977
G01 X58.6600 Y-29.2100
G01 X58.6603 Y-29.2223
G01 X58.6641 Y-29.2987
G01 X58.6650 Y-29.3110
G01 X58.6665 Y-29.3231
G01 X58.6777 Y-29.3989
G01 X58.6798 Y-29.4109
G01 X58.6825 Y-29.4229
G01 X58.7011 Y-29.4972
G01 X58.7044 Y-29.5090
G01 X58.7082 Y-29.5206
G01 X58.7340 Y-29.5927
G01 X58.7384 Y-29.6042
G01 X58.7434 Y-29.6154
G01 X58.7761 Y-29.6846
G01 X58.7816 Y-29.6955
G01 X58.7877 Y-29.7062
G01 X58.8270 Y-29.7719
G01 X58.8336 Y-29.7822
G01 X58.8407 Y-29.7923
G01 X58.8863 Y-29.8538
G01 X58.8938 Y-29.8634
G01 X58.9018 Y-29.8727
G01 X58.9532 Y-29.9294
G01 X58.9617 Y-29.9383
G01 X58.9706 Y-29.9468
G01 X59.0273 Y-29.9982
G01 X59.0366 Y-30.0062
G01 X59.0462 Y-30.0137
G01 X59.1077 Y-30.0593
G01 X59.1178 Y-30.0664
G01 X59.1281 Y-30.0730
G01 X59.1938 Y-30.1123
G01 X59.2045 Y-30.1184
G01 X59.2154 Y-30.1239
G01 X59.2846 Y-30.1566
G01 X59.2958 Y-30.1616
G01 X59.3073 Y-30.1660
G01 X59.3794 Y-30.1918
G01 X59.3910 Y-30.1956
G01 X59.4028 Y-30.1989
G01 X59.4771 Y-30.2175
G01 X59.4891 Y-30.2202
G01 X59.5011 Y-30.2223
G01 X59.5769 Y-30.2335
G01 X59.5890 Y-30.2350
G01 X59.6013 Y-30.2359
G01 X59.6777 Y-30.2397
G01 X59.6900 Y-30.2400
G01 X59.7023 Y-30.2397
G01 X59.7787 Y-30.2359
G01 X59.7910 Y-30.2350
G01 X59.8031 Y-30.2335
G01 X59.8789 Y-30.2223
G01 X59.8909 Y-30.2202
G01 X59.9029 Y-30.2175
G01 X59.9772 Y-30.1989
G01 X59.9890 Y-30.1956
G01 X60.0006 Y-30.1918
G01 X60.0727 Y-30.1660
G01 X60.0842 Y-30.1616
G01 X60.0954 Y-30.1566
G01 X60.1646 Y-30.1239
G01 X60.1755 Y-30.1184
G01 X60.1862 Y-30.1123
G01 X60.2519 Y-30.0730
G01 X60.2622 Y-30.0664
G01 X60.2723 Y-30.0593
G01 X60.3338 Y-30.0137
G01 X60.3434 Y-30.0062
G01 X60.3527 Y-29.9982
G01 X60.4094 Y-29.9468
G01 X60.4183 Y-29.9383
G01 X60.4268 Y-29.9294
G01 X60.4782 Y-29.8727
G01 X60.4862 Y-29.8634
G01 X60.4937 Y-29.8538
G01 X60.5393 Y-29.7923
G01 X60.5464 Y-29.7822
G01 X60.5530 Y-29.7719
G01 X60.5923 Y-29.7062
G01 X60.5984 Y-29.6955
G01 X60.6039 Y-29.6846
G01 X60.6366 Y-29.6154
G01 X60.6416 Y-29.6042
G01 X60.6460 Y-29.5927
G01 X60.6718 Y-29.5206
G01 X60.6756 Y-29.5090
G01 X60.6789 Y-29.4972
G01 X60.6975 Y-29.4229
G01 X60.7002 Y-29.4109
G01 X60.7023 Y-29.3989
G01 X60.7135 Y-29.3231
G01 X60.7150 Y-29.3110
G01 X60.7159 Y-29.2987
G01 X60.7197 Y-29.2223
G01 X60.7200 Y-29.2100
G01 X60.7197 Y-29.1977
G00 Z2.0000
G00 X63.2597 Y-29.1977
G01 F60.00
G01 Z-0.0500
G01 F120.00
G01 X63.2559 Y-29.1213
G01 X63.2550 Y-29.1090
G01 X63.2535 Y-29.0969
G01 X63.2423 Y-29.0211
G01 X63.2402 Y-29.0091
G01 X63.2375 Y-28.9971
G01 X63.2189 Y-28.9228
G01 X63.2156 Y-28.9110
G01 X63.2118 Y-28.8994
G01 X63.1860 Y-28.8273
G01 X63.1816 Y-28.8158
G01 X63.1766 Y-28.8046
G01 X63.1439 Y-28.7354
G01 X63.1384 Y-28.7245
G01 X63.1323 Y-28.7138
G01 X63.0930 Y-28.6481
G01 X63.0864 Y-28.6378
G01 X63.0793 Y-28.6277
G01 X63.0337 Y-28.5662
G01 X63.0262 Y-28.5566
G01 X63.0182 Y-28.5473
G01 X62.9668 Y-28.4906
G01 X62.9583 Y-28.4817
G01 X62.9494 Y-28.4732
G01 X62.8927 Y-28.4218
G01 X62.8834 Y-28.4138
G01 X62.8738 Y-28.4063
G01 X62.8123 Y-28.3607
G01 X62.8022 Y-28.3536
G01 X62.7919 Y-28.3470
G01 X62.7262 Y-28.3077
G01 X62.7155 Y-28.3016
G01 X62.7046 Y-28.2961
G01 X62.6354 Y-28.2634
G01 X62.6242 Y-28.2584
G01 X62.6127 Y-28.2540
G01 X62.5406 Y-28.2282
G01 X62.5290 Y-28.2244
G01 X62.5172 Y-28.2211
G01 X62.4429 Y-28.2025
G01 X62.4309 Y-28.1998
G01 X62.4189 Y-28.1977
G01 X62.3431 Y-28.1865
G01 X62.3310 Y-28.1850
G01 X62.3187 Y-28.1841
G01 X62.2423 Y-28.1803
G01 X62.2300 Y-28.1800
G01 X62.2177 Y-28.1803
G01 X62.1413 Y-28.1841
G01 X62.1290 Y-28.1850
G01 X62.1169 Y-28.1865
G01 X62.0411 Y-28.1977
G01 X62.0291 Y-28.1998
G01 X62.0171 Y-28.2025
G01 X61.9428 Y-28.2211
G01 X61.9310 Y-28.2244
G01 X61.9194 Y-28.2282
G01 X61.8473 Y-28.2540
G01 X61.8358 Y-28.2584
G01 X61.8246 Y-28.2634
G01 X61.7554 Y-28.2961
G01 X61.7445 Y-28.3016
G01 X61.7338 Y-28.3077
G01 X61.6681 Y-28.3470
G01 X61.6578 Y-28.3536
G01 X61.6477 Y-28.3607
G01 X61.5862 Y-28.4063
G01 X61.5766 Y-28.4138
G01 X61.5673 Y-28.4218
G01 X61.5106 Y-28.4732
G01 X61.5017 Y-28.4817
G01 X61.4932 Y-28.4906
G01 X61.4418 Y-28.5473
G01 X61.4338 Y-28.5566
G01 X61.4263 Y-28.5662
G01 X61.3807 Y-28.6277
G01 X61.3736 Y-28.6378
G01 X61.3670 Y-28.6481
G01 X61.3277 Y-28.7138
G01 X61.3216 Y-28.7245
G01 X61.3161 Y-28.7354
G01 X61.2834 Y-28.8046
G01 X61.2784 Y-28.8158
G01 X61.2740 Y-28.8273
G01 X61.2482 Y-28.8994
G01 X61.2444 Y-28.9110
G01 X61.2411 Y-28.9228
G01 X61.2225 Y-28.9971
G01 X61.2198 Y-29.0091
G01 X61.2177 Y-29.0211
G01 X61.2065 Y-29.0969
G01 X61.2050 Y-29.1090
G01 X61.2041 Y-29.1213
G01 X61.2003 Y-29.1977
G01 X61.2000 Y-29.2100
G01 X61.2003 Y-29.2223
G01 X61.2041 Y-29.2987
G01 X61.2050 Y-29.3110
G01 X61.2065 Y-29.3231
G01 X61.2177 Y-29.3989
G01 X61.2198 Y-29.4109
G01 X61.2225 Y-29.4229
G01 X61.2411 Y-29.4972
G01 X61.2444 Y-29.5090
G01 X61.2482 Y-29.5206
G01 X61.2740 Y-29.5927
G01 X61.2784 Y-29.6042
G01 X61.2834 Y-29.6154
G01 X61.3161 Y-29.6846
G01 X61.3216 Y-29.6955
G01 X61.3277 Y-29.7062
G01 X61.3670 Y-29.7719
G01 X61.3736 Y-29.7822
G01 X61.3807 Y-29.7923
G01 X61.4263 Y-29.8538
G01 X61.4338 Y-29.8634
G01 X61.4418 Y-29.8727
G01 X61.4932 Y-29.9294
G01 X61.5017 Y-29.9383
G01 X61.5106 Y-29.9468
G01 X61.5673 Y-29.9982
G01 X61.5766 Y-30.0062
G01 X61.5862 Y-30.0137
G01 X61.6477 Y-30.0593
G01 X61.6578 Y-30.0664
G01 X61.6681 Y-30.0730
G01 X61.7338 Y-30.1123
G01 X61.7445 Y-30.1184
G01 X61.7554 Y-30.1239
G01 X61.8246 Y-30.1566
G01 X61.8358 Y-30.1616
G01 X61.8473 Y-30.1660
G01 X61.9194 Y-30.1918
G01 X61.9310 Y-30.1956
G01 X61.9428 Y-30.1989
G01 X62.0171 Y-30.2175
G01 X62.0291 Y-30.2202
G01 X62.0411 Y-30.2223
G01 X62.1169 Y-30.2335
G01 X62.1290 Y-30.2350
G01 X62.1413 Y-30.2359
G01 X62.2177 Y-30.2397
G01 X62.2300 Y-30.2400
G01 X62.2423 Y-30.2397
G01 X62.3187 Y-30.2359
G01 X62.3310 Y-30.2350
G01 X62.3431 Y-30.2335
G01 X62.4189 Y-30.2223
G01 X62.4309 Y-30.2202
G01 X62.4429 Y-30.2175
G01 X62.5172 Y-30.1989
G01 X62.5290 Y-30.1956
G01 X62.5406 Y-30.1918
G01 X62.6127 Y-30.1660
G01 X62.6242 Y-30.1616
G01 X62.6354 Y-30.1566
G01 X62.7046 Y-30.1239
G01 X62.7155 Y-30.1184
G01 X62.7262 Y-30.1123
G01 X62.7919 Y-30.0730
G01 X62.8022 Y-30.0664
G01 X62.8123 Y-30.0593
G01 X62.8738 Y-30.0137
G01 X62.8834 Y-30.0062
G01 X62.8927 Y-29.9982
G01 X62.9494 Y-29.9468
G01 X62.9583 Y-29.9383
G01 X62.9668 Y-29.9294
G01 X63.0182 Y-29.8727
G01 X63.0262 Y-29.8634
G01 X63.0337 Y-29.8538
G01 X63.0793 Y-29.7923
G01 X63.0864 Y-29.7822
G01 X63.0930 Y-29.7719
G01 X63.1323 Y-29.7062
G01 X63.1384 Y-29.6955
G01 X63.1439 Y-29.6846
G01 X63.1766 Y-29.6154
G01 X63.1816 Y-29.6042
G01 X63.1860 Y-29.5927
G01 X63.2118 Y-29.5206
G01 X63.2156 Y-29.5090
G01 X63.2189 Y-29.4972
G01 X63.2375 Y-29.4229
G01 X63.2402 Y-29.4109
G01 X63.2423 Y-29.3989
G01 X63.2535 Y-29.3231
G01 X63.2550 Y-29.3110
G01 X63.2559 Y-29.2987
G01 X63.2597 Y-29.2223
G01 X63.2600 Y-29.2100
G01 X63.2597 Y-29.1977
G00 Z2.0000
G00 X65.7997 Y-29.1977
G01 F60.00
G01 Z-0.0500
G01 F120.00
G01 X65.7959 Y-29.1213
G01 X65.7950 Y-29.1090
G01 X65.7935 Y-29.0969
G01 X65.7823 Y-29.0211
G01 X65.7802 Y-29.0091
G01 X65.7775 Y-28.9971
G01 X65.7589 Y-28.9228
G01 X65.7556 Y-28.9110
G01 X65.7518 Y-28.8994
G01 X65.7260 Y-28.8273
G01 X65.7216 Y-28.8158
G01 X65.7166 Y-28.8046
G01 X65.6839 Y-28.7354
G01 X65.6784 Y-28.7245
G01 X65.6723 Y-28.7138
G01 X65.6330 Y-28.6481
G01 X65.6264 Y-28.6378
G01 X65.6193 Y-28.6277
G01 X65.5737 Y-28.5662
G01 X65.5662 Y-28.5566
G01 X65.5582 Y-28.5473
G01 X65.5068 Y-28.4906
G01 X65.4983 Y-28.4817
G01 X65.4894 Y-28.4732
G01 X65.4327 Y-28.4218
G01 X65.4234 Y-28.4138
G01 X65.4138 Y-28.4063
G01 X65.3523 Y-28.3607
G01 X65.3422 Y-28.3536
G01 X65.3319 Y-28.3470
G01 X65.2662 Y-28.3077
G01 X65.2555 Y-28.3016
G01 X65.2446 Y-28.2961
G01 X65.1754 Y-28.2634
G01 X65.1642 Y-28.2584
G01 X65.1527 Y-28.2540
G01 X65.0806 Y-28.2282
G01 X65.0690 Y-28.2244
G01 X65.0572 Y-28.2211
G01 X64.9829 Y-28.2025
G01 X64.9709 Y-28.1998
G01 X64.9589 Y-28.1977
G01 X64.8831 Y-28.1865
G01 X64.8710 Y-28.1850
G01 X64.8587 Y-28.1841
G01 X64.7823 Y-28.1803
G01 X64.7700 Y-28.1800
G01 X64.7577 Y-28.1803
G01 X64.6813 Y-28.1841
G01 X64.6690 Y-28.1850
G01 X64.6569 Y-28.1865
G01 X64.5811 Y-28.1977
G01 X64.5691 Y-28.1998
G01 X64.5571 Y-28.2025
G01 X64.4828 Y-28.2211
G01 X64.4710 Y-28.2244
G01 X64.4594 Y-28.2282
G01 X64.3873 Y-28.2540
G01 X64.3758 Y-28.2584
G01 X64.3646 Y-28.2634
G01 X64.2954 Y-28.2961
G01 X64.2845 Y-28.3016
G01 X64.2738 Y-28.3077
G01 X64.2081 Y-28.3470
G01 X64.1978 Y-28.3536
G01 X64.1877 Y-28.3607
G01 X64.1262 Y-28.4063
G01 X64.1166 Y-28.4138
G01 X64.1073 Y-28.4218
G01 X64.0506 Y-28.4732
G01 X64.0417 Y-28.4817
G01 X64.0332 Y-28.4906
G01 X63.9818 Y-28.5473
G01 X63.9738 Y-28.5566
G01 X63.9663 Y-28.5662
G01 X63.9207 Y-28.6277
G01 X63.9136 Y-28.6378
G01 X63.9070 Y-28.6481
G01 X63.8677 Y-28.7138
G01 X63.8616 Y-28.7245
G01 X63.8561 Y-28.7354
G01 X63.8234 Y-28.8046
G01 X63.8184 Y-28.8158
G01 X63.8140 Y-28.8273
G01 X63.7882 Y-28.8994
G01 X63.7844 Y-28.9110
G01 X63.7811 Y-28.9228
G01 X63.7625 Y-28.9971
G01 X63.7598 Y-29.0091
G01 X63.7577 Y-29.0211
G01 X63.7465 Y-29.0969
G01 X63.7450 Y-29.1090
G01 X63.7441 Y-29.1213
G01 X63.7403 Y-29.1977
G01 X63.7400 Y-29.2100
G01 X63.7403 Y-29.2223
G01 X63.7441 Y-29.2987
G01 X63.7450 Y-29.3110
G01 X63.7465 Y-29.3231
G01 X63.7577 Y-29.3989
G01 X63.7598 Y-29.4109
G01 X63.7625 Y-29.4229
G01 X63.7811 Y-29.4972
G01 X63.7844 Y-29.5090
G01 X63.7882 Y-29.5206
G01 X63.8140 Y-29.5927
G01 X63.8184 Y-29.6042
G01 X63.8234 Y-29.6154
G01 X63.8561 Y-29.6846
G01 X63.8616 Y-29.6955
G01 X63.8677 Y-29.7062
G01 X63.9070 Y-29.7719
G01 X63.9136 Y-29.7822
G01 X63.9207 Y-29.7923
G01 X63.9663 Y-29.8538
G01 X63.9738 Y-29.8634
G01 X63.9818 Y-29.8727
G01 X64.0332 Y-29.9294
G01 X64.0417 Y-29.9383
G01 X64.0506 Y-29.9468
G01 X64.1073 Y-29.9982
G01 X64.1166 Y-30.0062
G01 X64.1262 Y-30.0137
G01 X64.1877 Y-30.0593
G01 X64.1978 Y-30.0664
G01 X64.2081 Y-30.0730
G01 X64.2738 Y-30.1123
G01 X64.2845 Y-30.1184
G01 X64.2954 Y-30.1239
G01 X64.3646 Y-30.1566
G01 X64.3758 Y-30.1616
G01 X64.3873 Y-30.1660
G01 X64.4594 Y-30.1918
G01 X64.4710 Y-30.1956
G01 X64.4828 Y-30.1989
G01 X64.5571 Y-30.2175
G01 X64.5691 Y-30.2202
G01 X64.5811 Y-30.2223
G01 X64.6569 Y-30.2335
G01 X64.6690 Y-30.2350
G01 X64.6813 Y-30.2359
G01 X64.7577 Y-30.2397
G01 X64.7700 Y-30.2400
G01 X64.7823 Y-30.2397
G01 X64.8587 Y-30.2359
G01 X64.8710 Y-30.2350
G01 X64.8831 Y-30.2335
G01 X64.9589 Y-30.2223
G01 X64.9709 Y-30.2202
G01 X64.9829 Y-30.2175
G01 X65.0572 Y-30.1989
G01 X65.0690 Y-30.1956
G01 X65.0806 Y-30.1918
G01 X65.1527 Y-30.1660
G01 X65.1642 Y-30.1616
G01 X65.1754 Y-30.1566
G01 X65.2446 Y-30.1239
G01 X65.2555 Y-30.1184
G01 X65.2662 Y-30.1123
G01 X65.3319 Y-30.0730
G01 X65.3422 Y-30.0664
G01 X65.3523 Y-30.0593
G01 X65.4138 Y-30.0137
G01 X65.4234 Y-30.0062
G01 X65.4327 Y-29.9982
G01 X65.4894 Y-29.9468
G01 X65.4983 Y-29.9383
G01 X65.5068 Y-29.9294
G01 X65.5582 Y-29.8727
G01 X65.5662 Y-29.8634
G01 X65.5737 Y-29.8538
G01 X65.6193 Y-29.7923
G01 X65.6264 Y-29.7822
G01 X65.6330 Y-29.7719
G01 X65.6723 Y-29.7062
G01 X65.6784 Y-29.6955
G01 X65.6839 Y-29.6846
G01 X65.7166 Y-29.6154
G01 X65.7216 Y-29.6042
G01 X65.7260 Y-29.5927
G01 X65.7518 Y-29.5206
G01 X65.7556 Y-29.5090
G01 X65.7589 Y-29.4972
G01 X65.7775 Y-29.4229
G01 X65.7802 Y-29.4109
G01 X65.7823 Y-29.3989
G01 X65.7935 Y-29.3231
G01 X65.7950 Y-29.3110
G01 X65.7959 Y-29.2987
G01 X65.7997 Y-29.2223
G01 X65.8000 Y-29.2100
G01 X65.7997 Y-29.1977
G00 Z2.0000
G00 X68.3397 Y-29.1977
G01 F60.00
G01 Z-0.0500
G01 F120.00
G01 X68.3359 Y-29.1213
G01 X68.3350 Y-29.1090
G01 X68.3335 Y-29.0969
G01 X68.3223 Y-29.0211
G01 X68.3202 Y-29.0091
G01 X68.3175 Y-28.9971
G01 X68.2989 Y-28.9228
G01 X68.2956 Y-28.9110
G01 X68.2918 Y-28.8994
G01 X68.2660 Y-28.8273
G01 X68.2616 Y-28.8158
G01 X68.2566 Y-28.8046
G01 X68.2239 Y-28.7354
G01 X68.2184 Y-28.7245
G01 X68.2123 Y-28.7138
G01 X68.1730 Y-28.6481
G01 X68.1664 Y-28.6378
G01 X68.1593 Y-28.6277
G01 X68.1137 Y-28.5662
G01 X68.1062 Y-28.5566
G01 X68.0982 Y-28.5473
G01 X68.0468 Y-28.4906
G01 X68.0383 Y-28.4817
G01 X68.0294 Y-28.4732
G01 X67.9727 Y-28.4218
G01 X67.9634 Y-28.4138
G01 X67.9538 Y-28.4063
G01 X67.8923 Y-28.3607
G01 X67.8822 Y-28.3536
G01 X67.8719 Y-28.3470
G01 X67.8062 Y-28.3077
G01 X67.7955 Y-28.3016
G01 X67.7846 Y-28.2961
G01 X67.7154 Y-28.2634
G01 X67.7042 Y-28.2584
G01 X67.6927 Y-28.2540
G01 X67.6206 Y-28.2282
G01 X67.6090 Y-28.2244
G01 X67.5972 Y-28.2211
G01 X67.5229 Y-28.2025
G01 X67.5109 Y-28.1998
G01 X67.4989 Y-28.1977
G01 X67.4231 Y-28.1865
G01 X67.4110 Y-28.1850
G01 X67.3987 Y-28.1841
G01 X67.3223 Y-28.1803
G01 X67.3100 Y-28.1800
G01 X67.2977 Y-28.1803
G01 X67.2213 Y-28.1841
G01 X67.2090 Y-28.1850
G01 X67.1969 Y-28.1865
G01 X67.1211 Y-28.1977
G01 X67.1091 Y-28.1998
G01 X67.0971 Y-28.2025
G01 X67.0228 Y-28.2211
G01 X67.0110 Y-28.2244
G01 X66.9994 Y-28.2282
G01 X66.9273 Y-28.2540
G01 X66.9158 Y-28.2584
G01 X66.9046 Y-28.2634
G01 X66.8354 Y-28.2961
G01 X66.8245 Y-28.3016
G01 X66.8138 Y-28.3077
G01 X66.7481 Y-28.3470
G01 X66.7378 Y-28.3536
G01 X66.7277 Y-28.3607
G01 X66.6662 Y-28.4063
G01 X66.6566 Y-28.4138
G01 X66.6473 Y-28.4218
G01 X66.5906 Y-28.4732
G01 X66.5817 Y-28.4817
G01 X66.5732 Y-28.4906
G01 X66.5218 Y-28.5473
G01 X66.5138 Y-28.5566
G01 X66.5063 Y-28.5662
G01 X66.4607 Y-28.6277
G01 X66.4536 Y-28.6378
G01 X66.4470 Y-28.6481
G01 X66.4077 Y-28.7138
G01 X66.4016 Y-28.7245
G01 X66.3961 Y-28.7354
G01 X66.3634 Y-28.8046
G01 X66.3584 Y-28.8158
G01 X66.3540 Y-28.8273
G01 X66.3282 Y-28.8994
G01 X66.3244 Y-28.9110
G01 X66.3211 Y-28.9228
G01 X66.3025 Y-28.9971
G01 X66.2998 Y-29.0091
G01 X66.2977 Y-29.0211
G01 X66.2865 Y-29.0969
G01 X66.2850 Y-29.1090
G01 X66.2841 Y-29.1213
G01 X66.2803 Y-29.1977
G01 X66.2800 Y-29.2100
G01 X66.2803 Y-29.2223
G01 X66.2841 Y-29.2987
G01 X66.2850 Y-29.3110
G01 X66.2865 Y-29.3231
G01 X66.2977 Y-29.3989
G01 X66.2998 Y-29.4109
G01 X66.3025 Y-29.4229
G01 X66.3211 Y-29.4972
G01 X66.3244 Y-29.5090
G01 X66.3282 Y-29.5206
G01 X66.3540 Y-29.5927
G01 X66.3584 Y-29.6042
G01 X66.3634 Y-29.6154
G01 X66.3961 Y-29.6846
G01 X66.4016 Y-29.6955
G01 X66.4077 Y-29.7062
G01 X66.4470 Y-29.7719
G01 X66.4536 Y-29.7822
G01 X66.4607 Y-29.7923
G01 X66.5063 Y-29.8538
G01 X66.5138 Y-29.8634
G01 X66.5218 Y-29.8727
G01 X66.5732 Y-29.9294
G01 X66.5817 Y-29.9383
G01 X66.5906 Y-29.9468
G01 X66.6473 Y-29.9982
G01 X66.6566 Y-30.0062
G01 X66.6662 Y-30.0137
G01 X66.7277 Y-30.0593
G01 X66.7378 Y-30.0664
G01 X66.7481 Y-30.0730
G01 X66.8138 Y-30.1123
G01 X66.8245 Y-30.1184
G01 X66.8354 Y-30.1239
G01 X66.9046 Y-30.1566
G01 X66.9158 Y-30.1616
G01 X66.9273 Y-30.1660
G01 X66.9994 Y-30.1918
G01 X67.0110 Y-30.1956
G01 X67.0228 Y-30.1989
G01 X67.0971 Y-30.2175
G01 X67.1091 Y-30.2202
G01 X67.1211 Y-30.2223
G01 X67.1969 Y-30.2335
G01 X67.2090 Y-30.2350
G01 X67.2213 Y-30.2359
G01 X67.2977 Y-30.2397
G01 X67.3100 Y-30.2400
G01 X67.3223 Y-30.2397
G01 X67.3987 Y-30.2359
G01 X67.4110 Y-30.2350
G01 X67.4231 Y-30.2335
G01 X67.4989 Y-30.2223
G01 X67.5109 Y-30.2202
G01 X67.5229 Y-30.2175
G01 X67.5972 Y-30.1989
G01 X67.6090 Y-30.1956
G01 X67.6206 Y-30.1918
G01 X67.6927 Y-30.1660
G01 X67.7042 Y-30.1616
G01 X67.7154 Y-30.1566
G01 X67.7846 Y-30.1239
G01 X67.7955 Y-30.1184
G01 X67.8062 Y-30.1123
G01 X67.8719 Y-30.0730
G01 X67.8822 Y-30.0664
G01 X67.8923 Y-30.0593
G01 X67.9538 Y-30.0137
G01 X67.9634 Y-30.0062
G01 X67.9727 Y-29.9982
G01 X68.0294 Y-29.9468
G01 X68.0383 Y-29.9383
G01 X68.0468 Y-29.9294
G01 X68.0982 Y-29.8727
G01 X68.1062 Y-29.8634
G01 X68.1137 Y-29.8538
G01 X68.1593 Y-29.7923
G01 X68.1664 Y-29.7822
G01 X68.1730 Y-29.7719
G01 X68.2123 Y-29.7062
G01 X68.2184 Y-29.6955
G01 X68.2239 Y-29.6846
G01 X68.2566 Y-29.6154
G01 X68.2616 Y-29.6042
G01 X68.2660 Y-29.5927
G01 X68.2918 Y-29.5206
G01 X68.2956 Y-29.5090
G01 X68.2989 Y-29.4972
G01 X68.3175 Y-29.4229
G01 X68.3202 Y-29.4109
G01 X68.3223 Y-29.3989
G01 X68.3335 Y-29.3231
G01 X68.3350 Y-29.3110
G01 X68.3359 Y-29.2987
G01 X68.3397 Y-29.2223
G01 X68.3400 Y-29.2100
G01 X68.3397 Y-29.1977
G00 Z2.0000
G00 X69.7674 Y-30.2362
G01 F60.00
G01 Z-0.0500
G01 F120.00
G01 X74.4748 Y-34.9436
G01 X74.5065 Y-34.9727
G01 X74.5208 Y-34.9842
G01 X74.5506 Y-35.0058
G01 X74.5609 Y-35.0124
G01 X74.5927 Y-35.0311
G01 X74.6314 Y-35.0496
G01 X74.6485 Y-35.0565
G01 X74.6832 Y-35.0686
G01 X74.7249 Y-35.0792
G01 X74.7429 Y-35.0826
G01 X74.7794 Y-35.0877
G01 X74.7916 Y-35.0886
G01 X74.8284 Y-35.0901
G01 X87.3008 Y-35.0901
G01 X87.3071 Y-35.1031
G01 X87.3128 Y-35.1139
G01 X87.3588 Y-35.1908
G01 X87.3654 Y-35.2011
G01 X87.3724 Y-35.2112
G01 X87.4221 Y-35.2782
G01 X87.4297 Y-35.2878
G01 X87.4377 Y-35.2971
G01 X87.4937 Y-35.3589
G01 X87.5022 Y-35.3678
G01 X87.5111 Y-35.3763
G01 X87.5729 Y-35.4323
G01 X87.5822 Y-35.4403
G01 X87.5918 Y-35.4479
G01 X87.6588 Y-35.4976
G01 X87.6689 Y-35.5046
G01 X87.6792 Y-35.5112
G01 X87.7508 Y-35.5541
G01 X87.7615 Y-35.5601
G01 X87.7724 Y-35.5656
G01 X87.8478 Y-35.6013
G01 X87.8590 Y-35.6063
G01 X87.8705 Y-35.6107
G01 X87.9490 Y-35.6388
G01 X87.9607 Y-35.6426
G01 X87.9725 Y-35.6459
G01 X88.0534 Y-35.6662
G01 X88.0654 Y-35.6689
G01 X88.0775 Y-35.6710
G01 X88.1600 Y-35.6832
G01 X88.1722 Y-35.6847
G01 X88.1844 Y-35.6856
G01 X88.2677 Y-35.6897
G01 X88.2861 Y-35.6899
G01 X88.3756 Y-35.6856
G01 X88.3878 Y-35.6847
G01 X88.4000 Y-35.6832
G01 X88.4825 Y-35.6710
G01 X88.4946 Y-35.6689
G01 X88.5066 Y-35.6662
G01 X88.5875 Y-35.6459
G01 X88.5993 Y-35.6426
G01 X88.6110 Y-35.6388
G01 X88.6895 Y-35.6107
G01 X88.7010 Y-35.6063
G01 X88.7122 Y-35.6013
G01 X88.7876 Y-35.5656
G01 X88.7985 Y-35.5601
G01 X88.8092 Y-35.5541
G01 X88.8808 Y-35.5112
G01 X88.8911 Y-35.5046
G01 X88.9012 Y-35.4976
G01 X88.9682 Y-35.4479
G01 X88.9778 Y-35.4403
G01 X88.9871 Y-35.4323
G01 X89.0489 Y-35.3763
G01 X89.0578 Y-35.3678
G01 X89.0663 Y-35.3589
G01 X89.1223 Y-35.2971
G01 X89.1303 Y-35.2878
G01 X89.1379 Y-35.2782
G01 X89.1876 Y-35.2112
G01 X89.1946 Y-35.2011
G01 X89.2012 Y-35.1908
G01 X89.2441 Y-35.1192
G01 X89.2501 Y-35.1085
G01 X89.2556 Y-35.0976
G01 X89.2913 Y-35.0222
G01 X89.2963 Y-35.0110
G01 X89.3007 Y-34.9995
G01 X89.3288 Y-34.9210
G01 X89.3326 Y-34.9093
G01 X89.3359 Y-34.8975
G01 X89.3576 Y-34.8106
G01 X89.3610 Y-34.7925
G01 X89.3732 Y-34.7100
G01 X89.3747 Y-34.6978
G01 X89.3756 Y-34.6856
G01 X89.3797 Y-34.6023
G01 X89.3800 Y-34.5900
G01 X89.3797 Y-34.5777
G01 X89.3756 Y-34.4944
G01 X89.3747 Y-34.4822
G01 X89.3732 Y-34.4700
G01 X89.3610 Y-34.3875
G01 X89.3589 Y-34.3754
G01 X89.3562 Y-34.3634
G01 X89.3359 Y-34.2825
G01 X89.3326 Y-34.2707
G01 X89.3288 Y-34.2590
G01 X89.3007 Y-34.1805
G01 X89.2963 Y-34.1690
G01 X89.2913 Y-34.1578
G01 X89.2556 Y-34.0824
G01 X89.2501 Y-34.0715
G01 X89.2441 Y-34.0608
G01 X89.2012 Y-33.9892
G01 X89.1946 Y-33.9789
G01 X89.1876 Y-33.9688
G01 X89.1379 Y-33.9018
G01 X89.1303 Y-33.8922
G01 X89.1223 Y-33.8829
G01 X89.0663 Y-33.8211
G01 X89.0578 Y-33.8122
G01 X89.0489 Y-33.8037
G01 X88.9871 Y-33.7477
G01 X88.9778 Y-33.7397
G01 X88.9682 Y-33.7321
G01 X88.9012 Y-33.6824
G01 X88.8911 Y-33.6754
G01 X88.8808 Y-33.6688
G01 X88.8092 Y-33.6259
G01 X88.7985 Y-33.6199
G01 X88.7876 Y-33.6144
G01 X88.7122 Y-33.5787
G01 X88.7010 Y-33.5737
G01 X88.6895 Y-33.5693
G01 X88.6110 Y-33.5412
G01 X88.5993 Y-33.5374
G01 X88.5875 Y-33.5341
G01 X88.5066 Y-33.5138
G01 X88.4946 Y-33.5111
G01 X88.4825 Y-33.5090
G01 X88.4000 Y-33.4968
G01 X88.3878 Y-33.4953
G01 X88.3756 Y-33.4944
G01 X88.2923 Y-33.4903
G01 X88.2800 Y-33.4900
G01 X88.2677 Y-33.4903
G01 X88.1844 Y-33.4944
G01 X88.1722 Y-33.4953
G01 X88.1600 Y-33.4968
G01 X88.0775 Y-33.5090
G01 X88.0654 Y-33.5111
G01 X88.0534 Y-33.5138
G01 X87.9725 Y-33.5341
G01 X87.9607 Y-33.5374
G01 X87.9490 Y-33.5412
G01 X87.8705 Y-33.5693
G01 X87.8590 Y-33.5737
G01 X87.8478 Y-33.5787
G01 X87.7724 Y-33.6144
G01 X87.7561 Y-33.6228
G01 X87.6792 Y-33.6688
G01 X87.6689 Y-33.6754
G01 X87.6588 Y-33.6824
G01 X87.5918 Y-33.7321
G01 X87.5822 Y-33.7397
G01 X87.5729 Y-33.7477
G01 X87.5111 Y-33.8037
G01 X87.4979 Y-33.8166
G01 X87.4377 Y-33.8829
G01 X87.4297 Y-33.8922
G01 X87.4221 Y-33.9018
G01 X87.3689 Y-33.9738
G01 X87.3588 Y-33.9892
G01 X87.3159 Y-34.0608
G01 X87.3071 Y-34.0769
G01 X87.3008 Y-34.0899
G01 X75.0356 Y-34.0899
G01 X70.7147 Y-29.7690
G01 X70.7523 Y-29.7062
G01 X70.7584 Y-29.6955
G01 X70.7639 Y-29.6846
G01 X70.7966 Y-29.6154
G01 X70.8016 Y-29.6042
G01 X70.8060 Y-29.5927
G01 X70.8318 Y-29.5206
G01 X70.8356 Y-29.5090
G01 X70.8389 Y-29.4972
G01 X70.8575 Y-29.4229
G01 X70.8602 Y-29.4109
G01 X70.8623 Y-29.3989
G01 X70.8735 Y-29.3231
G01 X70.8750 Y-29.3110
G01 X70.8759 Y-29.2987
G01 X70.8797 Y-29.2223
G01 X70.8800 Y-29.2100
G01 X70.8797 Y-29.1977
G01 X70.8759 Y-29.1213
G01 X70.8750 Y-29.1090
G01 X70.8735 Y-29.0969
G01 X70.8623 Y-29.0211
G01 X70.8602 Y-29.0091
G01 X70.8575 Y-28.9971
G01 X70.8389 Y-28.9228
G01 X70.8356 Y-28.9110
G01 X70.8318 Y-28.8994
G01 X70.8060 Y-28.8273
G01 X70.8016 Y-28.8158
G01 X70.7966 Y-28.8046
G01 X70.7639 Y-28.7354
G01 X70.7584 Y-28.7245
G01 X70.7523 Y-28.7138
G01 X70.7130 Y-28.6481
G01 X70.7064 Y-28.6378
G01 X70.6993 Y-28.6277
G01 X70.6537 Y-28.5662
G01 X70.6462 Y-28.5566
G01 X70.6382 Y-28.5473
G01 X70.5868 Y-28.4906
G01 X70.5783 Y-28.4817
G01 X70.5694 Y-28.4732
G01 X70.5127 Y-28.4218
G01 X70.5034 Y-28.4138
G01 X70.4938 Y-28.4063
G01 X70.4323 Y-28.3607
G01 X70.4222 Y-28.3536
G01 X70.4119 Y-28.3470
G01 X70.3462 Y-28.3077
G01 X70.3355 Y-28.3016
G01 X70.3246 Y-28.2961
G01 X70.2554 Y-28.2634
G01 X70.2442 Y-28.2584
G01 X70.2327 Y-28.2540
G01 X70.1606 Y-28.2282
G01 X70.1490 Y-28.2244
G01 X70.1372 Y-28.2211
G01 X70.0629 Y-28.2025
G01 X70.0509 Y-28.1998
G01 X70.0389 Y-28.1977
G01 X69.9631 Y-28.1865
G01 X69.9510 Y-28.1850
G01 X69.9387 Y-28.1841
G01 X69.8623 Y-28.1803
G01 X69.8500 Y-28.1800
G01 X69.8377 Y-28.1803
G01 X69.7613 Y-28.1841
G01 X69.7490 Y-28.1850
G01 X69.7369 Y-28.1865
G01 X69.6611 Y-28.1977
G01 X69.6491 Y-28.1998
G01 X69.6371 Y-28.2025
G01 X69.5628 Y-28.2211
G01 X69.5510 Y-28.2244
G01 X69.5394 Y-28.2282
G01 X69.4673 Y-28.2540
G01 X69.4558 Y-28.2584
G01 X69.4446 Y-28.2634
G01 X69.3754 Y-28.2961
G01 X69.3645 Y-28.3016
G01 X69.3538 Y-28.3077
G01 X69.2881 Y-28.3470
G01 X69.2778 Y-28.3536
G01 X69.2677 Y-28.3607
G01 X69.2062 Y-28.4063
G01 X69.1966 Y-28.4138
G01 X69.1873 Y-28.4218
G01 X69.1306 Y-28.4732
G01 X69.1217 Y-28.4817
G01 X69.1132 Y-28.4906
G01 X69.0618 Y-28.5473
G01 X69.0538 Y-28.5566
G01 X69.0463 Y-28.5662
G01 X69.0007 Y-28.6277
G01 X68.9936 Y-28.6378
G01 X68.9870 Y-28.6481
G01 X68.9477 Y-28.7138
G01 X68.9416 Y-28.7245
G01 X68.9361 Y-28.7354
G01 X68.9034 Y-28.8046
G01 X68.8984 Y-28.8158
G01 X68.8940 Y-28.8273
G01 X68.8682 Y-28.8994
G01 X68.8644 Y-28.9110
G01 X68.8611 Y-28.9228
G01 X68.8425 Y-28.9971
G01 X68.8398 Y-29.0091
G01 X68.8377 Y-29.0211
G01 X68.8265 Y-29.0969
G01 X68.8250 Y-29.1090
G01 X68.8241 Y-29.1213
G01 X68.8203 Y-29.1977
G01 X68.8200 Y-29.2100
G01 X68.8203 Y-29.2223
G01 X68.8241 Y-29.2987
G01 X68.8250 Y-29.3110
G01 X68.8265 Y-29.3231
G01 X68.8377 Y-29.3989
G01 X68.8398 Y-29.4109
G01 X68.8425 Y-29.4229
G01 X68.8611 Y-29.4972
G01 X68.8644 Y-29.5090
G01 X68.8682 Y-29.5206
G01 X68.8940 Y-29.5927
G01 X68.8984 Y-29.6042
G01 X68.9034 Y-29.6154
G01 X68.9361 Y-29.6846
G01 X68.9416 Y-29.6955
G01 X68.9477 Y-29.7062
G01 X68.9870 Y-29.7719
G01 X68.9936 Y-29.7822
G01 X69.0007 Y-29.7923
G01 X69.0463 Y-29.8538
G01 X69.0538 Y-29.8634
G01 X69.0618 Y-29.8727
G01 X69.1132 Y-29.9294
G01 X69.1217 Y-29.9383
G01 X69.1306 Y-29.9468
G01 X69.1873 Y-29.9982
G01 X69.1966 Y-30.0062
G01 X69.2062 Y-30.0137
G01 X69.2677 Y-30.0593
G01 X69.2778 Y-30.0664
G01 X69.2881 Y-30.0730
G01 X69.3538 Y-30.1123
G01 X69.3645 Y-30.1184
G01 X69.3754 Y-30.1239
G01 X69.4446 Y-30.1566
G01 X69.4558 Y-30.1616
G01 X69.4673 Y-30.1660
G01 X69.5394 Y-30.1918
G01 X69.5510 Y-30.1956
G01 X69.5628 Y-30.1989
G01 X69.6371 Y-30.2175
G01 X69.6491 Y-30.2202
G01 X69.6611 Y-30.2223
G01 X69.7429 Y-30.2344
G01 X69.7552 Y-30.2356
G01 X69.7674 Y-30.2362
G00 Z2.0000
G00 X71.8899 Y-30.1100
G01 F60.00
G01 Z-0.0500
G01 F120.00
G01 X71.8900 Y-30.3192
G01 X71.8923 Y-30.3621
G01 X71.8974 Y-30.3986
G01 X71.9008 Y-30.4167
G01 X71.9097 Y-30.4524
G01 X71.9153 Y-30.4699
G01 X71.9279 Y-30.5045
G01 X71.9461 Y-30.5434
G01 X71.9550 Y-30.5595
G01 X71.9742 Y-30.5909
G01 X71.9996 Y-30.6256
G01 X72.0114 Y-30.6397
G01 X72.0364 Y-30.6667
G01 X73.7733 Y-32.4036
G01 X73.7822 Y-32.4121
G01 X73.8096 Y-32.4366
G01 X73.8390 Y-32.4588
G01 X73.8491 Y-32.4658
G01 X73.8594 Y-32.4724
G01 X73.8912 Y-32.4911
G01 X73.9243 Y-32.5071
G01 X73.9355 Y-32.5121
G01 X73.9470 Y-32.5165
G01 X73.9759 Y-32.5267
G01 X73.9876 Y-32.5303
G01 X74.0293 Y-32.5405
G01 X74.0718 Y-32.5470
G01 X74.0901 Y-32.5486
G01 X74.1269 Y-32.5501
G01 X87.3008 Y-32.5501
G01 X87.3071 Y-32.5631
G01 X87.3128 Y-32.5739
G01 X87.3588 Y-32.6508
G01 X87.3654 Y-32.6611
G01 X87.3724 Y-32.6712
G01 X87.4221 Y-32.7382
G01 X87.4297 Y-32.7478
G01 X87.4377 Y-32.7571
G01 X87.4937 Y-32.8189
G01 X87.5022 Y-32.8278
G01 X87.5111 Y-32.8363
G01 X87.5729 Y-32.8923
G01 X87.5822 Y-32.9003
G01 X87.5918 Y-32.9079
G01 X87.6588 Y-32.9576
G01 X87.6689 Y-32.9646
G01 X87.6792 Y-32.9712
G01 X87.7508 Y-33.0141
G01 X87.7615 Y-33.0201
G01 X87.7724 Y-33.0256
G01 X87.8478 Y-33.0613
G01 X87.8590 Y-33.0663
G01 X87.8705 Y-33.0707
G01 X87.9490 Y-33.0988
G01 X87.9607 Y-33.1026
G01 X87.9725 Y-33.1059
G01 X88.0534 Y-33.1262
G01 X88.0654 Y-33.1289
G01 X88.0775 Y-33.1310
G01 X88.1600 Y-33.1432
G01 X88.1722 Y-33.1447
G01 X88.1844 Y-33.1456
G01 X88.2677 Y-33.1497
G01 X88.2861 Y-33.1499
G01 X88.3756 Y-33.1456
G01 X88.3878 Y-33.1447
G01 X88.4000 Y-33.1432
G01 X88.4825 Y-33.1310
G01 X88.4946 Y-33.1289
G01 X88.5066 Y-33.1262
G01 X88.5875 Y-33.1059
G01 X88.5993 Y-33.1026
G01 X88.6110 Y-33.0988
G01 X88.6895 Y-33.0707
G01 X88.7010 Y-33.0663
G01 X88.7122 Y-33.0613
G01 X88.7876 Y-33.0256
G01 X88.7985 Y-33.0201
G01 X88.8092 Y-33.0141
G01 X88.8808 Y-32.9712
G01 X88.8911 Y-32.9646
G01 X88.9012 Y-32.9576
G01 X88.9682 Y-32.9079
G01 X88.9778 Y-32.9003
G01 X88.9871 Y-32.8923
G01 X89.0489 Y-32.8363
G01 X89.0578 Y-32.8278
G01 X89.0663 Y-32.8189
G01 X89.1223 Y-32.7571
G01 X89.1303 Y-32.7478
G01 X89.1379 Y-32.7382
G01 X89.1876 Y-32.6712
G01 X89.1946 Y-32.6611
G01 X89.2012 Y-32.6508
G01 X89.2441 Y-32.5792
G01 X89.2501 Y-32.5685
G01 X89.2556 Y-32.5576
G01 X89.2913 Y-32.4822
G01 X89.2963 Y-32.4710
G01 X89.3007 Y-32.4595
G01 X89.3288 Y-32.3810
G01 X89.3326 Y-32.3693
G01 X89.3359 Y-32.3575
G01 X89.3562 Y-32.2766
G01 X89.3589 Y-32.2646
G01 X89.3610 Y-32.2525
G01 X89.3740 Y-32.1639
G01 X89.3756 Y-32.1456
G01 X89.3797 Y-32.0623
G01 X89.3800 Y-32.0500
G01 X89.3797 Y-32.0377
G01 X89.3756 Y-31.9544
G01 X89.3747 Y-31.9422
G01 X89.3732 Y-31.9300
G01 X89.3610 Y-31.8475
G01 X89.3589 Y-31.8354
G01 X89.3562 Y-31.8234
G01 X89.3359 Y-31.7425
G01 X89.3326 Y-31.7307
G01 X89.3288 Y-31.7190
G01 X89.3007 Y-31.6405
G01 X89.2963 Y-31.6290
G01 X89.2913 Y-31.6178
G01 X89.2556 Y-31.5424
G01 X89.2501 Y-31.5315
G01 X89.2441 Y-31.5208
G01 X89.2012 Y-31.4492
G01 X89.1946 Y-31.4389
G01 X89.1876 Y-31.4288
G01 X89.1379 Y-31.3618
G01 X89.1303 Y-31.3522
G01 X89.1223 Y-31.3429
G01 X89.0663 Y-31.2811
G01 X89.0578 Y-31.2722
G01 X89.0489 Y-31.2637
G01 X88.9871 Y-31.2077
G01 X88.9778 Y-31.1997
G01 X88.9682 Y-31.1921
G01 X88.9012 Y-31.1424
G01 X88.8911 Y-31.1354
G01 X88.8808 Y-31.1288
G01 X88.8092 Y-31.0859
G01 X88.7985 Y-31.0799
G01 X88.7876 Y-31.0744
G01 X88.7122 Y-31.0387
G01 X88.7010 Y-31.0337
G01 X88.6895 Y-31.0293
G01 X88.6110 Y-31.0012
G01 X88.5993 Y-30.9974
G01 X88.5875 Y-30.9941
G01 X88.5066 Y-30.9738
G01 X88.4946 Y-30.9711
G01 X88.4825 Y-30.9690
G01 X88.4000 Y-30.9568
G01 X88.3878 Y-30.9553
G01 X88.3756 Y-30.9544
G01 X88.2923 Y-30.9503
G01 X88.2800 Y-30.9500
G01 X88.2677 Y-30.9503
G01 X88.1844 Y-30.9544
G01 X88.1722 Y-30.9553
G01 X88.1600 Y-30.9568
G01 X88.0775 Y-30.9690
G01 X88.0654 Y-30.9711
G01 X88.0534 Y-30.9738
G01 X87.9725 Y-30.9941
G01 X87.9607 Y-30.9974
G01 X87.9490 Y-31.0012
G01 X87.8705 Y-31.0293
G01 X87.8590 Y-31.0337
G01 X87.8478 Y-31.0387
G01 X87.7724 Y-31.0744
G01 X87.7615 Y-31.0799
G01 X87.7508 Y-31.0859
G01 X87.6792 Y-31.1288
G01 X87.6689 Y-31.1354
G01 X87.6588 Y-31.1424
G01 X87.5918 Y-31.1921
G01 X87.5822 Y-31.1997
G01 X87.5729 Y-31.2077
G01 X87.5111 Y-31.2637
G01 X87.5022 Y-31.2722
G01 X87.4937 Y-31.2811
G01 X87.4377 Y-31.3429
G01 X87.4297 Y-31.3522
G01 X87.4221 Y-31.3618
G01 X87.3724 Y-31.4288
G01 X87.3654 Y-31.4389
G01 X87.3588 Y-31.4492
G01 X87.3128 Y-31.5261
G01 X87.3071 Y-31.5369
G01 X87.3008 Y-31.5499
G01 X74.3341 Y-31.5499
G01 X72.8927 Y-30.1085
G01 X72.9519 Y-30.0730
G01 X72.9622 Y-30.0664
G01 X72.9723 Y-30.0593
G01 X73.0338 Y-30.0137
G01 X73.0434 Y-30.0062
G01 X73.0527 Y-29.9982
G01 X73.1094 Y-29.9468
G01 X73.1183 Y-29.9383
G01 X73.1268 Y-29.9294
G01 X73.1782 Y-29.8727
G01 X73.1862 Y-29.8634
G01 X73.1937 Y-29.8538
G01 X73.2393 Y-29.7923
G01 X73.2464 Y-29.7822
G01 X73.2530 Y-29.7719
G01 X73.2923 Y-29.7062
G01 X73.2984 Y-29.6955
G01 X73.3039 Y-29.6846
G01 X73.3366 Y-29.6154
G01 X73.3416 Y-29.6042
G01 X73.3460 Y-29.5927
G01 X73.3718 Y-29.5206
G01 X73.3756 Y-29.5090
G01 X73.3789 Y-29.4972
G01 X73.3975 Y-29.4229
G01 X73.4002 Y-29.4109
G01 X73.4023 Y-29.3989
G01 X73.4135 Y-29.3231
G01 X73.4150 Y-29.3110
G01 X73.4159 Y-29.2987
G01 X73.4197 Y-29.2223
G01 X73.4200 Y-29.2100
G01 X73.4197 Y-29.1977
G01 X73.4159 Y-29.1213
G01 X73.4150 Y-29.1090
G01 X73.4135 Y-29.0969
G01 X73.4023 Y-29.0211
G01 X73.4002 Y-29.0091
G01 X73.3975 Y-28.9971
G01 X73.3789 Y-28.9228
G01 X73.3756 Y-28.9110
G01 X73.3718 Y-28.8994
G01 X73.3460 Y-28.8273
G01 X73.3416 Y-28.8158
G01 X73.3366 Y-28.8046
G01 X73.3039 Y-28.7354
G01 X73.2984 Y-28.7245
G01 X73.2923 Y-28.7138
G01 X73.2530 Y-28.6481
G01 X73.2464 Y-28.6378
G01 X73.2393 Y-28.6277
G01 X73.1937 Y-28.5662
G01 X73.1862 Y-28.5566
G01 X73.1782 Y-28.5473
G01 X73.1268 Y-28.4906
G01 X73.1183 Y-28.4817
G01 X73.1094 Y-28.4732
G01 X73.0527 Y-28.4218
G01 X73.0434 Y-28.4138
G01 X73.0338 Y-28.4063
G01 X72.9723 Y-28.3607
G01 X72.9622 Y-28.3536
G01 X72.9519 Y-28.3470
G01 X72.8862 Y-28.3077
G01 X72.8755 Y-28.3016
G01 X72.8646 Y-28.2961
G01 X72.7954 Y-28.2634
G01 X72.7842 Y-28.2584
G01 X72.7727 Y-28.2540
G01 X72.7006 Y-28.2282
G01 X72.6890 Y-28.2244
G01 X72.6772 Y-28.2211
G01 X72.6029 Y-28.2025
G01 X72.5909 Y-28.1998
G01 X72.5789 Y-28.1977
G01 X72.4971 Y-28.1856
G01 X72.4787 Y-28.1841
G01 X72.4023 Y-28.1803
G01 X72.3900 Y-28.1800
G01 X72.3777 Y-28.1803
G01 X72.3013 Y-28.1841
G01 X72.2890 Y-28.1850
G01 X72.2769 Y-28.1865
G01 X72.2011 Y-28.1977
G01 X72.1891 Y-28.1998
G01 X72.1771 Y-28.2025
G01 X72.1028 Y-28.2211
G01 X72.0910 Y-28.2244
G01 X72.0794 Y-28.2282
G01 X72.0073 Y-28.2540
G01 X71.9958 Y-28.2584
G01 X71.9846 Y-28.2634
G01 X71.9154 Y-28.2961
G01 X71.9045 Y-28.3016
G01 X71.8938 Y-28.3077
G01 X71.8281 Y-28.3470
G01 X71.8178 Y-28.3536
G01 X71.8077 Y-28.3607
G01 X71.7462 Y-28.4063
G01 X71.7366 Y-28.4138
G01 X71.7273 Y-28.4218
G01 X71.6706 Y-28.4732
G01 X71.6617 Y-28.4817
G01 X71.6532 Y-28.4906
G01 X71.6018 Y-28.5473
G01 X71.5938 Y-28.5566
G01 X71.5863 Y-28.5662
G01 X71.5407 Y-28.6277
G01 X71.5336 Y-28.6378
G01 X71.5270 Y-28.6481
G01 X71.4877 Y-28.7138
G01 X71.4816 Y-28.7245
G01 X71.4761 Y-28.7354
G01 X71.4434 Y-28.8046
G01 X71.4384 Y-28.8158
G01 X71.4340 Y-28.8273
G01 X71.4082 Y-28.8994
G01 X71.4044 Y-28.9110
G01 X71.4011 Y-28.9228
G01 X71.3825 Y-28.9971
G01 X71.3798 Y-29.0091
G01 X71.3777 Y-29.0211
G01 X71.3665 Y-29.0969
G01 X71.3650 Y-29.1090
G01 X71.3641 Y-29.1213
G01 X71.3603 Y-29.1977
G01 X71.3600 Y-29.2100
G01 X71.3603 Y-29.2223
G01 X71.3641 Y-29.2987
G01 X71.3650 Y-29.3110
G01 X71.3665 Y-29.3231
G01 X71.3777 Y-29.3989
G01 X71.3798 Y-29.4109
G01 X71.3825 Y-29.4229
G01 X71.4011 Y-29.4972
G01 X71.4044 Y-29.5090
G01 X71.4082 Y-29.5206
G01 X71.4340 Y-29.5927
G01 X71.4384 Y-29.6042
G01 X71.4434 Y-29.6154
G01 X71.4761 Y-29.6846
G01 X71.4816 Y-29.6955
G01 X71.4877 Y-29.7062
G01 X71.5270 Y-29.7719
G01 X71.5336 Y-29.7822
G01 X71.5407 Y-29.7923
G01 X71.5863 Y-29.8538
G01 X71.5938 Y-29.8634
G01 X71.6018 Y-29.8727
G01 X71.6532 Y-29.9294
G01 X71.6617 Y-29.9383
G01 X71.6706 Y-29.9468
G01 X71.7273 Y-29.9982
G01 X71.7366 Y-30.0062
G01 X71.7462 Y-30.0137
G01 X71.8077 Y-30.0593
G01 X71.8178 Y-30.0664
G01 X71.8281 Y-30.0730
G01 X71.8899 Y-30.1100
G00 Z2.0000
G00 X75.9597 Y-29.1977
G01 F60.00
G01 Z-0.0500
G01 F120.00
G01 X75.9559 Y-29.1213
G01 X75.9550 Y-29.1090
G01 X75.9535 Y-29.0969
G01 X75.9423 Y-29.0211
G01 X75.9402 Y-29.0091
G01 X75.9375 Y-28.9971
G01 X75.9189 Y-28.9228
G01 X75.9156 Y-28.9110
G01 X75.9118 Y-28.8994
G01 X75.8860 Y-28.8273
G01 X75.8816 Y-28.8158
G01 X75.8766 Y-28.8046
G01 X75.8439 Y-28.7354
G01 X75.8384 Y-28.7245
G01 X75.8323 Y-28.7138
G01 X75.7930 Y-28.6481
G01 X75.7864 Y-28.6378
G01 X75.7793 Y-28.6277
G01 X75.7337 Y-28.5662
G01 X75.7262 Y-28.5566
G01 X75.7182 Y-28.5473
G01 X75.6668 Y-28.4906
G01 X75.6583 Y-28.4817
G01 X75.6494 Y-28.4732
G01 X75.5927 Y-28.4218
G01 X75.5834 Y-28.4138
G01 X75.5738 Y-28.4063
G01 X75.5123 Y-28.3607
G01 X75.5022 Y-28.3536
G01 X75.4919 Y-28.3470
G01 X75.4262 Y-28.3077
G01 X75.4155 Y-28.3016
G01 X75.4046 Y-28.2961
G01 X75.3354 Y-28.2634
G01 X75.3242 Y-28.2584
G01 X75.3127 Y-28.2540
G01 X75.2406 Y-28.2282
G01 X75.2290 Y-28.2244
G01 X75.2172 Y-28.2211
G01 X75.1429 Y-28.2025
G01 X75.1309 Y-28.1998
G01 X75.1189 Y-28.1977
G01 X75.0431 Y-28.1865
G01 X75.0310 Y-28.1850
G01 X75.0187 Y-28.1841
G01 X74.9423 Y-28.1803
G01 X74.9300 Y-28.1800
G01 X74.9177 Y-28.1803
G01 X74.8413 Y-28.1841
G01 X74.8290 Y-28.1850
G01 X74.8169 Y-28.1865
G01 X74.7411 Y-28.1977
G01 X74.7291 Y-28.1998
G01 X74.7171 Y-28.2025
G01 X74.6428 Y-28.2211
G01 X74.6310 Y-28.2244
G01 X74.6194 Y-28.2282
G01 X74.5473 Y-28.2540
G01 X74.5358 Y-28.2584
G01 X74.5246 Y-28.2634
G01 X74.4554 Y-28.2961
G01 X74.4445 Y-28.3016
G01 X74.4338 Y-28.3077
G01 X74.3681 Y-28.3470
G01 X74.3578 Y-28.3536
G01 X74.3477 Y-28.3607
G01 X74.2862 Y-28.4063
G01 X74.2766 Y-28.4138
G01 X74.2673 Y-28.4218
G01 X74.2106 Y-28.4732
G01 X74.2017 Y-28.4817
G01 X74.1932 Y-28.4906
G01 X74.1418 Y-28.5473
G01 X74.1338 Y-28.5566
G01 X74.1263 Y-28.5662
G01 X74.0807 Y-28.6277
G01 X74.0736 Y-28.6378
G01 X74.0670 Y-28.6481
G01 X74.0277 Y-28.7138
G01 X74.0216 Y-28.7245
G01 X74.0161 Y-28.7354
G01 X73.9834 Y-28.8046
G01 X73.9784 Y-28.8158
G01 X73.9740 Y-28.8273
G01 X73.9482 Y-28.8994
G01 X73.9444 Y-28.9110
G01 X73.9411 Y-28.9228
G01 X73.9225 Y-28.9971
G01 X73.9198 Y-29.0091
G01 X73.9177 Y-29.0211
G01 X73.9065 Y-29.0969
G01 X73.9050 Y-29.1090
G01 X73.9041 Y-29.1213
G01 X73.9003 Y-29.1977
G01 X73.9000 Y-29.2100
G01 X73.9003 Y-29.2223
G01 X73.9041 Y-29.2987
G01 X73.9050 Y-29.3110
G01 X73.9065 Y-29.3231
G01 X73.9177 Y-29.3989
G01 X73.9198 Y-29.4109
G01 X73.9225 Y-29.4229
G01 X73.9411 Y-29.4972
G01 X73.9444 Y-29.5090
G01 X73.9482 Y-29.5206
G01 X73.9740 Y-29.5927
G01 X73.9784 Y-29.6042
G01 X73.9834 Y-29.6154
G01 X74.0161 Y-29.6846
G01 X74.0216 Y-29.6955
G01 X74.0277 Y-29.7062
G01 X74.0670 Y-29.7719
G01 X74.0736 Y-29.7822
G01 X74.0807 Y-29.7923
G01 X74.1263 Y-29.8538
G01 X74.1338 Y-29.8634
G01 X74.1418 Y-29.8727
G01 X74.1932 Y-29.9294
G01 X74.2017 Y-29.9383
G01 X74.2106 Y-29.9468
G01 X74.2673 Y-29.9982
G01 X74.2766 Y-30.0062
G01 X74.2862 Y-30.0137
G01 X74.3477 Y-30.0593
G01 X74.3578 Y-30.0664
G01 X74.3681 Y-30.0730
G01 X74.4338 Y-30.1123
G01 X74.4445 Y-30.1184
G01 X74.4554 Y-30.1239
G01 X74.5246 Y-30.1566
G01 X74.5358 Y-30.1616
G01 X74.5473 Y-30.1660
G01 X74.6194 Y-30.1918
G01 X74.6310 Y-30.1956
G01 X74.6428 Y-30.1989
G01 X74.7171 Y-30.2175
G01 X74.7291 Y-30.2202
G01 X74.7411 Y-30.2223
G01 X74.8169 Y-30.2335
G01 X74.8290 Y-30.2350
G01 X74.8413 Y-30.2359
G01 X74.9177 Y-30.2397
G01 X74.9300 Y-30.2400
G01 X74.9423 Y-30.2397
G01 X75.0187 Y-30.2359
G01 X75.0310 Y-30.2350
G01 X75.0431 Y-30.2335
G01 X75.1189 Y-30.2223
G01 X75.1309 Y-30.2202
G01 X75.1429 Y-30.2175
G01 X75.2172 Y-30.1989
G01 X75.2290 Y-30.1956
G01 X75.2406 Y-30.1918
G01 X75.3127 Y-30.1660
G01 X75.3242 Y-30.1616
G01 X75.3354 Y-30.1566
G01 X75.4046 Y-30.1239
G01 X75.4155 Y-30.1184
G01 X75.4262 Y-30.1123
G01 X75.4919 Y-30.0730
G01 X75.5022 Y-30.0664
G01 X75.5123 Y-30.0593
G01 X75.5738 Y-30.0137
G01 X75.5834 Y-30.0062
G01 X75.5927 Y-29.9982
G01 X75.6494 Y-29.9468
G01 X75.6583 Y-29.9383
G01 X75.6668 Y-29.9294
G01 X75.7182 Y-29.8727
G01 X75.7262 Y-29.8634
G01 X75.7337 Y-29.8538
G01 X75.7793 Y-29.7923
G01 X75.7864 Y-29.7822
G01 X75.7930 Y-29.7719
G01 X75.8323 Y-29.7062
G01 X75.8384 Y-29.6955
G01 X75.8439 Y-29.6846
G01 X75.8766 Y-29.6154
G01 X75.8816 Y-29.6042
G01 X75.8860 Y-29.5927
G01 X75.9118 Y-29.5206
G01 X75.9156 Y-29.5090
G01 X75.9189 Y-29.4972
G01 X75.9375 Y-29.4229
G01 X75.9402 Y-29.4109
G01 X75.9423 Y-29.3989
G01 X75.9535 Y-29.3231
G01 X75.9550 Y-29.3110
G01 X75.9559 Y-29.2987
G01 X75.9597 Y-29.2223
G01 X75.9600 Y-29.2100
G01 X75.9597 Y-29.1977
G00 Z2.0000
G00 X78.4997 Y-29.1977
G01 F60.00
G01 Z-0.0500
G01 F120.00
G01 X78.4959 Y-29.1213
G01 X78.4950 Y-29.1090
G01 X78.4935 Y-29.0969
G01 X78.4823 Y-29.0211
G01 X78.4802 Y-29.0091
G01 X78.4775 Y-28.9971
G01 X78.4589 Y-28.9228
G01 X78.4556 Y-28.9110
G01 X78.4518 Y-28.8994
G01 X78.4260 Y-28.8273
G01 X78.4216 Y-28.8158
G01 X78.4166 Y-28.8046
G01 X78.3839 Y-28.7354
G01 X78.3784 Y-28.7245
G01 X78.3723 Y-28.7138
G01 X78.3330 Y-28.6481
G01 X78.3264 Y-28.6378
G01 X78.3193 Y-28.6277
G01 X78.2737 Y-28.5662
G01 X78.2662 Y-28.5566
G01 X78.2582 Y-28.5473
G01 X78.2068 Y-28.4906
G01 X78.1983 Y-28.4817
G01 X78.1894 Y-28.4732
G01 X78.1327 Y-28.4218
G01 X78.1234 Y-28.4138
G01 X78.1138 Y-28.4063
G01 X78.0523 Y-28.3607
G01 X78.0422 Y-28.3536
G01 X78.0319 Y-28.3470
G01 X77.9662 Y-28.3077
G01 X77.9555 Y-28.3016
G01 X77.9446 Y-28.2961
G01 X77.8754 Y-28.2634
G01 X77.8642 Y-28.2584
G01 X77.8527 Y-28.2540
G01 X77.7806 Y-28.2282
G01 X77.7690 Y-28.2244
G01 X77.7572 Y-28.2211
G01 X77.6829 Y-28.2025
G01 X77.6709 Y-28.1998
G01 X77.6589 Y-28.1977
G01 X77.5831 Y-28.1865
G01 X77.5710 Y-28.1850
G01 X77.5587 Y-28.1841
G01 X77.4823 Y-28.1803
G01 X77.4700 Y-28.1800
G01 X77.4577 Y-28.1803
G01 X77.3813 Y-28.1841
G01 X77.3690 Y-28.1850
G01 X77.3569 Y-28.1865
G01 X77.2811 Y-28.1977
G01 X77.2691 Y-28.1998
G01 X77.2571 Y-28.2025
G01 X77.1828 Y-28.2211
G01 X77.1710 Y-28.2244
G01 X77.1594 Y-28.2282
G01 X77.0873 Y-28.2540
G01 X77.0758 Y-28.2584
G01 X77.0646 Y-28.2634
G01 X76.9954 Y-28.2961
G01 X76.9845 Y-28.3016
G01 X76.9738 Y-28.3077
G01 X76.9081 Y-28.3470
G01 X76.8978 Y-28.3536
G01 X76.8877 Y-28.3607
G01 X76.8262 Y-28.4063
G01 X76.8166 Y-28.4138
G01 X76.8073 Y-28.4218
G01 X76.7506 Y-28.4732
G01 X76.7417 Y-28.4817
G01 X76.7332 Y-28.4906
G01 X76.6818 Y-28.5473
G01 X76.6738 Y-28.5566
G01 X76.6663 Y-28.5662
G01 X76.6207 Y-28.6277
G01 X76.6136 Y-28.6378
G01 X76.6070 Y-28.6481
G01 X76.5677 Y-28.7138
G01 X76.5616 Y-28.7245
G01 X76.5561 Y-28.7354
G01 X76.5234 Y-28.8046
G01 X76.5184 Y-28.8158
G01 X76.5140 Y-28.8273
G01 X76.4882 Y-28.8994
G01 X76.4844 Y-28.9110
G01 X76.4811 Y-28.9228
G01 X76.4625 Y-28.9971
G01 X76.4598 Y-29.0091
G01 X76.4577 Y-29.0211
G01 X76.4465 Y-29.0969
G01 X76.4450 Y-29.1090
G01 X76.4441 Y-29.1213
G01 X76.4403 Y-29.1977
G01 X76.4400 Y-29.2100
G01 X76.4403 Y-29.2223
G01 X76.4441 Y-29.2987
G01 X76.4450 Y-29.3110
G01 X76.4465 Y-29.3231
G01 X76.4577 Y-29.3989
G01 X76.4598 Y-29.4109
G01 X76.4625 Y-29.4229
G01 X76.4811 Y-29.4972
G01 X76.4844 Y-29.5090
G01 X76.4882 Y-29.5206
G01 X76.5140 Y-29.5927
G01 X76.5184 Y-29.6042
G01 X76.5234 Y-29.6154
G01 X76.5561 Y-29.6846
G01 X76.5616 Y-29.6955
G01 X76.5677 Y-29.7062
G01 X76.6070 Y-29.7719
G01 X76.6136 Y-29.7822
G01 X76.6207 Y-29.7923
G01 X76.6663 Y-29.8538
G01 X76.6738 Y-29.8634
G01 X76.6818 Y-29.8727
G01 X76.7332 Y-29.9294
G01 X76.7417 Y-29.9383
G01 X76.7506 Y-29.9468
G01 X76.8073 Y-29.9982
G01 X76.8166 Y-30.0062
G01 X76.8262 Y-30.0137
G01 X76.8877 Y-30.0593
G01 X76.8978 Y-30.0664
G01 X76.9081 Y-30.0730
G01 X76.9738 Y-30.1123
G01 X76.9845 Y-30.1184
G01 X76.9954 Y-30.1239
G01 X77.0646 Y-30.1566
G01 X77.0758 Y-30.1616
G01 X77.0873 Y-30.1660
G01 X77.1594 Y-30.1918
G01 X77.1710 Y-30.1956
G01 X77.1828 Y-30.1989
G01 X77.2571 Y-30.2175
G01 X77.2691 Y-30.2202
G01 X77.2811 Y-30.2223
G01 X77.3569 Y-30.2335
G01 X77.3690 Y-30.2350
G01 X77.3813 Y-30.2359
G01 X77.4577 Y-30.2397
G01 X77.4700 Y-30.2400
G01 X77.4823 Y-30.2397
G01 X77.5587 Y-30.2359
G01 X77.5710 Y-30.2350
G01 X77.5831 Y-30.2335
G01 X77.6589 Y-30.2223
G01 X77.6709 Y-30.2202
G01 X77.6829 Y-30.2175
G01 X77.7572 Y-30.1989
G01 X77.7690 Y-30.1956
G01 X77.7806 Y-30.1918
G01 X77.8527 Y-30.1660
G01 X77.8642 Y-30.1616
G01 X77.8754 Y-30.1566
G01 X77.9446 Y-30.1239
G01 X77.9555 Y-30.1184
G01 X77.9662 Y-30.1123
G01 X78.0319 Y-30.0730
G01 X78.0422 Y-30.0664
G01 X78.0523 Y-30.0593
G01 X78.1138 Y-30.0137
G01 X78.1234 Y-30.0062
G01 X78.1327 Y-29.9982
G01 X78.1894 Y-29.9468
G01 X78.1983 Y-29.9383
G01 X78.2068 Y-29.9294
G01 X78.2582 Y-29.8727
G01 X78.2662 Y-29.8634
G01 X78.2737 Y-29.8538
G01 X78.3193 Y-29.7923
G01 X78.3264 Y-29.7822
G01 X78.3330 Y-29.7719
G01 X78.3723 Y-29.7062
G01 X78.3784 Y-29.6955
G01 X78.3839 Y-29.6846
G01 X78.4166 Y-29.6154
G01 X78.4216 Y-29.6042
G01 X78.4260 Y-29.5927
G01 X78.4518 Y-29.5206
G01 X78.4556 Y-29.5090
G01 X78.4589 Y-29.4972
G01 X78.4775 Y-29.4229
G01 X78.4802 Y-29.4109
G01 X78.4823 Y-29.3989
G01 X78.4935 Y-29.3231
G01 X78.4950 Y-29.3110
G01 X78.4959 Y-29.2987
G01 X78.4997 Y-29.2223
G01 X78.5000 Y-29.2100
G01 X78.4997 Y-29.1977
G00 Z2.0000
G00 X81.0397 Y-29.1977
G01 F60.00
G01 Z-0.0500
G01 F120.00
G01 X81.0359 Y-29.1213
G01 X81.0350 Y-29.1090
G01 X81.0335 Y-29.0969
G01 X81.0223 Y-29.0211
G01 X81.0202 Y-29.0091
G01 X81.0175 Y-28.9971
G01 X80.9989 Y-28.9228
G01 X80.9956 Y-28.9110
G01 X80.9918 Y-28.8994
G01 X80.9660 Y-28.8273
G01 X80.9616 Y-28.8158
G01 X80.9566 Y-28.8046
G01 X80.9239 Y-28.7354
G01 X80.9184 Y-28.7245
G01 X80.9123 Y-28.7138
G01 X80.8730 Y-28.6481
G01 X80.8664 Y-28.6378
G01 X80.8593 Y-28.6277
G01 X80.8137 Y-28.5662
G01 X80.8062 Y-28.5566
G01 X80.7982 Y-28.5473
G01 X80.7468 Y-28.4906
G01 X80.7383 Y-28.4817
G01 X80.7294 Y-28.4732
G01 X80.6727 Y-28.4218
G01 X80.6634 Y-28.4138
G01 X80.6538 Y-28.4063
G01 X80.5923 Y-28.3607
G01 X80.5822 Y-28.3536
G01 X80.5719 Y-28.3470
G01 X80.5062 Y-28.3077
G01 X80.4955 Y-28.3016
G01 X80.4846 Y-28.2961
G01 X80.4154 Y-28.2634
G01 X80.4042 Y-28.2584
G01 X80.3927 Y-28.2540
G01 X80.3206 Y-28.2282
G01 X80.3090 Y-28.2244
G01 X80.2972 Y-28.2211
G01 X80.2229 Y-28.2025
G01 X80.2109 Y-28.1998
G01 X80.1989 Y-28.1977
G01 X80.1231 Y-28.1865
G01 X80.1110 Y-28.1850
G01 X80.0987 Y-28.1841
G01 X80.0223 Y-28.1803
G01 X80.0100 Y-28.1800
G01 X79.9977 Y-28.1803
G01 X79.9213 Y-28.1841
G01 X79.9090 Y-28.1850
G01 X79.8969 Y-28.1865
G01 X79.8211 Y-28.1977
G01 X79.8091 Y-28.1998
G01 X79.7971 Y-28.2025
G01 X79.7228 Y-28.2211
G01 X79.7110 Y-28.2244
G01 X79.6994 Y-28.2282
G01 X79.6273 Y-28.2540
G01 X79.6158 Y-28.2584
G01 X79.6046 Y-28.2634
G01 X79.5354 Y-28.2961
G01 X79.5245 Y-28.3016
G01 X79.5138 Y-28.3077
G01 X79.4481 Y-28.3470
G01 X79.4378 Y-28.3536
G01 X79.4277 Y-28.3607
G01 X79.3662 Y-28.4063
G01 X79.3566 Y-28.4138
G01 X79.3473 Y-28.4218
G01 X79.2906 Y-28.4732
G01 X79.2817 Y-28.4817
G01 X79.2732 Y-28.4906
G01 X79.2218 Y-28.5473
G01 X79.2138 Y-28.5566
G01 X79.2063 Y-28.5662
G01 X79.1607 Y-28.6277
G01 X79.1536 Y-28.6378
G01 X79.1470 Y-28.6481
G01 X79.1077 Y-28.7138
G01 X79.1016 Y-28.7245
G01 X79.0961 Y-28.7354
G01 X79.0634 Y-28.8046
G01 X79.0584 Y-28.8158
G01 X79.0540 Y-28.8273
G01 X79.0282 Y-28.8994
G01 X79.0244 Y-28.9110
G01 X79.0211 Y-28.9228
G01 X79.0025 Y-28.9971
G01 X78.9998 Y-29.0091
G01 X78.9977 Y-29.0211
G01 X78.9865 Y-29.0969
G01 X78.9850 Y-29.1090
G01 X78.9841 Y-29.1213
G01 X78.9803 Y-29.1977
G01 X78.9800 Y-29.2100
G01 X78.9803 Y-29.2223
G01 X78.9841 Y-29.2987
G01 X78.9850 Y-29.3110
G01 X78.9865 Y-29.3231
G01 X78.9977 Y-29.3989
G01 X78.9998 Y-29.4109
G01 X79.0025 Y-29.4229
G01 X79.0211 Y-29.4972
G01 X79.0244 Y-29.5090
G01 X79.0282 Y-29.5206
G01 X79.0540 Y-29.5927
G01 X79.0584 Y-29.6042
G01 X79.0634 Y-29.6154
G01 X79.0961 Y-29.6846
G01 X79.1016 Y-29.6955
G01 X79.1077 Y-29.7062
G01 X79.1470 Y-29.7719
G01 X79.1536 Y-29.7822
G01 X79.1607 Y-29.7923
G01 X79.2063 Y-29.8538
G01 X79.2138 Y-29.8634
G01 X79.2218 Y-29.8727
G01 X79.2732 Y-29.9294
G01 X79.2817 Y-29.9383
G01 X79.2906 Y-29.9468
G01 X79.3473 Y-29.9982
G01 X79.3566 Y-30.0062
G01 X79.3662 Y-30.0137
G01 X79.4277 Y-30.0593
G01 X79.4378 Y-30.0664
G01 X79.4481 Y-30.0730
G01 X79.5138 Y-30.1123
G01 X79.5245 Y-30.1184
G01 X79.5354 Y-30.1239
G01 X79.6046 Y-30.1566
G01 X79.6158 Y-30.1616
G01 X79.6273 Y-30.1660
G01 X79.6994 Y-30.1918
G01 X79.7110 Y-30.1956
G01 X79.7228 Y-30.1989
G01 X79.7971 Y-30.2175
G01 X79.8091 Y-30.2202
G01 X79.8211 Y-30.2223
G01 X79.8969 Y-30.2335
G01 X79.9090 Y-30.2350
G01 X79.9213 Y-30.2359
G01 X79.9977 Y-30.2397
G01 X80.0100 Y-30.2400
G01 X80.0223 Y-30.2397
G01 X80.0987 Y-30.2359
G01 X80.1110 Y-30.2350
G01 X80.1231 Y-30.2335
G01 X80.1989 Y-30.2223
G01 X80.2109 Y-30.2202
G01 X80.2229 Y-30.2175
G01 X80.2972 Y-30.1989
G01 X80.3090 Y-30.1956
G01 X80.3206 Y-30.1918
G01 X80.3927 Y-30.1660
G01 X80.4042 Y-30.1616
G01 X80.4154 Y-30.1566
G01 X80.4846 Y-30.1239
G01 X80.4955 Y-30.1184
G01 X80.5062 Y-30.1123
G01 X80.5719 Y-30.0730
G01 X80.5822 Y-30.0664
G01 X80.5923 Y-30.0593
G01 X80.6538 Y-30.0137
G01 X80.6634 Y-30.0062
G01 X80.6727 Y-29.9982
G01 X80.7294 Y-29.9468
G01 X80.7383 Y-29.9383
G01 X80.7468 Y-29.9294
G01 X80.7982 Y-29.8727
G01 X80.8062 Y-29.8634
G01 X80.8137 Y-29.8538
G01 X80.8593 Y-29.7923
G01 X80.8664 Y-29.7822
G01 X80.8730 Y-29.7719
G01 X80.9123 Y-29.7062
G01 X80.9184 Y-29.6955
G01 X80.9239 Y-29.6846
G01 X80.9566 Y-29.6154
G01 X80.9616 Y-29.6042
G01 X80.9660 Y-29.5927
G01 X80.9918 Y-29.5206
G01 X80.9956 Y-29.5090
G01 X80.9989 Y-29.4972
G01 X81.0175 Y-29.4229
G01 X81.0202 Y-29.4109
G01 X81.0223 Y-29.3989
G01 X81.0335 Y-29.3231
G01 X81.0350 Y-29.3110
G01 X81.0359 Y-29.2987
G01 X81.0397 Y-29.2223
G01 X81.0400 Y-29.2100
G01 X81.0397 Y-29.1977
G00 Z2.0000
G00 X100.7297 Y-30.9977
G01 F60.00
G01 Z-0.0500
G01 F120.00
G01 X100.7143 Y-30.6841
G01 X100.7134 Y-30.6718
G01 X100.7119 Y-30.6597
G01 X100.6658 Y-30.3490
G01 X100.6637 Y-30.3369
G01 X100.6610 Y-30.3250
G01 X100.5847 Y-30.0203
G01 X100.5814 Y-30.0085
G01 X100.5776 Y-29.9969
G01 X100.4718 Y-29.7012
G01 X100.4674 Y-29.6897
G01 X100.4624 Y-29.6785
G01 X100.3281 Y-29.3946
G01 X100.3226 Y-29.3837
G01 X100.3166 Y-29.3730
G01 X100.1551 Y-29.1036
G01 X100.1486 Y-29.0933
G01 X100.1415 Y-29.0833
G01 X99.9544 Y-28.8310
G01 X99.9469 Y-28.8213
G01 X99.9389 Y-28.8121
G01 X99.7280 Y-28.5794
G01 X99.7195 Y-28.5705
G01 X99.7106 Y-28.5620
G01 X99.4779 Y-28.3511
G01 X99.4687 Y-28.3431
G01 X99.4590 Y-28.3356
G01 X99.2067 Y-28.1485
G01 X99.1967 Y-28.1414
G01 X99.1864 Y-28.1349
G01 X98.9170 Y-27.9734
G01 X98.9063 Y-27.9674
G01 X98.8954 Y-27.9619
G01 X98.6115 Y-27.8276
G01 X98.6003 Y-27.8226
G01 X98.5888 Y-27.8182
G01 X98.2931 Y-27.7124
G01 X98.2815 Y-27.7086
G01 X98.2697 Y-27.7053
G01 X97.9650 Y-27.6290
G01 X97.9531 Y-27.6263
G01 X97.9410 Y-27.6242
G01 X97.6303 Y-27.5781
G01 X97.6182 Y-27.5766
G01 X97.6059 Y-27.5757
G01 X97.2923 Y-27.5603
G01 X97.2800 Y-27.5600
G01 X97.2677 Y-27.5603
G01 X96.9541 Y-27.5757
G01 X96.9418 Y-27.5766
G01 X96.9297 Y-27.5781
G01 X96.6190 Y-27.6242
G01 X96.6069 Y-27.6263
G01 X96.5950 Y-27.6290
G01 X96.2903 Y-27.7053
G01 X96.2785 Y-27.7086
G01 X96.2669 Y-27.7124
G01 X95.9712 Y-27.8182
G01 X95.9597 Y-27.8226
G01 X95.9485 Y-27.8276
G01 X95.6646 Y-27.9619
G01 X95.6537 Y-27.9674
G01 X95.6430 Y-27.9734
G01 X95.3736 Y-28.1349
G01 X95.3633 Y-28.1414
G01 X95.3533 Y-28.1485
G01 X95.1010 Y-28.3356
G01 X95.0913 Y-28.3431
G01 X95.0821 Y-28.3511
G01 X94.8494 Y-28.5620
G01 X94.8405 Y-28.5705
G01 X94.8320 Y-28.5794
G01 X94.6211 Y-28.8121
G01 X94.6131 Y-28.8213
G01 X94.6056 Y-28.8310
G01 X94.4185 Y-29.0833
G01 X94.4114 Y-29.0933
G01 X94.4049 Y-29.1036
G01 X94.2434 Y-29.3730
G01 X94.2374 Y-29.3837
G01 X94.2319 Y-29.3946
G01 X94.0976 Y-29.6785
G01 X94.0926 Y-29.6897
G01 X94.0882 Y-29.7012
G01 X93.9824 Y-29.9969
G01 X93.9786 Y-30.0085
G01 X93.9753 Y-30.0203
G01 X93.8990 Y-30.3250
G01 X93.8963 Y-30.3369
G01 X93.8942 Y-30.3490
G01 X93.8481 Y-30.6597
G01 X93.8466 Y-30.6718
G01 X93.8457 Y-30.6841
G01 X93.8303 Y-30.9977
G01 X93.8300 Y-31.0100
G01 X93.8303 Y-31.0223
G01 X93.8457 Y-31.3359
G01 X93.8466 Y-31.3482
G01 X93.8481 Y-31.3603
G01 X93.8942 Y-31.6710
G01 X93.8963 Y-31.6831
G01 X93.8990 Y-31.6950
G01 X93.9753 Y-31.9997
G01 X93.9786 Y-32.0115
G01 X93.9824 Y-32.0231
G01 X94.0882 Y-32.3188
